;FLAVOR:UltiGCode
;TIME:2932
;MATERIAL:3484
;MATERIAL2:0
;NOZZLE_DIAMETER:0.400000
;NOZZLE_DIAMETER2:0.400000

;Layer count: 78
;LAYER:0
M107
G0 F9000 X11.800 Y103.800 Z0.300
;TYPE:SKIRT
G1 F1200 X25.200 Y103.800 E1.60800
G1 X25.200 Y105.800 E1.84800
G1 X204.800 Y105.800 E23.40000
G1 X204.800 Y103.800 E23.64000
G1 X218.200 Y103.800 E25.24800
G1 X218.200 Y121.200 E27.33600
G1 X204.800 Y121.200 E28.94400
G1 X204.800 Y119.200 E29.18400
G1 X25.200 Y119.200 E50.73600
G1 X25.200 Y121.200 E50.97600
G1 X11.800 Y121.200 E52.58400
G1 X11.800 Y103.800 E54.67200
G10
G0 F9000 X15.600 Y107.600
;TYPE:WALL-INNER
G11
G1 F1200 X21.400 Y107.600 E55.36800
G1 X21.400 Y109.600 E55.60800
G1 X208.600 Y109.600 E78.07200
G1 X208.600 Y107.600 E78.31200
G1 X214.400 Y107.600 E79.00800
G1 X214.400 Y117.400 E80.18400
G1 X208.600 Y117.400 E80.88000
G1 X208.600 Y115.400 E81.12000
G1 X21.400 Y115.400 E103.58400
G1 X21.400 Y117.400 E103.82400
G1 X15.600 Y117.400 E104.52000
G1 X15.600 Y107.600 E105.69600
G0 F9000 X16.150 Y108.250
G1 F1200 X16.150 Y116.750 E106.71600
G1 X20.850 Y116.750 E107.28000
G1 X20.850 Y108.250 E108.30000
G1 X16.150 Y108.250 E108.86400
G0 F9000 X21.400 Y108.250
G0 X21.459 Y109.541
G0 X208.541 Y109.541
G0 X209.150 Y108.250
G1 F1200 X209.150 Y116.750 E109.88400
G1 X213.850 Y116.750 E110.44800
G1 X213.850 Y108.250 E111.46800
G1 X209.150 Y108.250 E112.03200
G0 F9000 X209.550 Y108.650
;TYPE:WALL-OUTER
G1 F1200 X209.550 Y116.350 E112.95600
G1 X213.450 Y116.350 E113.42400
G1 X213.450 Y108.650 E114.34800
G1 X209.550 Y108.650 E114.81600
G0 F9000 X208.200 Y109.200
G1 F1200 X208.200 Y107.200 E115.05600
G1 X214.800 Y107.200 E115.84800
G1 X214.800 Y117.800 E117.12000
G1 X208.200 Y117.800 E117.91200
G1 X208.200 Y115.800 E118.15200
G1 X21.800 Y115.800 E140.52000
G1 X21.800 Y117.800 E140.76000
G1 X15.200 Y117.800 E141.55200
G1 X15.200 Y107.200 E142.82400
G1 X21.800 Y107.200 E143.61600
G1 X21.800 Y109.200 E143.85600
G1 X208.200 Y109.200 E166.22400
G0 F9000 X208.200 Y109.500
G0 X21.459 Y109.541
G0 X21.398 Y108.355
G0 X20.450 Y108.350
G0 X20.450 Y108.650
G1 F1200 X16.550 Y108.650 E166.69200
G1 X16.550 Y116.350 E167.61600
G1 X20.450 Y116.350 E168.08400
G1 X20.450 Y108.650 E169.00800
G0 F9000 X20.989 Y108.388
;TYPE:SKIN
G1 F1200 X21.124 Y108.805 E169.05363
G1 X21.259 Y109.223 E169.10634
G0 F9000 X20.989 Y109.519
G1 F1200 X26.730 Y115.259 E170.08053
G0 F9000 X27.295 Y115.259
G1 F1200 X21.775 Y109.739 E171.01731
G0 F9000 X22.341 Y109.739
G1 F1200 X27.861 Y115.259 E171.95408
G0 F9000 X28.427 Y115.259
G1 F1200 X22.906 Y109.739 E172.89094
G0 F9000 X23.472 Y109.739
G1 F1200 X28.992 Y115.259 E173.82772
G0 F9000 X29.558 Y115.259
G1 F1200 X24.038 Y109.739 E174.76449
G0 F9000 X24.603 Y109.739
G1 F1200 X30.124 Y115.259 E175.70135
G0 F9000 X30.689 Y115.259
G1 F1200 X25.169 Y109.739 E176.63813
G0 F9000 X25.735 Y109.739
G1 F1200 X31.255 Y115.259 E177.57490
G0 F9000 X31.821 Y115.259
G1 F1200 X26.300 Y109.739 E178.51176
G0 F9000 X26.866 Y109.739
G1 F1200 X32.386 Y115.259 E179.44854
G0 F9000 X32.952 Y115.259
G1 F1200 X27.432 Y109.739 E180.38531
G0 F9000 X27.997 Y109.739
G1 F1200 X33.518 Y115.259 E181.32217
G0 F9000 X34.083 Y115.259
G1 F1200 X28.563 Y109.739 E182.25895
G0 F9000 X29.129 Y109.739
G1 F1200 X34.649 Y115.259 E183.19572
G0 F9000 X35.215 Y115.259
G1 F1200 X29.694 Y109.739 E184.13258
G0 F9000 X30.260 Y109.739
G1 F1200 X35.781 Y115.259 E185.06944
G0 F9000 X36.346 Y115.259
G1 F1200 X30.826 Y109.739 E186.00622
G0 F9000 X31.392 Y109.739
G1 F1200 X36.912 Y115.259 E186.94299
G0 F9000 X37.478 Y115.259
G1 F1200 X31.957 Y109.739 E187.87985
G0 F9000 X32.523 Y109.739
G1 F1200 X38.043 Y115.259 E188.81663
G0 F9000 X38.609 Y115.259
G1 F1200 X33.089 Y109.739 E189.75340
G0 F9000 X33.654 Y109.739
G1 F1200 X39.175 Y115.259 E190.69026
G0 F9000 X39.740 Y115.259
G1 F1200 X34.220 Y109.739 E191.62704
G0 F9000 X34.786 Y109.739
G1 F1200 X40.306 Y115.259 E192.56381
G0 F9000 X40.872 Y115.259
G1 F1200 X35.351 Y109.739 E193.50067
G0 F9000 X35.917 Y109.739
G1 F1200 X41.437 Y115.259 E194.43745
G0 F9000 X42.003 Y115.259
G1 F1200 X36.483 Y109.739 E195.37422
G0 F9000 X37.048 Y109.739
G1 F1200 X42.569 Y115.259 E196.31108
G0 F9000 X43.134 Y115.259
G1 F1200 X37.614 Y109.739 E197.24786
G0 F9000 X38.180 Y109.739
G1 F1200 X43.700 Y115.259 E198.18463
G0 F9000 X44.266 Y115.259
G1 F1200 X38.745 Y109.739 E199.12149
G0 F9000 X39.311 Y109.739
G1 F1200 X44.831 Y115.259 E200.05827
G0 F9000 X45.397 Y115.259
G1 F1200 X39.877 Y109.739 E200.99504
G0 F9000 X26.164 Y115.259
G1 F1200 X20.989 Y110.085 E201.87319
G0 F9000 X20.989 Y110.650
G1 F1200 X25.598 Y115.259 E202.65536
G0 F9000 X25.032 Y115.259
G1 F1200 X20.989 Y111.216 E203.34148
G0 F9000 X20.989 Y111.782
G1 F1200 X24.467 Y115.259 E203.93163
G0 F9000 X23.901 Y115.259
G1 F1200 X20.989 Y112.347 E204.42581
G0 F9000 X20.989 Y112.913
G1 F1200 X23.335 Y115.259 E204.82394
G0 F9000 X22.770 Y115.259
G1 F1200 X20.989 Y113.479 E205.12610
G0 F9000 X20.989 Y114.045
G1 F1200 X22.204 Y115.259 E205.33221
G0 F9000 X21.638 Y115.259
G1 F1200 X20.989 Y114.610 E205.44235
G0 F9000 X20.989 Y115.176
G1 F1200 X21.124 Y115.594 E205.48808
G1 X21.124 Y116.159 E205.53367
G1 X21.124 Y116.725 E205.57935
G1 X21.034 Y117.201 E205.62498
G1 X20.341 Y117.073 E205.68777
G1 X19.775 Y117.073 E205.75060
G1 X19.210 Y117.073 E205.81331
G1 X18.644 Y117.073 E205.87614
G1 X18.078 Y117.073 E205.93897
G1 X17.513 Y117.073 E206.00168
G1 X16.947 Y117.073 E206.06451
G1 X16.381 Y117.073 E206.12733
G1 X15.875 Y116.567 E206.21964
G1 X15.875 Y116.001 E206.26532
G1 X15.875 Y115.435 E206.31100
G1 X15.875 Y114.869 E206.35667
G1 X15.875 Y114.304 E206.40227
G1 X15.875 Y113.738 E206.44795
G1 X15.875 Y113.172 E206.49362
G1 X15.875 Y112.607 E206.53922
G1 X15.875 Y112.041 E206.58489
G1 X15.875 Y111.475 E206.63057
G1 X15.875 Y110.910 E206.67616
G1 X15.875 Y110.344 E206.72184
G1 X15.875 Y109.778 E206.76752
G1 X15.875 Y109.213 E206.81311
G1 X15.875 Y108.647 E206.85879
G1 X15.962 Y108.169 E206.90456
G1 X16.097 Y107.739 E206.96729
G1 X16.848 Y107.924 E207.02994
G1 X17.414 Y107.924 E207.09260
G1 X17.979 Y107.924 E207.15531
G1 X18.545 Y107.924 E207.21797
G1 X19.111 Y107.924 E207.28063
G1 X19.676 Y107.924 E207.34334
G1 X20.242 Y107.924 E207.40600
G1 X20.808 Y107.924 E207.46865
G1 X21.259 Y108.092 E207.52641
G0 F9000 X21.459 Y109.541
G0 X40.442 Y109.739
G1 F1200 X45.963 Y115.259 E208.46327
G0 F9000 X46.529 Y115.259
G1 F1200 X41.008 Y109.739 E209.40013
G0 F9000 X41.574 Y109.739
G1 F1200 X47.094 Y115.259 E210.33690
G0 F9000 X47.660 Y115.259
G1 F1200 X42.140 Y109.739 E211.27368
G0 F9000 X42.705 Y109.739
G1 F1200 X48.226 Y115.259 E212.21054
G0 F9000 X48.791 Y115.259
G1 F1200 X43.271 Y109.739 E213.14731
G0 F9000 X43.837 Y109.739
G1 F1200 X49.357 Y115.259 E214.08409
G0 F9000 X49.923 Y115.259
G1 F1200 X44.402 Y109.739 E215.02095
G0 F9000 X44.968 Y109.739
G1 F1200 X50.488 Y115.259 E215.95772
G0 F9000 X51.054 Y115.259
G1 F1200 X45.534 Y109.739 E216.89450
G0 F9000 X46.099 Y109.739
G1 F1200 X51.620 Y115.259 E217.83136
G0 F9000 X52.185 Y115.259
G1 F1200 X46.665 Y109.739 E218.76813
G0 F9000 X47.231 Y109.739
G1 F1200 X52.751 Y115.259 E219.70491
G0 F9000 X53.317 Y115.259
G1 F1200 X47.796 Y109.739 E220.64177
G0 F9000 X48.362 Y109.739
G1 F1200 X53.882 Y115.259 E221.57854
G0 F9000 X54.448 Y115.259
G1 F1200 X48.928 Y109.739 E222.51532
G0 F9000 X49.493 Y109.739
G1 F1200 X55.014 Y115.259 E223.45218
G0 F9000 X55.580 Y115.259
G1 F1200 X50.059 Y109.739 E224.38904
G0 F9000 X50.625 Y109.739
G1 F1200 X56.145 Y115.259 E225.32581
G0 F9000 X56.711 Y115.259
G1 F1200 X51.190 Y109.739 E226.26267
G0 F9000 X51.756 Y109.739
G1 F1200 X57.277 Y115.259 E227.19953
G0 F9000 X57.842 Y115.259
G1 F1200 X52.322 Y109.739 E228.13631
G0 F9000 X52.888 Y109.739
G1 F1200 X58.408 Y115.259 E229.07308
G0 F9000 X58.974 Y115.259
G1 F1200 X53.453 Y109.739 E230.00994
G0 F9000 X54.019 Y109.739
G1 F1200 X59.539 Y115.259 E230.94672
G0 F9000 X60.105 Y115.259
G1 F1200 X54.585 Y109.739 E231.88349
G0 F9000 X55.150 Y109.739
G1 F1200 X60.671 Y115.259 E232.82035
G0 F9000 X61.236 Y115.259
G1 F1200 X55.716 Y109.739 E233.75713
G0 F9000 X56.282 Y109.739
G1 F1200 X61.802 Y115.259 E234.69390
G0 F9000 X62.368 Y115.259
G1 F1200 X56.847 Y109.739 E235.63076
G0 F9000 X57.413 Y109.739
G1 F1200 X62.933 Y115.259 E236.56754
G0 F9000 X63.499 Y115.259
G1 F1200 X57.979 Y109.739 E237.50431
G0 F9000 X58.544 Y109.739
G1 F1200 X64.065 Y115.259 E238.44117
G0 F9000 X64.630 Y115.259
G1 F1200 X59.110 Y109.739 E239.37795
G0 F9000 X59.676 Y109.739
G1 F1200 X65.196 Y115.259 E240.31472
G0 F9000 X65.762 Y115.259
G1 F1200 X60.241 Y109.739 E241.25158
G0 F9000 X60.807 Y109.739
G1 F1200 X66.328 Y115.259 E242.18844
G0 F9000 X66.893 Y115.259
G1 F1200 X61.373 Y109.739 E243.12522
G0 F9000 X61.939 Y109.739
G1 F1200 X67.459 Y115.259 E244.06199
G0 F9000 X68.025 Y115.259
G1 F1200 X62.504 Y109.739 E244.99885
G0 F9000 X63.070 Y109.739
G1 F1200 X68.590 Y115.259 E245.93563
G0 F9000 X69.156 Y115.259
G1 F1200 X63.636 Y109.739 E246.87240
G0 F9000 X64.201 Y109.739
G1 F1200 X69.722 Y115.259 E247.80926
G0 F9000 X70.287 Y115.259
G1 F1200 X64.767 Y109.739 E248.74604
G0 F9000 X65.333 Y109.739
G1 F1200 X70.853 Y115.259 E249.68281
G0 F9000 X71.419 Y115.259
G1 F1200 X65.898 Y109.739 E250.61967
G0 F9000 X66.464 Y109.739
G1 F1200 X71.984 Y115.259 E251.55645
G0 F9000 X72.550 Y115.259
G1 F1200 X67.030 Y109.739 E252.49322
G0 F9000 X67.595 Y109.739
G1 F1200 X73.116 Y115.259 E253.43008
G0 F9000 X73.681 Y115.259
G1 F1200 X68.161 Y109.739 E254.36686
G0 F9000 X68.727 Y109.739
G1 F1200 X74.247 Y115.259 E255.30363
G0 F9000 X74.813 Y115.259
G1 F1200 X69.292 Y109.739 E256.24049
G0 F9000 X69.858 Y109.739
G1 F1200 X75.378 Y115.259 E257.17727
G0 F9000 X75.944 Y115.259
G1 F1200 X70.424 Y109.739 E258.11404
G0 F9000 X70.989 Y109.739
G1 F1200 X76.510 Y115.259 E259.05090
G0 F9000 X77.076 Y115.259
G1 F1200 X71.555 Y109.739 E259.98776
G0 F9000 X72.121 Y109.739
G1 F1200 X77.641 Y115.259 E260.92454
G0 F9000 X78.207 Y115.259
G1 F1200 X72.687 Y109.739 E261.86131
G0 F9000 X73.252 Y109.739
G1 F1200 X78.773 Y115.259 E262.79817
G0 F9000 X79.338 Y115.259
G1 F1200 X73.818 Y109.739 E263.73495
G0 F9000 X74.384 Y109.739
G1 F1200 X79.904 Y115.259 E264.67172
G0 F9000 X80.470 Y115.259
G1 F1200 X74.949 Y109.739 E265.60858
G0 F9000 X75.515 Y109.739
G1 F1200 X81.035 Y115.259 E266.54536
G0 F9000 X81.601 Y115.259
G1 F1200 X76.081 Y109.739 E267.48213
G0 F9000 X76.646 Y109.739
G1 F1200 X82.167 Y115.259 E268.41899
G0 F9000 X82.732 Y115.259
G1 F1200 X77.212 Y109.739 E269.35577
G0 F9000 X77.778 Y109.739
G1 F1200 X83.298 Y115.259 E270.29254
G0 F9000 X83.864 Y115.259
G1 F1200 X78.343 Y109.739 E271.22940
G0 F9000 X78.909 Y109.739
G1 F1200 X84.429 Y115.259 E272.16618
G0 F9000 X84.995 Y115.259
G1 F1200 X79.475 Y109.739 E273.10295
G0 F9000 X80.040 Y109.739
G1 F1200 X85.561 Y115.259 E274.03981
G0 F9000 X86.127 Y115.259
G1 F1200 X80.606 Y109.739 E274.97667
G0 F9000 X81.172 Y109.739
G1 F1200 X86.692 Y115.259 E275.91345
G0 F9000 X87.258 Y115.259
G1 F1200 X81.738 Y109.739 E276.85022
G0 F9000 X82.303 Y109.739
G1 F1200 X87.824 Y115.259 E277.78708
G0 F9000 X88.389 Y115.259
G1 F1200 X82.869 Y109.739 E278.72386
G0 F9000 X83.435 Y109.739
G1 F1200 X88.955 Y115.259 E279.66063
G0 F9000 X89.521 Y115.259
G1 F1200 X84.000 Y109.739 E280.59749
G0 F9000 X84.566 Y109.739
G1 F1200 X90.086 Y115.259 E281.53427
G0 F9000 X90.652 Y115.259
G1 F1200 X85.132 Y109.739 E282.47104
G0 F9000 X85.697 Y109.739
G1 F1200 X91.218 Y115.259 E283.40790
G0 F9000 X91.783 Y115.259
G1 F1200 X86.263 Y109.739 E284.34468
G0 F9000 X86.829 Y109.739
G1 F1200 X92.349 Y115.259 E285.28145
G0 F9000 X92.915 Y115.259
G1 F1200 X87.394 Y109.739 E286.21831
G0 F9000 X87.960 Y109.739
G1 F1200 X93.480 Y115.259 E287.15509
G0 F9000 X94.046 Y115.259
G1 F1200 X88.526 Y109.739 E288.09186
G0 F9000 X89.091 Y109.739
G1 F1200 X94.612 Y115.259 E289.02872
G0 F9000 X95.177 Y115.259
G1 F1200 X89.657 Y109.739 E289.96550
G0 F9000 X90.223 Y109.739
G1 F1200 X95.743 Y115.259 E290.90227
G0 F9000 X96.309 Y115.259
G1 F1200 X90.788 Y109.739 E291.83913
G0 F9000 X91.354 Y109.739
G1 F1200 X96.875 Y115.259 E292.77599
G0 F9000 X97.440 Y115.259
G1 F1200 X91.920 Y109.739 E293.71277
G0 F9000 X92.486 Y109.739
G1 F1200 X98.006 Y115.259 E294.64954
G0 F9000 X98.572 Y115.259
G1 F1200 X93.051 Y109.739 E295.58640
G0 F9000 X93.617 Y109.739
G1 F1200 X99.137 Y115.259 E296.52318
G0 F9000 X99.703 Y115.259
G1 F1200 X94.183 Y109.739 E297.45995
G0 F9000 X94.748 Y109.739
G1 F1200 X100.269 Y115.259 E298.39681
G0 F9000 X100.834 Y115.259
G1 F1200 X95.314 Y109.739 E299.33359
G0 F9000 X95.880 Y109.739
G1 F1200 X101.400 Y115.259 E300.27036
G0 F9000 X101.966 Y115.259
G1 F1200 X96.445 Y109.739 E301.20722
G0 F9000 X97.011 Y109.739
G1 F1200 X102.531 Y115.259 E302.14400
G0 F9000 X103.097 Y115.259
G1 F1200 X97.577 Y109.739 E303.08077
G0 F9000 X98.142 Y109.739
G1 F1200 X103.663 Y115.259 E304.01763
G0 F9000 X104.228 Y115.259
G1 F1200 X98.708 Y109.739 E304.95441
G0 F9000 X99.274 Y109.739
G1 F1200 X104.794 Y115.259 E305.89118
G0 F9000 X105.360 Y115.259
G1 F1200 X99.839 Y109.739 E306.82804
G0 F9000 X100.405 Y109.739
G1 F1200 X105.926 Y115.259 E307.76490
G0 F9000 X106.491 Y115.259
G1 F1200 X100.971 Y109.739 E308.70168
G0 F9000 X101.536 Y109.739
G1 F1200 X107.057 Y115.259 E309.63854
G0 F9000 X107.623 Y115.259
G1 F1200 X102.102 Y109.739 E310.57540
G0 F9000 X102.668 Y109.739
G1 F1200 X108.188 Y115.259 E311.51217
G0 F9000 X108.754 Y115.259
G1 F1200 X103.234 Y109.739 E312.44895
G0 F9000 X103.799 Y109.739
G1 F1200 X109.320 Y115.259 E313.38581
G0 F9000 X109.885 Y115.259
G1 F1200 X104.365 Y109.739 E314.32258
G0 F9000 X104.931 Y109.739
G1 F1200 X110.451 Y115.259 E315.25936
G0 F9000 X111.017 Y115.259
G1 F1200 X105.496 Y109.739 E316.19622
G0 F9000 X106.062 Y109.739
G1 F1200 X111.582 Y115.259 E317.13299
G0 F9000 X112.148 Y115.259
G1 F1200 X106.628 Y109.739 E318.06977
G0 F9000 X107.193 Y109.739
G1 F1200 X112.714 Y115.259 E319.00663
G0 F9000 X113.279 Y115.259
G1 F1200 X107.759 Y109.739 E319.94340
G0 F9000 X108.325 Y109.739
G1 F1200 X113.845 Y115.259 E320.88018
G0 F9000 X114.411 Y115.259
G1 F1200 X108.890 Y109.739 E321.81704
G0 F9000 X109.456 Y109.739
G1 F1200 X114.976 Y115.259 E322.75381
G0 F9000 X115.542 Y115.259
G1 F1200 X110.022 Y109.739 E323.69059
G0 F9000 X110.587 Y109.739
G1 F1200 X116.108 Y115.259 E324.62745
G0 F9000 X116.674 Y115.259
G1 F1200 X111.153 Y109.739 E325.56431
G0 F9000 X111.719 Y109.739
G1 F1200 X117.239 Y115.259 E326.50108
G0 F9000 X117.805 Y115.259
G1 F1200 X112.285 Y109.739 E327.43786
G0 F9000 X112.850 Y109.739
G1 F1200 X118.371 Y115.259 E328.37472
G0 F9000 X118.936 Y115.259
G1 F1200 X113.416 Y109.739 E329.31149
G0 F9000 X113.982 Y109.739
G1 F1200 X119.502 Y115.259 E330.24827
G0 F9000 X120.068 Y115.259
G1 F1200 X114.547 Y109.739 E331.18513
G0 F9000 X115.114 Y109.740
G1 F1200 X120.633 Y115.259 E332.12173
G0 F9000 X121.199 Y115.259
G1 F1200 X115.679 Y109.740 E333.05842
G0 F9000 X116.245 Y109.740
G1 F1200 X121.765 Y115.259 E333.99511
G0 F9000 X122.330 Y115.259
G1 F1200 X116.811 Y109.740 E334.93172
G0 F9000 X117.376 Y109.740
G1 F1200 X122.896 Y115.259 E335.86841
G0 F9000 X123.462 Y115.259
G1 F1200 X117.942 Y109.740 E336.80510
G0 F9000 X118.508 Y109.740
G1 F1200 X124.027 Y115.259 E337.74170
G0 F9000 X124.593 Y115.259
G1 F1200 X119.073 Y109.740 E338.67839
G0 F9000 X119.639 Y109.740
G1 F1200 X125.159 Y115.259 E339.61508
G0 F9000 X125.724 Y115.259
G1 F1200 X120.205 Y109.740 E340.55169
G0 F9000 X120.771 Y109.740
G1 F1200 X126.290 Y115.259 E341.48830
G0 F9000 X126.856 Y115.259
G1 F1200 X121.336 Y109.740 E342.42499
G0 F9000 X121.902 Y109.740
G1 F1200 X127.422 Y115.259 E343.36168
G0 F9000 X127.987 Y115.259
G1 F1200 X122.468 Y109.740 E344.29828
G0 F9000 X123.033 Y109.740
G1 F1200 X128.553 Y115.259 E345.23497
G0 F9000 X129.119 Y115.259
G1 F1200 X123.599 Y109.740 E346.17166
G0 F9000 X124.165 Y109.740
G1 F1200 X129.684 Y115.259 E347.10827
G0 F9000 X130.250 Y115.259
G1 F1200 X124.730 Y109.740 E348.04496
G0 F9000 X125.296 Y109.740
G1 F1200 X130.816 Y115.259 E348.98165
G0 F9000 X131.381 Y115.259
G1 F1200 X125.862 Y109.740 E349.91825
G0 F9000 X126.427 Y109.740
G1 F1200 X131.947 Y115.259 E350.85494
