;FLAVOR:UltiGCode
;TIME:10414
;MATERIAL:12653
;MATERIAL2:0
;NOZZLE_DIAMETER:0.400000
;NOZZLE_DIAMETER2:0.400000

;Layer count: 278
;LAYER:0
M107
G0 F9000 X11.800 Y161.051 Z0.300
;TYPE:SKIRT
G1 F1200 X25.661 Y161.050 E1.66332
G1 X29.188 Y161.060 E2.08656
G1 X29.197 Y163.550 E2.38536
G1 X121.484 Y163.550 E13.45980
G1 X123.773 Y163.551 E13.73448
G1 X123.949 Y163.232 E13.77820
G1 X124.788 Y162.300 E13.92868
G1 X125.823 Y161.605 E14.07829
G1 X126.976 Y161.176 E14.22592
G1 X128.015 Y161.050 E14.35151
G1 X135.285 Y161.050 E15.22391
G1 X135.717 Y161.054 E15.27575
G1 X136.720 Y161.173 E15.39695
G1 X137.875 Y161.599 E15.54468
G1 X138.898 Y162.285 E15.69249
G1 X139.730 Y163.188 E15.83983
G1 X139.896 Y163.485 E15.88066
G1 X143.307 Y163.288 E16.29066
G1 X147.670 Y162.757 E16.81809
G1 X147.689 Y162.755 E16.82038
G1 X151.777 Y161.977 E17.31974
G1 X155.935 Y160.910 E17.83487
G1 X159.997 Y159.579 E18.34781
G1 X163.979 Y157.981 E18.86269
G1 X167.849 Y156.126 E19.37768
G1 X171.580 Y154.031 E19.89116
G1 X175.171 Y151.692 E20.40543
G1 X178.602 Y149.126 E20.91956
G1 X181.940 Y146.272 E21.44657
G1 X181.959 Y146.256 E21.44955
G1 X184.928 Y143.351 E21.94800
G1 X187.799 Y140.164 E22.46274
G1 X190.511 Y136.726 E22.98821
G1 X190.540 Y136.689 E22.99385
G1 X192.881 Y133.271 E23.49099
G1 X195.079 Y129.586 E24.00588
G1 X197.025 Y125.779 E24.51894
G1 X198.722 Y121.847 E25.03285
G1 X200.198 Y117.702 E25.56084
G1 X200.199 Y117.702 E25.56096
G1 X200.206 Y117.681 E25.56362
G1 X201.337 Y113.675 E26.06313
G1 X202.260 Y109.383 E26.58995
G1 X202.267 Y109.351 E26.59388
G1 X202.780 Y105.823 E27.02169
G1 X202.589 Y105.688 E27.04976
G1 X201.825 Y104.873 E27.18381
G1 X201.253 Y103.910 E27.31822
G1 X200.899 Y102.849 E27.45244
G1 X200.800 Y101.911 E27.56562
G1 X200.800 Y94.197 E28.49130
G1 X200.802 Y93.747 E28.54530
G1 X200.924 Y92.728 E28.66846
G1 X201.354 Y91.574 E28.81624
G1 X202.044 Y90.547 E28.96471
G1 X202.960 Y89.712 E29.11345
G1 X203.300 Y89.525 E29.16001
G1 X203.300 Y60.452 E32.64877
G1 X200.800 Y60.457 E32.94877
G1 X200.800 Y46.551 E34.61749
G1 X214.885 Y46.550 E36.30769
G1 X218.200 Y46.576 E36.70550
G1 X218.200 Y60.457 E38.37122
G1 X215.700 Y60.452 E38.67122
G1 X215.700 Y89.525 E42.15998
G1 X216.018 Y89.700 E42.20354
G1 X216.950 Y90.539 E42.35402
G1 X217.645 Y91.574 E42.50363
G1 X218.074 Y92.727 E42.65125
G1 X218.200 Y93.766 E42.77685
G1 X218.200 Y101.194 E43.66821
G1 X218.196 Y101.650 E43.72293
G1 X218.054 Y102.741 E43.85495
G1 X217.553 Y103.982 E44.01555
G1 X216.751 Y105.053 E44.17611
G1 X215.706 Y105.886 E44.33648
G1 X215.235 Y106.094 E44.39826
G1 X214.728 Y109.998 E44.87068
G1 X214.729 Y109.998 E44.87080
G1 X214.697 Y110.246 E44.90080
G1 X213.788 Y114.928 E45.47313
G1 X212.557 Y119.688 E46.06312
G1 X211.029 Y124.364 E46.65344
G1 X209.209 Y128.936 E47.24396
G1 X207.107 Y133.383 E47.83421
G1 X204.728 Y137.690 E48.42465
G1 X202.083 Y141.838 E49.01500
G1 X199.237 Y145.739 E49.59445
G1 X199.087 Y145.942 E49.62474
G1 X196.037 Y149.598 E50.19608
G1 X192.663 Y153.174 E50.78606
G1 X189.069 Y156.534 E51.37646
G1 X185.271 Y159.660 E51.96674
G1 X181.364 Y162.482 E52.54509
G1 X181.162 Y162.628 E52.57500
G1 X177.118 Y165.168 E53.14806
G1 X172.670 Y167.596 E53.75617
G1 X168.445 Y169.560 E54.31527
G1 X168.213 Y169.669 E54.34603
G1 X163.854 Y171.369 E54.90748
G1 X163.624 Y171.459 E54.93712
G1 X159.173 Y172.881 E55.49783
G1 X158.936 Y172.957 E55.52770
G1 X154.311 Y174.119 E56.09995
G1 X149.478 Y175.025 E56.69001
G1 X144.694 Y175.612 E57.26840
G1 X144.445 Y175.643 E57.29851
G1 X140.253 Y175.884 E57.80238
G1 X140.219 Y175.946 E57.81086
G1 X140.019 Y176.294 E57.85903
G1 X139.211 Y177.189 E58.00372
G1 X138.182 Y177.889 E58.15306
G1 X137.014 Y178.326 E58.30271
G1 X135.970 Y178.450 E58.42887
G1 X128.715 Y178.450 E59.29947
G1 X128.261 Y178.446 E59.35395
G1 X127.149 Y178.300 E59.48854
G1 X125.889 Y177.780 E59.65211
G1 X124.803 Y176.947 E59.81635
G1 X124.039 Y175.951 E59.96698
G1 X31.080 Y175.950 E71.12206
G1 X29.200 Y175.951 E71.34766
G1 X29.200 Y178.450 E71.64754
G1 X11.800 Y178.450 E73.73554
G1 X11.800 Y161.051 E75.82342
G10
G0 F9000 X15.600 Y164.851
;TYPE:WALL-INNER
G11
G1 F1200 X25.408 Y164.850 E77.00038
G1 X25.483 Y165.424 E77.06985
G1 X25.743 Y166.052 E77.15141
G1 X26.157 Y166.593 E77.23316
G1 X26.698 Y167.007 E77.31491
G1 X27.326 Y167.267 E77.39647
G1 X27.961 Y167.350 E77.47332
G1 X124.536 Y167.351 E89.06232
G1 X125.113 Y167.281 E89.13207
G1 X125.689 Y167.067 E89.20580
G1 X126.201 Y166.723 E89.27982
G1 X126.616 Y166.267 E89.35381
G1 X127.066 Y165.450 E89.46574
G1 X127.298 Y165.192 E89.50738
G1 X127.572 Y165.008 E89.54698
G1 X127.877 Y164.895 E89.58601
G1 X128.247 Y164.850 E89.63074
G1 X135.267 Y164.850 E90.47314
G1 X135.474 Y164.852 E90.49798
G1 X135.826 Y164.894 E90.54052
G1 X136.136 Y165.008 E90.58016
G1 X136.406 Y165.189 E90.61916
G1 X136.631 Y165.433 E90.65899
G1 X137.053 Y166.191 E90.76310
G1 X137.098 Y166.269 E90.77391
G1 X137.525 Y166.724 E90.84878
G1 X138.049 Y167.066 E90.92387
G1 X138.642 Y167.274 E90.99928
G1 X139.239 Y167.330 E91.07124
G1 X143.649 Y167.075 E91.60132
G1 X148.131 Y166.529 E92.14314
G1 X148.291 Y166.509 E92.16249
G1 X152.605 Y165.688 E92.68946
G1 X156.995 Y164.561 E93.23334
G1 X161.302 Y163.150 E93.77721
G1 X165.510 Y161.462 E94.32128
G1 X169.598 Y159.502 E94.86531
G1 X173.550 Y157.283 E95.40919
G1 X177.349 Y154.808 E95.95328
G1 X180.979 Y152.094 E96.49717
G1 X184.411 Y149.159 E97.03907
G1 X187.671 Y145.984 E97.58515
G1 X190.705 Y142.615 E98.12921
G1 X193.502 Y139.071 E98.67098
G1 X193.601 Y138.944 E98.69030
G1 X196.083 Y135.320 E99.21740
G1 X198.404 Y131.428 E99.76118
G1 X200.467 Y127.392 E100.30510
G1 X202.264 Y123.230 E100.84911
G1 X203.778 Y118.977 E101.39084
G1 X203.832 Y118.825 E101.41020
G1 X205.025 Y114.599 E101.93714
G1 X205.975 Y110.186 E102.47883
G1 X206.639 Y105.700 E103.02301
G1 X206.666 Y105.517 E103.04521
G1 X206.663 Y104.928 E103.11589
G1 X206.515 Y104.332 E103.18958
G1 X206.232 Y103.786 E103.26338
G1 X205.828 Y103.322 E103.33721
G1 X205.093 Y102.803 E103.44518
G1 X204.880 Y102.576 E103.48254
G1 X204.729 Y102.321 E103.51810
G1 X204.635 Y102.041 E103.55354
G1 X204.600 Y101.707 E103.59384
G1 X204.600 Y94.205 E104.49408
G1 X204.601 Y93.985 E104.52048
G1 X204.644 Y93.628 E104.56363
G1 X204.757 Y93.323 E104.60266
G1 X204.944 Y93.045 E104.64287
G1 X205.184 Y92.826 E104.68185
G1 X206.001 Y92.376 E104.79378
G1 X206.471 Y91.953 E104.86966
G1 X206.816 Y91.440 E104.94385
G1 X207.030 Y90.864 E105.01758
G1 X207.100 Y90.286 E105.08745
G1 X207.100 Y59.211 E108.81645
G1 X207.015 Y58.577 E108.89321
G1 X206.756 Y57.948 E108.97484
G1 X206.340 Y57.405 E109.05692
G1 X206.268 Y57.351 E109.06772
G1 X205.802 Y56.994 E109.13817
G1 X205.174 Y56.735 E109.21969
G1 X204.600 Y56.658 E109.28918
G1 X204.600 Y50.351 E110.04602
G1 X214.400 Y50.350 E111.22202
G1 X214.400 Y56.658 E111.97898
G1 X213.825 Y56.735 E112.04860
G1 X213.198 Y56.994 E112.13000
G1 X212.655 Y57.410 E112.21209
G1 X212.243 Y57.948 E112.29340
G1 X211.983 Y58.577 E112.37508
G1 X211.900 Y59.211 E112.45181
G1 X211.900 Y90.287 E116.18093
G1 X211.969 Y90.863 E116.25054
G1 X212.183 Y91.440 E116.32439
G1 X212.527 Y91.952 E116.39841
G1 X212.983 Y92.367 E116.47240
G1 X213.800 Y92.817 E116.58433
G1 X214.058 Y93.049 E116.62596
G1 X214.242 Y93.323 E116.66557
G1 X214.355 Y93.628 E116.70460
G1 X214.400 Y93.998 E116.74933
G1 X214.400 Y101.176 E117.61069
G1 X214.398 Y101.389 E117.63625
G1 X214.349 Y101.769 E117.68223
G1 X214.215 Y102.099 E117.72497
G1 X214.000 Y102.386 E117.76800
G1 X213.722 Y102.608 E117.81069
G1 X212.830 Y102.996 E117.92742
G1 X212.336 Y103.366 E118.00148
G1 X211.944 Y103.841 E118.07539
G1 X211.673 Y104.394 E118.14929
G1 X211.551 Y104.953 E118.21795
G1 X210.943 Y109.640 E118.78510
G1 X210.080 Y114.088 E119.32881
G1 X208.906 Y118.629 E119.89165
G1 X207.455 Y123.069 E120.45218
G1 X205.722 Y127.423 E121.01452
G1 X203.726 Y131.646 E121.57504
G1 X201.464 Y135.741 E122.13642
G1 X198.944 Y139.692 E122.69877
G1 X196.173 Y143.491 E123.26304
G1 X193.192 Y147.076 E123.82253
G1 X189.982 Y150.479 E124.38390
G1 X186.557 Y153.680 E124.94646
G1 X182.947 Y156.651 E125.50750
G1 X179.138 Y159.402 E126.07133
G1 X175.205 Y161.882 E126.62928
G1 X170.949 Y164.206 E127.21118
G1 X166.829 Y166.120 E127.75633
G1 X162.361 Y167.873 E128.33228
G1 X157.886 Y169.303 E128.89603
G1 X153.500 Y170.405 E129.43871
G1 X148.901 Y171.267 E130.00020
G1 X144.097 Y171.857 E130.58101
G1 X139.542 Y172.118 E131.12851
G1 X138.836 Y172.205 E131.21387
G1 X138.267 Y172.431 E131.28734
G1 X137.770 Y172.777 E131.36001
G1 X137.366 Y173.230 E131.43284
G1 X136.920 Y174.057 E131.54560
G1 X136.697 Y174.304 E131.58553
G1 X136.423 Y174.490 E131.62527
G1 X136.113 Y174.606 E131.66499
G1 X135.744 Y174.650 E131.70958
G1 X128.733 Y174.650 E132.55090
G1 X128.526 Y174.648 E132.57574
G1 X128.139 Y174.597 E132.62258
G1 X127.800 Y174.457 E132.66660
G1 X127.513 Y174.237 E132.70999
G1 X127.293 Y173.950 E132.75339
G1 X127.153 Y173.611 E132.79740
G1 X127.100 Y173.210 E132.84594
G1 X127.100 Y172.151 E132.97302
G1 X27.961 Y172.151 E144.86970
G1 X27.326 Y172.234 E144.94655
G1 X26.698 Y172.494 E145.02811
G1 X26.155 Y172.910 E145.11019
G1 X25.743 Y173.448 E145.19151
G1 X25.483 Y174.077 E145.27318
G1 X25.408 Y174.650 E145.34253
G1 X15.600 Y174.650 E146.51949
G1 X15.600 Y164.851 E147.69537
G0 F9000 X18.551 Y167.802
G1 F1200 X18.114 Y168.374 E147.78175
G1 X17.839 Y169.037 E147.86788
G1 X17.744 Y169.750 E147.95420
G1 X17.839 Y170.464 E148.04063
G1 X18.114 Y171.127 E148.12677
G1 X18.551 Y171.699 E148.21314
G1 X19.123 Y172.136 E148.29952
G1 X19.786 Y172.411 E148.38566
G1 X20.500 Y172.506 E148.47209
G1 X21.213 Y172.411 E148.55841
G1 X21.876 Y172.136 E148.64454
G1 X22.448 Y171.699 E148.73092
G1 X22.885 Y171.127 E148.81730
G1 X23.160 Y170.464 E148.90343
G1 X23.255 Y169.750 E148.98987
G1 X23.160 Y169.037 E149.07618
G1 X22.885 Y168.374 E149.16231
G1 X22.448 Y167.802 E149.24869
G1 X21.876 Y167.365 E149.33507
G1 X21.213 Y167.090 E149.42121
G1 X20.500 Y166.995 E149.50752
G1 X19.786 Y167.090 E149.59396
G1 X19.123 Y167.365 E149.68009
G1 X18.551 Y167.802 E149.76647
G0 F9000 X20.500 Y166.996
G0 X21.876 Y167.367
G0 X129.244 Y169.750
G1 F1200 X129.339 Y170.464 E149.85290
G1 X129.614 Y171.127 E149.93904
G1 X130.051 Y171.699 E150.02542
G1 X130.623 Y172.136 E150.11180
G1 X131.286 Y172.411 E150.19793
G1 X132.000 Y172.506 E150.28436
G1 X132.713 Y172.411 E150.37068
G1 X133.376 Y172.136 E150.45681
G1 X133.948 Y171.699 E150.54319
G1 X134.385 Y171.127 E150.62957
G1 X134.660 Y170.464 E150.71570
G1 X134.755 Y169.750 E150.80214
G1 X134.660 Y169.037 E150.88845
G1 X134.385 Y168.374 E150.97459
G1 X133.948 Y167.802 E151.06097
G1 X133.376 Y167.365 E151.14735
G1 X132.713 Y167.090 E151.23348
G1 X132.000 Y166.995 E151.31979
G1 X131.286 Y167.090 E151.40623
G1 X130.623 Y167.365 E151.49236
G1 X130.051 Y167.802 E151.57874
G1 X129.614 Y168.374 E151.66512
G1 X129.339 Y169.037 E151.75125
G1 X129.244 Y169.750 E151.83757
G0 F9000 X130.053 Y167.804
G0 X132.000 Y166.996
G0 X139.240 Y167.329
G0 X148.291 Y166.508
G0 X156.994 Y164.561
G0 X165.509 Y161.461
G0 X173.549 Y157.282
G0 X180.978 Y152.094
G0 X187.671 Y145.983
G0 X193.601 Y138.944
G0 X198.404 Y131.427
G0 X202.263 Y123.230
G0 X205.024 Y114.599
G0 X206.665 Y105.517
G0 X206.230 Y103.787
G0 X207.551 Y99.699
G1 F1200 X208.123 Y100.136 E151.92395
G1 X208.786 Y100.411 E152.01008
G1 X209.500 Y100.506 E152.09652
G1 X210.213 Y100.411 E152.18283
G1 X210.876 Y100.136 E152.26896
G1 X211.448 Y99.699 E152.35534
G1 X211.885 Y99.127 E152.44172
G1 X212.161 Y98.464 E152.52790
G1 X212.254 Y97.750 E152.61431
G1 X212.161 Y97.037 E152.70059
G1 X211.885 Y96.374 E152.78677
G1 X211.448 Y95.802 E152.87315
G1 X210.876 Y95.365 E152.95953
G1 X210.213 Y95.090 E153.04566
G1 X209.500 Y94.995 E153.13198
G1 X208.786 Y95.090 E153.21841
G1 X208.123 Y95.365 E153.30454
G1 X207.551 Y95.802 E153.39092
G1 X207.114 Y96.374 E153.47730
G1 X206.838 Y97.037 E153.56348
G1 X206.745 Y97.750 E153.64977
G1 X206.838 Y98.464 E153.73617
G1 X207.114 Y99.127 E153.82235
G1 X207.551 Y99.699 E153.90873
G0 F9000 X207.836 Y99.414
;TYPE:WALL-OUTER
G1 F1200 X208.324 Y99.787 E153.98243
G1 X208.891 Y100.022 E154.05609
G1 X209.500 Y100.103 E154.12981
G1 X210.108 Y100.022 E154.20341
G1 X210.675 Y99.787 E154.27707
G1 X211.163 Y99.414 E154.35077
G1 X211.536 Y98.926 E154.42448
G1 X211.771 Y98.359 E154.49813
G1 X211.851 Y97.750 E154.57184
G1 X211.771 Y97.142 E154.64543
G1 X211.536 Y96.575 E154.71908
G1 X211.163 Y96.087 E154.79279
G1 X210.675 Y95.714 E154.86650
G1 X210.108 Y95.479 E154.94015
G1 X209.500 Y95.398 E155.01375
G1 X208.891 Y95.479 E155.08748
G1 X208.324 Y95.714 E155.16113
G1 X207.836 Y96.087 E155.23484
G1 X207.463 Y96.575 E155.30854
G1 X207.228 Y97.142 E155.38220
G1 X207.148 Y97.750 E155.45579
G1 X207.228 Y98.359 E155.52949
G1 X207.463 Y98.926 E155.60315
G1 X207.836 Y99.414 E155.67685
G0 F9000 X207.654 Y99.650
G0 X204.500 Y101.709
G0 X204.200 Y101.730
G1 F1200 X204.201 Y93.959 E156.60937
G1 X204.253 Y93.532 E156.66099
G1 X204.399 Y93.139 E156.71130
G1 X204.638 Y92.784 E156.76266
G1 X204.955 Y92.495 E156.81413
G1 X205.768 Y92.048 E156.92546
G1 X206.166 Y91.689 E156.98978
G1 X206.457 Y91.256 E157.05239
G1 X206.639 Y90.769 E157.11477
G1 X206.700 Y90.262 E157.17605
G1 X206.700 Y59.238 E160.89893
G1 X206.626 Y58.681 E160.96636
G1 X206.407 Y58.149 E161.03540
G1 X206.056 Y57.692 E161.10455
G1 X205.601 Y57.343 E161.17336
G1 X205.069 Y57.124 E161.24240
G1 X204.513 Y57.050 E161.30970
G1 X204.200 Y57.051 E161.34727
G1 X204.200 Y49.951 E162.19927
G1 X214.800 Y49.950 E163.47127
G1 X214.800 Y57.051 E164.32339
G1 X214.487 Y57.050 E164.36095
G1 X213.930 Y57.124 E164.42837
G1 X213.399 Y57.343 E164.49730
G1 X212.942 Y57.694 E164.56645
G1 X212.592 Y58.149 E164.63533
G1 X212.373 Y58.681 E164.70437
G1 X212.300 Y59.237 E164.77166
G1 X212.300 Y90.263 E168.49478
G1 X212.360 Y90.768 E168.55581
G1 X212.542 Y91.256 E168.61831
G1 X212.832 Y91.689 E168.68085
G1 X213.218 Y92.040 E168.74345
G1 X214.032 Y92.487 E168.85489
G1 X214.362 Y92.785 E168.90825
G1 X214.600 Y93.139 E168.95944
G1 X214.746 Y93.532 E169.00975
G1 X214.800 Y93.975 E169.06330
G1 X214.800 Y101.179 E169.92778
G1 X214.798 Y101.419 E169.95658
G1 X214.739 Y101.871 E170.01128
G1 X214.567 Y102.297 E170.06641
G1 X214.290 Y102.667 E170.12187
G1 X213.931 Y102.953 E170.17695
G1 X213.031 Y103.345 E170.29475
G1 X212.614 Y103.657 E170.35725
G1 X212.283 Y104.059 E170.41974
G1 X212.054 Y104.527 E170.48226
G1 X211.946 Y105.022 E170.54306
G1 X211.340 Y109.697 E171.10875
G1 X210.471 Y114.172 E171.65578
G1 X209.290 Y118.740 E172.22197
G1 X207.833 Y123.200 E172.78500
G1 X206.088 Y127.582 E173.35100
G1 X204.082 Y131.827 E173.91441
G1 X201.807 Y135.947 E174.47918
G1 X199.272 Y139.922 E175.04492
G1 X196.497 Y143.726 E175.60996
G1 X193.488 Y147.345 E176.17474
G1 X190.267 Y150.759 E176.73798
G1 X186.820 Y153.981 E177.30418
G1 X183.198 Y156.963 E177.86717
G1 X179.254 Y159.812 E178.45102
G1 X175.403 Y162.231 E178.99675
G1 X171.132 Y164.562 E179.58063
G1 X166.876 Y166.541 E180.14386
G1 X162.492 Y168.251 E180.70855
G1 X157.998 Y169.687 E181.27469
G1 X153.589 Y170.795 E181.82022
G1 X148.957 Y171.663 E182.38574
G1 X144.138 Y172.255 E182.96836
G1 X139.578 Y172.517 E183.51647
G1 X138.936 Y172.596 E183.59409
G1 X138.458 Y172.786 E183.65581
G1 X138.037 Y173.078 E183.71729
G1 X137.696 Y173.461 E183.77883
G1 X137.249 Y174.290 E183.89185
G1 X136.961 Y174.608 E183.94333
G1 X136.609 Y174.848 E183.99446
G1 X136.210 Y174.997 E184.04557
G1 X135.765 Y175.050 E184.09935
G1 X128.730 Y175.050 E184.94355
G1 X128.495 Y175.048 E184.97175
G1 X128.035 Y174.988 E185.02741
G1 X127.602 Y174.809 E185.08364
G1 X127.228 Y174.522 E185.14021
G1 X126.941 Y174.148 E185.19678
G1 X126.762 Y173.715 E185.25301
G1 X126.700 Y173.239 E185.31061
G1 X126.700 Y172.551 E185.39317
G1 X27.987 Y172.551 E197.23873
G1 X27.430 Y172.624 E197.30614
G1 X26.899 Y172.843 E197.37507
G1 X26.442 Y173.194 E197.44422
G1 X26.092 Y173.649 E197.51310
G1 X25.873 Y174.181 E197.58214
G1 X25.800 Y174.737 E197.64943
G1 X25.800 Y175.050 E197.68699
G1 X15.200 Y175.050 E198.95899
G1 X15.200 Y164.451 E200.23087
G1 X25.801 Y164.451 E201.50299
