;FLAVOR:UltiGCode
;TIME:4389
;MATERIAL:5080
;MATERIAL2:0
;NOZZLE_DIAMETER:0.400000
;NOZZLE_DIAMETER2:0.400000

;Layer count: 63
;LAYER:0
M107
G0 F9000 X70.480 Y69.622 Z0.300
;TYPE:SKIRT
G1 F1200 X71.784 Y68.299 E0.22291
G1 X73.138 Y67.025 E0.44601
G1 X74.518 Y65.782 E0.66888
G1 X75.946 Y64.592 E0.89194
G1 X77.398 Y63.433 E1.11489
G1 X78.896 Y62.331 E1.33805
G1 X80.415 Y61.262 E1.56094
G1 X81.976 Y60.254 E1.78392
G1 X83.556 Y59.277 E2.00684
G1 X85.174 Y58.364 E2.22978
G1 X86.810 Y57.484 E2.45270
G1 X88.482 Y56.669 E2.67590
G1 X90.168 Y55.889 E2.89883
G1 X91.885 Y55.177 E3.12188
G1 X93.615 Y54.499 E3.34485
G1 X95.372 Y53.893 E3.56788
G1 X97.138 Y53.319 E3.79071
G1 X98.928 Y52.819 E4.01374
G1 X100.728 Y52.352 E4.23689
G1 X102.545 Y51.962 E4.45989
G1 X104.366 Y51.603 E4.68262
G1 X106.204 Y51.323 E4.90573
G1 X108.046 Y51.074 E5.12878
G1 X109.897 Y50.905 E5.35182
G1 X111.749 Y50.767 E5.57468
G1 X113.606 Y50.710 E5.79762
G1 X115.464 Y50.682 E6.02061
G1 X117.322 Y50.738 E6.24367
G1 X119.177 Y50.821 E6.46649
G1 X121.029 Y50.989 E6.68964
G1 X122.877 Y51.184 E6.91263
G1 X124.714 Y51.464 E7.13562
G1 X126.548 Y51.769 E7.35872
G1 X128.365 Y52.159 E7.58173
G1 X130.176 Y52.572 E7.80463
G1 X131.966 Y53.071 E8.02762
G1 X133.749 Y53.592 E8.25053
G1 X135.507 Y54.198 E8.47367
G1 X137.254 Y54.825 E8.69640
G1 X138.972 Y55.535 E8.91947
G1 X140.682 Y56.267 E9.14268
G1 X142.353 Y57.081 E9.36573
G1 X144.013 Y57.911 E9.58844
G1 X145.633 Y58.823 E9.81153
G1 X147.242 Y59.753 E10.03454
G1 X148.803 Y60.762 E10.25759
G1 X150.353 Y61.786 E10.48051
G1 X151.850 Y62.887 E10.70351
G1 X153.337 Y64.002 E10.92654
G1 X154.764 Y65.191 E11.14943
G1 X156.181 Y66.392 E11.37233
G1 X157.536 Y67.667 E11.59559
G1 X158.879 Y68.952 E11.81864
G1 X160.152 Y70.304 E12.04148
G1 X161.416 Y71.667 E12.26455
G1 X162.605 Y73.093 E12.48735
G1 X163.785 Y74.529 E12.71038
G1 X164.887 Y76.026 E12.93345
G1 X165.979 Y77.530 E13.15648
G1 X166.988 Y79.090 E13.37943
G1 X167.988 Y80.656 E13.60239
G1 X168.901 Y82.275 E13.82544
G1 X169.806 Y83.897 E14.04832
G1 X170.620 Y85.568 E14.27137
G1 X171.426 Y87.242 E14.49432
G1 X172.138 Y88.960 E14.71749
G1 X172.842 Y90.679 E14.94039
G1 X173.447 Y92.435 E15.16327
G1 X174.049 Y94.193 E15.38626
G1 X174.548 Y95.984 E15.60936
G1 X175.042 Y97.775 E15.83231
G1 X175.432 Y99.593 E16.05543
G1 X175.819 Y101.411 E16.27848
G1 X176.098 Y103.248 E16.50145
G1 X176.375 Y105.083 E16.72414
G1 X176.544 Y106.936 E16.94742
G1 X176.710 Y108.786 E17.17032
G1 X176.767 Y110.644 E17.39338
G1 X176.821 Y112.501 E17.61632
G1 X176.766 Y114.356 E17.83901
G1 X176.711 Y116.214 E18.06207
G1 X176.375 Y119.914 E18.50790
G1 X176.099 Y121.752 E18.73093
G1 X175.818 Y123.590 E18.95405
G1 X175.432 Y125.407 E19.17696
G1 X175.042 Y127.225 E19.40008
G1 X174.549 Y129.016 E19.62300
G1 X174.049 Y130.806 E19.84602
G1 X173.449 Y132.564 E20.06893
G1 X172.842 Y134.321 E20.29199
G1 X172.138 Y136.039 E20.51479
G1 X171.427 Y137.758 E20.73802
G1 X170.620 Y139.432 E20.96102
G1 X169.806 Y141.103 E21.18407
G1 X168.902 Y142.725 E21.40690
G1 X167.989 Y144.343 E21.62984
G1 X166.989 Y145.909 E21.85280
G1 X165.980 Y147.472 E22.07605
G1 X164.886 Y148.975 E22.29913
G1 X163.785 Y150.471 E22.52203
G1 X162.606 Y151.905 E22.74480
G1 X161.416 Y153.334 E22.96795
G1 X160.153 Y154.695 E23.19076
G1 X158.878 Y156.050 E23.41403
G1 X157.535 Y157.333 E23.63691
G1 X156.182 Y158.607 E23.85992
G1 X154.766 Y159.808 E24.08273
G1 X153.337 Y160.999 E24.30596
G1 X151.851 Y162.112 E24.52875
G1 X150.354 Y163.214 E24.75181
G1 X148.803 Y164.238 E24.97484
G1 X147.241 Y165.247 E25.19798
G1 X145.634 Y166.175 E25.42067
G1 X144.015 Y167.089 E25.64377
G1 X142.351 Y167.920 E25.86697
G1 X140.681 Y168.733 E26.08985
G1 X138.973 Y169.463 E26.31275
G1 X137.256 Y170.175 E26.53580
G1 X135.507 Y170.802 E26.75876
G1 X133.750 Y171.408 E26.98179
G1 X131.967 Y171.929 E27.20469
G1 X130.176 Y172.429 E27.42783
G1 X128.364 Y172.842 E27.65085
G1 X126.547 Y173.232 E27.87386
G1 X124.715 Y173.535 E28.09668
G1 X122.878 Y173.816 E28.31969
G1 X121.029 Y174.010 E28.54278
G1 X119.179 Y174.178 E28.76570
G1 X117.322 Y174.262 E28.98877
G1 X115.464 Y174.318 E29.21183
G1 X113.608 Y174.289 E29.43457
G1 X111.751 Y174.234 E29.65751
G1 X109.898 Y174.095 E29.88050
G1 X108.046 Y173.928 E30.10364
G1 X106.205 Y173.677 E30.32660
G1 X104.367 Y173.398 E30.54969
G1 X102.544 Y173.038 E30.77267
G1 X100.727 Y172.648 E30.99568
G1 X98.930 Y172.181 E31.21848
G1 X97.140 Y171.682 E31.44147
G1 X95.373 Y171.109 E31.66438
G1 X93.615 Y170.502 E31.88756
G1 X91.886 Y169.823 E32.11047
G1 X90.169 Y169.112 E32.33348
G1 X88.482 Y168.330 E32.55661
G1 X86.812 Y167.517 E32.77949
G1 X85.176 Y166.637 E33.00241
G1 X83.556 Y165.724 E33.22556
G1 X81.976 Y164.747 E33.44848
G1 X80.415 Y163.738 E33.67153
G1 X78.896 Y162.668 E33.89449
G1 X77.399 Y161.567 E34.11748
G1 X75.947 Y160.409 E34.34035
G1 X74.519 Y159.219 E34.56341
G1 X73.139 Y157.975 E34.78636
G1 X71.785 Y156.702 E35.00938
G1 X70.481 Y155.378 E35.23238
G1 X69.206 Y154.024 E35.45555
G1 X67.985 Y152.625 E35.67838
G1 X66.794 Y151.198 E35.90143
G1 X65.658 Y149.728 E36.12436
G1 X64.557 Y148.231 E36.34736
G1 X63.510 Y146.696 E36.57032
G1 X62.501 Y145.135 E36.79337
G1 X61.548 Y143.540 E37.01633
G1 X60.634 Y141.922 E37.23933
G1 X59.779 Y140.273 E37.46223
G1 X58.965 Y138.602 E37.68527
G1 X58.210 Y136.904 E37.90827
G1 X57.498 Y135.187 E38.13132
G1 X56.845 Y133.447 E38.35434
G1 X56.239 Y131.689 E38.57748
G1 X55.691 Y129.915 E38.80029
G1 X55.192 Y128.124 E39.02339
G1 X54.752 Y126.319 E39.24634
G1 X54.361 Y124.501 E39.46948
G1 X54.030 Y122.675 E39.69218
G1 X53.750 Y120.837 E39.91528
G1 X53.528 Y118.992 E40.13828
G1 X53.360 Y117.142 E40.36119
G1 X53.249 Y115.287 E40.58419
G1 X53.193 Y113.429 E40.80725
G1 X53.193 Y111.572 E41.03009
G1 X53.249 Y109.714 E41.25315
G1 X53.361 Y107.859 E41.47616
G1 X53.528 Y106.009 E41.69906
G1 X53.750 Y104.165 E41.92194
G1 X54.029 Y102.326 E42.14514
G1 X54.362 Y100.498 E42.36811
G1 X54.752 Y98.680 E42.59124
G1 X55.193 Y96.876 E42.81409
G1 X55.691 Y95.086 E43.03705
G1 X56.239 Y93.310 E43.26008
G1 X56.845 Y91.554 E43.48300
G1 X57.498 Y89.815 E43.70590
G1 X58.209 Y88.097 E43.92902
G1 X58.965 Y86.399 E44.15207
G1 X59.779 Y84.728 E44.37511
G1 X60.634 Y83.080 E44.59790
G1 X61.547 Y81.461 E44.82095
G1 X62.500 Y79.865 E45.04401
G1 X63.509 Y78.305 E45.26696
G1 X64.556 Y76.770 E45.48992
G1 X65.658 Y75.272 E45.71309
G1 X66.795 Y73.803 E45.93600
G1 X67.983 Y72.376 E46.15881
G1 X69.206 Y70.976 E46.38189
G1 X70.480 Y69.622 E46.60499
G10
G0 F9000 X73.222 Y72.253
;TYPE:WALL-INNER
G11
G1 F1200 X74.432 Y71.025 E46.81186
G1 X75.706 Y69.825 E47.02188
G1 X76.998 Y68.662 E47.23048
G1 X78.342 Y67.541 E47.44050
G1 X79.701 Y66.457 E47.64910
G1 X81.110 Y65.420 E47.85904
G1 X82.543 Y64.412 E48.06928
G1 X84.012 Y63.463 E48.27915
G1 X85.479 Y62.556 E48.48612
G1 X87.014 Y61.690 E48.69761
G1 X88.539 Y60.868 E48.90550
G1 X90.118 Y60.099 E49.11626
G1 X91.683 Y59.374 E49.32323
G1 X93.301 Y58.704 E49.53338
G1 X94.941 Y58.061 E49.74476
G1 X96.573 Y57.498 E49.95193
G1 X98.241 Y56.956 E50.16239
G1 X99.912 Y56.490 E50.37056
G1 X101.603 Y56.051 E50.58021
G1 X103.316 Y55.683 E50.79046
G1 X105.029 Y55.346 E50.99996
G1 X106.740 Y55.085 E51.20765
G1 X108.472 Y54.851 E51.41738
G1 X110.215 Y54.692 E51.62741
G1 X111.935 Y54.563 E51.83439
G1 X113.697 Y54.509 E52.04593
G1 X115.431 Y54.483 E52.25403
G1 X117.184 Y54.536 E52.46449
G1 X118.907 Y54.613 E52.67146
G1 X120.663 Y54.772 E52.88304
G1 X122.403 Y54.956 E53.09300
G1 X124.113 Y55.216 E53.30056
G1 X125.830 Y55.502 E53.50944
G1 X127.547 Y55.870 E53.72016
G1 X129.246 Y56.258 E53.92929
G1 X130.920 Y56.724 E54.13781
G1 X132.597 Y57.214 E54.34746
G1 X134.243 Y57.782 E54.55641
G1 X135.900 Y58.376 E54.76764
G1 X137.495 Y59.036 E54.97478
G1 X139.115 Y59.730 E55.18627
G1 X140.668 Y60.487 E55.39359
G1 X142.233 Y61.270 E55.60358
G1 X143.747 Y62.123 E55.81211
G1 X145.260 Y62.997 E56.02179
G1 X146.721 Y63.942 E56.23059
G1 X148.191 Y64.913 E56.44200
G1 X149.582 Y65.936 E56.64920
G1 X150.979 Y66.984 E56.85876
G1 X152.317 Y68.099 E57.06777
G1 X153.654 Y69.232 E57.27807
G1 X154.918 Y70.422 E57.48639
G1 X156.191 Y71.640 E57.69781
G1 X157.374 Y72.897 E57.90495
G1 X158.562 Y74.178 E58.11460
G1 X159.679 Y75.518 E58.32394
G1 X160.781 Y76.857 E58.53204
G1 X161.819 Y78.268 E58.74224
G1 X162.840 Y79.674 E58.95075
G1 X163.790 Y81.143 E59.16068
G1 X164.728 Y82.611 E59.36973
G1 X165.587 Y84.135 E59.57966
G1 X166.437 Y85.658 E59.78896
G1 X167.199 Y87.223 E59.99784
G1 X167.959 Y88.802 E60.20812
G1 X168.624 Y90.406 E60.41649
G1 X169.283 Y92.015 E60.62513
G1 X169.853 Y93.669 E60.83507
G1 X170.419 Y95.322 E61.04474
G1 X170.886 Y96.999 E61.25363
G1 X171.346 Y98.663 E61.46080
G1 X171.716 Y100.386 E61.67228
G1 X172.080 Y102.098 E61.88231
G1 X172.599 Y105.522 E62.29788
G1 X172.915 Y109.017 E62.71899
G1 X173.019 Y112.500 E63.13714
G1 X172.916 Y115.983 E63.55528
G1 X172.599 Y119.473 E63.97581
G1 X172.342 Y121.182 E64.18319
G1 X172.079 Y122.905 E64.39235
G1 X171.716 Y124.613 E64.60188
G1 X171.347 Y126.331 E64.81275
G1 X170.887 Y127.999 E65.02038
G1 X170.419 Y129.677 E65.22942
G1 X169.855 Y131.329 E65.43890
G1 X169.286 Y132.978 E65.64823
G1 X168.624 Y134.593 E65.85768
G1 X167.960 Y136.200 E66.06633
G1 X167.201 Y137.774 E66.27602
G1 X166.437 Y139.342 E66.48533
G1 X165.589 Y140.865 E66.69451
G1 X164.729 Y142.388 E66.90439
G1 X163.793 Y143.854 E67.11311
G1 X162.841 Y145.327 E67.32358
G1 X161.821 Y146.729 E67.53163
G1 X160.781 Y148.143 E67.74226
G1 X159.680 Y149.481 E67.95019
G1 X158.562 Y150.823 E68.15980
G1 X157.378 Y152.099 E68.36868
G1 X156.179 Y153.374 E68.57870
G1 X154.922 Y154.574 E68.78724
G1 X153.654 Y155.768 E68.99625
G1 X152.322 Y156.898 E69.20586
G1 X150.980 Y158.017 E69.41553
G1 X149.587 Y159.060 E69.62436
G1 X148.178 Y160.098 E69.83437
G1 X146.727 Y161.055 E70.04295
G1 X145.260 Y162.003 E70.25254
G1 X143.747 Y162.876 E70.46216
G1 X142.244 Y163.726 E70.66937
G1 X140.668 Y164.513 E70.88075
G1 X139.115 Y165.270 E71.08807
G1 X137.496 Y165.962 E71.29936
G1 X135.890 Y166.628 E71.50799
G1 X134.249 Y167.216 E71.71717
G1 X132.598 Y167.786 E71.92677
G1 X130.927 Y168.274 E72.13566
G1 X129.241 Y168.745 E72.34573
G1 X127.547 Y169.130 E72.55419
G1 X125.830 Y169.498 E72.76491
G1 X124.114 Y169.783 E72.97365
G1 X122.400 Y170.045 E73.18172
G1 X120.663 Y170.227 E73.39130
G1 X118.908 Y170.387 E73.60278
G1 X117.184 Y170.465 E73.80987
G1 X115.431 Y170.517 E74.02032
G1 X113.698 Y170.490 E74.22831
G1 X111.936 Y170.438 E74.43984
G1 X110.216 Y170.309 E74.64682
G1 X108.475 Y170.150 E74.85661
G1 X106.742 Y169.915 E75.06647
G1 X105.033 Y169.656 E75.27389
G1 X103.314 Y169.317 E75.48414
G1 X101.603 Y168.949 E75.69416
G1 X99.913 Y168.510 E75.90369
G1 X98.242 Y168.045 E76.11183
G1 X96.574 Y167.503 E76.32229
G1 X94.918 Y166.932 E76.53249
G1 X93.302 Y166.297 E76.74085
G1 X91.696 Y165.633 E76.94939
G1 X90.119 Y164.901 E77.15802
G1 X88.540 Y164.132 E77.36878
G1 X87.015 Y163.312 E77.57656
G1 X85.479 Y162.445 E77.78821
G1 X84.012 Y161.539 E77.99512
G1 X82.539 Y160.585 E78.20571
G1 X81.111 Y159.580 E78.41526
G1 X79.702 Y158.543 E78.62519
G1 X78.343 Y157.459 E78.83380
G1 X77.017 Y156.354 E79.04092
G1 X75.708 Y155.175 E79.25233
G1 X74.433 Y153.976 E79.46235
G1 X73.223 Y152.747 E79.66931
G1 X72.028 Y151.478 E79.87849
G1 X70.871 Y150.153 E80.08957
G1 X69.763 Y148.824 E80.29721
G1 X68.688 Y147.434 E80.50807
G1 X67.661 Y146.038 E80.71604
G1 X66.672 Y144.588 E80.92666
G1 X65.723 Y143.119 E81.13652
G1 X64.838 Y141.638 E81.34356
G1 X63.972 Y140.103 E81.55505
G1 X63.171 Y138.559 E81.76378
G1 X62.411 Y137.000 E81.97190
G1 X61.698 Y135.397 E82.18243
G1 X61.037 Y133.801 E82.38973
G1 X60.418 Y132.152 E82.60109
G1 X59.848 Y130.500 E82.81080
G1 X59.340 Y128.852 E83.01774
G1 X58.866 Y127.154 E83.22929
G1 X58.458 Y125.478 E83.43629
G1 X58.088 Y123.754 E83.64788
G1 X57.780 Y122.057 E83.85485
G1 X57.517 Y120.333 E84.06412
G1 X57.307 Y118.584 E84.27551
G1 X57.149 Y116.847 E84.48481
G1 X57.045 Y115.107 E84.69398
G1 X56.993 Y113.363 E84.90335
G1 X56.993 Y111.638 E85.11035
G1 X57.045 Y109.894 E85.31973
G1 X57.150 Y108.154 E85.52891
G1 X57.307 Y106.416 E85.73831
G1 X57.517 Y104.668 E85.94958
G1 X57.776 Y102.960 E86.15689
G1 X58.088 Y101.246 E86.36595
G1 X58.458 Y99.522 E86.57754
G1 X58.867 Y97.846 E86.78456
G1 X59.340 Y96.148 E86.99608
G1 X59.848 Y94.500 E87.20302
G1 X60.418 Y92.849 E87.41261
G1 X61.037 Y91.200 E87.62398
G1 X61.697 Y89.604 E87.83123
G1 X62.414 Y87.995 E88.04261
G1 X63.171 Y86.442 E88.24993
G1 X63.972 Y84.898 E88.45866
G1 X64.838 Y83.362 E88.67026
G1 X65.722 Y81.881 E88.87723
G1 X66.671 Y80.413 E89.08699
G1 X67.663 Y78.958 E89.29831
G1 X68.687 Y77.567 E89.50558
G1 X69.765 Y76.174 E89.71695
G1 X70.870 Y74.848 E89.92408
G1 X72.029 Y73.521 E90.13550
G1 X73.222 Y72.253 E90.34442
G0 F9000 X72.498 Y73.121
G1 F1200 X70.175 Y75.786 E90.76866
G1 X68.021 Y78.587 E91.19268
G1 X66.041 Y81.513 E91.61663
G1 X64.778 Y83.654 E91.91493
G1 X64.243 Y84.555 E92.04067
G1 X62.633 Y87.702 E92.46486
G1 X61.220 Y90.941 E92.88892
G1 X60.005 Y94.260 E93.31305
G1 X58.996 Y97.646 E93.73702
G1 X58.433 Y100.067 E94.03529
G1 X58.194 Y101.087 E94.16101
G1 X57.779 Y103.540 E94.45955
G1 X57.603 Y104.572 E94.58518
G1 X57.227 Y108.087 E95.00939
G1 X57.066 Y111.617 E95.43343
G1 X57.119 Y115.149 E95.85731
G1 X57.389 Y118.674 E96.28155
G1 X57.872 Y122.174 E96.70553
G1 X58.568 Y125.639 E97.12964
G1 X59.474 Y129.055 E97.55373
G1 X60.587 Y132.409 E97.97779
G1 X61.902 Y135.689 E98.40185
G1 X63.414 Y138.883 E98.82590
G1 X65.119 Y141.979 E99.25004
G1 X67.009 Y144.965 E99.67410
G1 X69.077 Y147.831 E100.09821
G1 X71.317 Y150.565 E100.52234
G1 X73.718 Y153.157 E100.94632
G1 X76.274 Y155.599 E101.37053
G1 X78.173 Y157.202 E101.66874
G1 X78.973 Y157.879 E101.79450
G1 X81.806 Y159.991 E102.21853
G1 X83.887 Y161.351 E102.51685
G1 X84.764 Y161.926 E102.64270
G1 X86.923 Y163.157 E102.94093
G1 X87.832 Y163.677 E103.06660
G1 X90.063 Y164.774 E103.36493
G1 X91.003 Y165.238 E103.49073
G1 X94.263 Y166.603 E103.91483
G1 X97.600 Y167.768 E104.33898
G1 X99.994 Y168.440 E104.63736
G1 X101.002 Y168.724 E104.76303
G1 X104.456 Y169.474 E105.18717
G1 X106.912 Y169.850 E105.48532
G1 X107.948 Y170.011 E105.61113
G1 X111.468 Y170.333 E106.03530
G1 X115.000 Y170.441 E106.45933
G1 X118.533 Y170.333 E106.88349
G1 X122.052 Y170.011 E107.30754
G1 X125.544 Y169.474 E107.73150
G1 X128.998 Y168.724 E108.15564
G1 X132.400 Y167.768 E108.57969
G1 X135.737 Y166.602 E109.00388
G1 X138.997 Y165.238 E109.42794
G1 X141.225 Y164.140 E109.72600
G1 X142.167 Y163.677 E109.85196
G1 X145.236 Y161.926 E110.27596
G1 X148.194 Y159.991 E110.70012
G1 X151.027 Y157.879 E111.12416
G1 X153.726 Y155.598 E111.54821
G1 X156.282 Y153.157 E111.97233
G1 X158.684 Y150.564 E112.39648
G1 X160.923 Y147.831 E112.82045
G1 X162.991 Y144.965 E113.24455
G1 X164.881 Y141.979 E113.66862
G1 X166.587 Y138.883 E114.09281
G1 X168.098 Y135.689 E114.51681
G1 X169.413 Y132.409 E114.94087
G1 X170.195 Y130.049 E115.23921
G1 X170.526 Y129.055 E115.36493
G1 X171.162 Y126.652 E115.66322
G1 X171.432 Y125.639 E115.78902
G1 X171.920 Y123.202 E116.08727
G1 X172.128 Y122.175 E116.21301
G1 X172.611 Y118.674 E116.63711
G1 X172.881 Y115.149 E117.06135
G1 X172.934 Y111.617 E117.48524
G1 X172.773 Y108.086 E117.90940
G1 X172.397 Y104.572 E118.33348
G1 X171.807 Y101.088 E118.75752
G1 X171.004 Y97.646 E119.18165
G1 X169.995 Y94.260 E119.60562
G1 X168.780 Y90.941 E120.02975
G1 X167.367 Y87.702 E120.45381
G1 X165.757 Y84.555 E120.87800
G1 X163.959 Y81.513 E121.30203
G1 X161.979 Y78.586 E121.72609
G1 X159.824 Y75.786 E122.15008
G1 X157.502 Y73.121 E122.57424
G1 X155.023 Y70.603 E122.99827
G1 X152.394 Y68.241 E123.42237
G1 X149.627 Y66.044 E123.84635
G1 X146.730 Y64.019 E124.27050
G1 X143.715 Y62.174 E124.69466
G1 X140.594 Y60.518 E125.11864
G1 X138.331 Y59.490 E125.41691
G1 X137.377 Y59.054 E125.54277
G1 X134.077 Y57.789 E125.96687
G1 X130.706 Y56.728 E126.39096
G1 X128.295 Y56.129 E126.68907
G1 X127.277 Y55.874 E126.81501
G1 X124.833 Y55.423 E127.11324
G1 X123.803 Y55.231 E127.23897
G1 X120.295 Y54.801 E127.66308
G1 X116.767 Y54.586 E128.08722
G1 X113.233 Y54.586 E128.51130
G1 X109.705 Y54.801 E128.93545
