;FLAVOR:UltiGCode
;TIME:11661
;MATERIAL:14315
;MATERIAL2:0
;NOZZLE_DIAMETER:0.400000
;NOZZLE_DIAMETER2:0.400000

;Layer count: 298
;LAYER:0
M107
G0 F9000 X96.800 Y94.300 Z0.300
;TYPE:SKIRT
G1 F1200 X133.200 Y94.300 E4.36800
G1 X133.200 Y104.821 E5.63052
G1 X129.002 Y106.500 E6.17308
G1 X131.117 Y107.345 E6.44638
G1 X133.200 Y108.193 E6.71626
G1 X133.200 Y116.821 E7.75162
G1 X129.002 Y118.500 E8.29418
G1 X131.117 Y119.345 E8.56749
G1 X133.200 Y120.193 E8.83737
G1 X133.200 Y130.700 E10.09821
G1 X96.800 Y130.700 E14.46621
G1 X96.800 Y120.178 E15.72885
G1 X100.997 Y118.500 E16.27125
G1 X98.883 Y117.654 E16.54449
G1 X96.800 Y116.806 E16.81437
G1 X96.800 Y108.178 E17.84973
G1 X100.997 Y106.500 E18.39213
G1 X98.883 Y105.654 E18.66537
G1 X96.800 Y104.806 E18.93525
G1 X96.800 Y94.300 E20.19597
G10
G0 F9000 X100.600 Y98.100
;TYPE:WALL-INNER
G11
G1 F1200 X129.400 Y98.100 E23.65197
G1 X129.400 Y102.248 E24.14973
G1 X120.241 Y105.911 E25.33345
G1 X119.784 Y106.097 E25.39265
G1 X119.786 Y106.907 E25.48986
G1 X129.400 Y110.751 E26.73234
G1 X129.400 Y114.248 E27.15198
G1 X120.241 Y117.911 E28.33569
G1 X119.784 Y118.097 E28.39490
G1 X119.786 Y118.907 E28.49210
G1 X129.400 Y122.751 E29.73458
G1 X129.400 Y126.900 E30.23246
G1 X100.600 Y126.900 E33.68846
G1 X100.600 Y122.751 E34.18634
G1 X109.758 Y119.089 E35.36991
G1 X110.215 Y118.903 E35.42911
G1 X110.213 Y118.093 E35.52631
G1 X100.600 Y114.248 E36.76873
G1 X100.600 Y110.751 E37.18837
G1 X109.758 Y107.089 E38.37193
G1 X110.215 Y106.903 E38.43114
G1 X110.213 Y106.093 E38.52834
G1 X100.600 Y102.248 E39.77075
G1 X100.600 Y98.100 E40.26851
G0 F9000 X104.889 Y99.900
G1 F1200 X104.702 Y100.873 E40.38741
G1 X114.693 Y104.868 E41.67862
G1 X114.998 Y104.992 E41.71813
G1 X124.758 Y101.089 E42.97951
G1 X125.298 Y100.869 E43.04948
G1 X125.108 Y99.900 E43.16797
G1 X104.889 Y99.900 E45.59425
G0 F9000 X105.009 Y104.030
G0 X110.178 Y106.117
G0 X110.181 Y106.880
G0 X105.241 Y111.911
G1 F1200 X104.784 Y112.097 E45.65346
G1 X104.786 Y112.907 E45.75066
G1 X114.693 Y116.868 E47.03100
G1 X114.998 Y116.992 E47.07051
G1 X124.758 Y113.089 E48.33189
G1 X125.215 Y112.903 E48.39110
G1 X125.213 Y112.093 E48.48830
G1 X115.307 Y108.131 E49.76857
G1 X115.002 Y108.007 E49.80808
G1 X105.241 Y111.911 E51.06961
G0 F9000 X104.818 Y112.120
G0 X104.821 Y112.883
G0 X110.178 Y118.117
G0 X110.181 Y118.880
G0 X105.241 Y123.911
G1 F1200 X104.701 Y124.131 E51.13958
G1 X104.891 Y125.100 E51.25808
G1 X125.109 Y125.100 E53.68424
G1 X125.297 Y124.127 E53.80315
G1 X115.307 Y120.131 E55.09430
G1 X115.002 Y120.007 E55.13381
G1 X105.241 Y123.911 E56.39534
G0 F9000 X105.391 Y124.282
;TYPE:WALL-OUTER
G1 F1200 X105.157 Y124.377 E56.42565
G1 X105.220 Y124.700 E56.46514
G1 X124.779 Y124.700 E58.81222
G1 X124.842 Y124.376 E58.85183
G1 X115.155 Y120.501 E60.10382
G1 X115.001 Y120.438 E60.12379
G1 X105.391 Y124.282 E61.36582
G0 F9000 X105.289 Y124.000
G0 X100.500 Y122.626
G0 X100.200 Y122.481
G1 F1200 X109.608 Y118.718 E62.58174
G1 X109.814 Y118.634 E62.60844
G1 X109.814 Y118.364 E62.64084
G1 X100.200 Y114.519 E63.88336
G1 X100.200 Y110.481 E64.36792
G1 X109.608 Y106.718 E65.58384
G1 X109.814 Y106.634 E65.61054
G1 X109.814 Y106.364 E65.64294
G1 X100.200 Y102.519 E66.88546
G1 X100.200 Y97.700 E67.46374
G1 X129.800 Y97.700 E71.01574
G1 X129.800 Y102.518 E71.59390
G1 X120.391 Y106.282 E72.80998
G1 X120.185 Y106.366 E72.83667
G1 X120.185 Y106.636 E72.86907
G1 X129.800 Y110.480 E74.11166
G1 X129.800 Y114.518 E74.59622
G1 X120.391 Y118.282 E75.81230
G1 X120.185 Y118.366 E75.83899
G1 X120.185 Y118.636 E75.87139
G1 X129.800 Y122.480 E77.11399
G1 X129.800 Y127.300 E77.69239
G1 X100.200 Y127.300 E81.24439
G1 X100.200 Y122.481 E81.82267
G0 F9000 X100.500 Y122.626
G0 X110.181 Y118.880
G0 X110.178 Y118.117
G0 X105.073 Y112.912
G0 X105.185 Y112.636
G1 F1200 X114.845 Y116.498 E83.07107
G1 X114.999 Y116.561 E83.09104
G1 X124.608 Y112.718 E84.33292
G1 X124.814 Y112.634 E84.35961
G1 X124.814 Y112.364 E84.39201
G1 X115.155 Y108.501 E85.64036
G1 X115.001 Y108.438 E85.66032
G1 X105.391 Y112.282 E86.90236
G1 X105.185 Y112.366 E86.92905
G1 X105.185 Y112.636 E86.96145
G0 F9000 X105.073 Y112.912
G0 X104.821 Y112.883
G0 X104.818 Y112.120
G0 X110.181 Y106.880
G0 X110.178 Y106.117
G0 X104.921 Y103.993
G0 X104.864 Y100.568
G0 X105.157 Y100.624
G1 F1200 X114.845 Y104.498 E88.21351
G1 X114.999 Y104.561 E88.23348
G1 X124.608 Y100.718 E89.47536
G1 X124.842 Y100.623 E89.50567
G1 X124.779 Y100.300 E89.54516
G1 X105.220 Y100.300 E91.89224
G1 X105.157 Y100.624 E91.93184
G0 F9000 X104.648 Y100.405
;TYPE:SKIN
G1 F1200 X102.483 Y98.240 E92.29926
G0 F9000 X103.048 Y98.240
G1 F1200 X104.740 Y99.931 E92.58631
G0 F9000 X105.134 Y99.760
G1 F1200 X103.614 Y98.240 E92.84427
G0 F9000 X104.180 Y98.240
G1 F1200 X105.699 Y99.760 E93.10213
G0 F9000 X106.265 Y99.760
G1 F1200 X104.745 Y98.240 E93.36009
G0 F9000 X105.311 Y98.240
G1 F1200 X106.831 Y99.760 E93.61804
G0 F9000 X107.396 Y99.760
G1 F1200 X105.877 Y98.240 E93.87591
G0 F9000 X106.442 Y98.240
G1 F1200 X107.962 Y99.760 E94.13386
G0 F9000 X108.528 Y99.760
G1 F1200 X107.008 Y98.240 E94.39181
G0 F9000 X107.574 Y98.240
G1 F1200 X109.093 Y99.760 E94.64968
G0 F9000 X109.659 Y99.760
G1 F1200 X108.139 Y98.240 E94.90763
G0 F9000 X108.705 Y98.240
G1 F1200 X110.225 Y99.760 E95.16558
G0 F9000 X110.790 Y99.760
G1 F1200 X109.271 Y98.240 E95.42345
G0 F9000 X109.837 Y98.240
G1 F1200 X111.356 Y99.760 E95.68132
G0 F9000 X111.922 Y99.760
G1 F1200 X110.402 Y98.240 E95.93927
G0 F9000 X110.968 Y98.240
G1 F1200 X112.487 Y99.760 E96.19714
G0 F9000 X113.053 Y99.760
G1 F1200 X111.534 Y98.240 E96.45501
G0 F9000 X112.099 Y98.240
G1 F1200 X113.619 Y99.760 E96.71296
G0 F9000 X114.185 Y99.760
G1 F1200 X112.665 Y98.240 E96.97091
G0 F9000 X113.231 Y98.240
G1 F1200 X114.750 Y99.760 E97.22878
G0 F9000 X115.316 Y99.760
G1 F1200 X113.796 Y98.240 E97.48673
G0 F9000 X114.362 Y98.240
G1 F1200 X115.882 Y99.760 E97.74469
G0 F9000 X116.447 Y99.760
G1 F1200 X114.928 Y98.240 E98.00255
G0 F9000 X115.493 Y98.240
G1 F1200 X117.013 Y99.760 E98.26051
G0 F9000 X117.579 Y99.760
G1 F1200 X116.059 Y98.240 E98.51846
G0 F9000 X116.625 Y98.240
G1 F1200 X118.144 Y99.760 E98.77633
G0 F9000 X118.710 Y99.760
G1 F1200 X117.190 Y98.240 E99.03428
G0 F9000 X117.756 Y98.240
G1 F1200 X119.276 Y99.760 E99.29223
G0 F9000 X119.841 Y99.760
G1 F1200 X118.322 Y98.240 E99.55010
G0 F9000 X118.887 Y98.240
G1 F1200 X120.407 Y99.760 E99.80805
G0 F9000 X120.973 Y99.760
G1 F1200 X119.453 Y98.240 E100.06600
G0 F9000 X104.928 Y99.946
G0 X104.755 Y100.844
G0 X108.279 Y105.168
G1 F1200 X101.351 Y98.240 E101.24173
G0 F9000 X100.786 Y98.240
G1 F1200 X107.337 Y104.791 E102.35347
G0 F9000 X106.394 Y104.414
G1 F1200 X100.739 Y98.759 E103.31315
G0 F9000 X100.739 Y99.325
G1 F1200 X105.451 Y104.037 E104.11280
G0 F9000 X104.508 Y103.660
G1 F1200 X100.739 Y99.890 E104.75251
G0 F9000 X101.917 Y98.240
G1 F1200 X104.557 Y100.880 E105.20053
G0 F9000 X104.701 Y101.024
G1 F1200 X109.223 Y105.546 E105.96794
G0 F9000 X110.165 Y105.923
G1 F1200 X105.643 Y101.401 E106.73535
G0 F9000 X106.586 Y101.778
G1 F1200 X113.332 Y108.523 E107.88010
G0 F9000 X112.928 Y108.685
G1 F1200 X110.352 Y106.109 E108.31726
G0 F9000 X110.353 Y106.676
G1 F1200 X112.524 Y108.847 E108.68569
G0 F9000 X112.120 Y109.008
G1 F1200 X110.178 Y107.067 E109.01518
G0 F9000 X109.774 Y107.228
G1 F1200 X111.716 Y109.170 E109.34474
G0 F9000 X111.312 Y109.332
G1 F1200 X109.370 Y107.390 E109.67431
G0 F9000 X108.966 Y107.552
G1 F1200 X110.908 Y109.494 E110.00388
G0 F9000 X110.504 Y109.655
G1 F1200 X108.562 Y107.713 E110.33345
G0 F9000 X108.158 Y107.875
G1 F1200 X110.100 Y109.817 E110.66302
G0 F9000 X109.697 Y109.979
G1 F1200 X107.754 Y108.037 E110.99267
G0 F9000 X107.350 Y108.199
G1 F1200 X109.293 Y110.141 E111.32232
G0 F9000 X108.888 Y110.303
G1 F1200 X106.946 Y108.360 E111.65198
G0 F9000 X106.542 Y108.522
G1 F1200 X108.485 Y110.464 E111.98163
G0 F9000 X108.081 Y110.626
G1 F1200 X106.138 Y108.684 E112.31128
G0 F9000 X105.734 Y108.845
G1 F1200 X107.677 Y110.788 E112.64102
G0 F9000 X107.273 Y110.950
G1 F1200 X105.330 Y109.007 E112.97076
G0 F9000 X104.926 Y109.169
G1 F1200 X106.869 Y111.111 E113.30041
G0 F9000 X106.465 Y111.273
G1 F1200 X104.523 Y109.331 E113.62998
G0 F9000 X104.118 Y109.492
G1 F1200 X106.061 Y111.435 E113.95972
G0 F9000 X105.657 Y111.597
G1 F1200 X103.714 Y109.654 E114.28946
G0 F9000 X103.311 Y109.816
G1 F1200 X105.253 Y111.758 E114.61903
G0 F9000 X104.849 Y111.920
G1 F1200 X102.906 Y109.977 E114.94876
G0 F9000 X102.502 Y110.139
G1 F1200 X104.644 Y112.281 E115.31227
G0 F9000 X104.646 Y112.848
G1 F1200 X102.099 Y110.301 E115.74451
G0 F9000 X101.695 Y110.463
G1 F1200 X108.479 Y117.247 E116.89580
G0 F9000 X109.421 Y117.624
G1 F1200 X104.900 Y113.103 E117.66304
G0 F9000 X105.843 Y113.480
G1 F1200 X113.014 Y120.650 E118.87991
G0 F9000 X113.417 Y120.488
G1 F1200 X106.785 Y113.856 E120.00540
G0 F9000 X107.728 Y114.233
G1 F1200 X113.822 Y120.327 E121.03958
G0 F9000 X114.226 Y120.165
G1 F1200 X108.670 Y114.610 E121.98238
G0 F9000 X109.613 Y114.987
G1 F1200 X114.629 Y120.003 E122.83363
G0 F9000 X116.022 Y120.265
G1 F1200 X111.498 Y115.741 E123.60137
G0 F9000 X110.556 Y115.364
G1 F1200 X115.078 Y119.886 E124.36878
G0 F9000 X116.966 Y120.643
G1 F1200 X112.441 Y116.118 E125.13670
G0 F9000 X113.383 Y116.495
G1 F1200 X117.908 Y121.019 E125.90453
G0 F9000 X118.851 Y121.397
G1 F1200 X114.326 Y116.872 E126.67245
G0 F9000 X115.115 Y117.095
G1 F1200 X119.795 Y121.775 E127.46668
G0 F9000 X125.244 Y124.156
G0 X125.071 Y125.054
G0 X119.865 Y125.239
G1 F1200 X121.385 Y126.759 E127.72463
G0 F9000 X120.819 Y126.759
G1 F1200 X119.299 Y125.239 E127.98258
G0 F9000 X118.733 Y125.239
G1 F1200 X120.254 Y126.759 E128.24062
G0 F9000 X120.430 Y125.239
G1 F1200 X121.951 Y126.759 E128.49866
G0 F9000 X122.516 Y126.759
G1 F1200 X120.996 Y125.239 E128.75661
G0 F9000 X121.562 Y125.239
G1 F1200 X123.082 Y126.759 E129.01456
G0 F9000 X123.648 Y126.759
G1 F1200 X122.127 Y125.239 E129.27260
G0 F9000 X122.693 Y125.239
G1 F1200 X124.213 Y126.759 E129.53055
G0 F9000 X124.779 Y126.759
G1 F1200 X123.259 Y125.239 E129.78850
G0 F9000 X123.825 Y125.239
G1 F1200 X125.345 Y126.759 E130.04646
G0 F9000 X125.910 Y126.759
G1 F1200 X124.390 Y125.239 E130.30441
G0 F9000 X124.956 Y125.239
G1 F1200 X126.476 Y126.759 E130.56236
G0 F9000 X127.042 Y126.759
G1 F1200 X125.271 Y124.988 E130.86291
G0 F9000 X125.363 Y124.515
G1 F1200 X127.608 Y126.759 E131.24381
G0 F9000 X128.173 Y126.759
G1 F1200 X125.455 Y124.041 E131.70507
G0 F9000 X125.453 Y124.039
G1 F1200 X120.930 Y119.515 E132.47274
G0 F9000 X121.872 Y119.892
G1 F1200 X128.739 Y126.759 E133.63811
G0 F9000 X129.259 Y126.713
G1 F1200 X122.815 Y120.269 E134.73169
G0 F9000 X123.757 Y120.645
G1 F1200 X129.259 Y126.147 E135.66541
G0 F9000 X129.259 Y125.582
G1 F1200 X124.699 Y121.022 E136.43927
G0 F9000 X125.642 Y121.399
G1 F1200 X129.259 Y125.016 E137.05309
G0 F9000 X129.259 Y124.450
G1 F1200 X126.584 Y121.776 E137.50697
G0 F9000 X127.527 Y122.153
G1 F1200 X129.259 Y123.885 E137.80090
G0 F9000 X129.259 Y123.319
G1 F1200 X128.469 Y122.530 E137.93488
G0 F9000 X124.510 Y123.661
G1 F1200 X119.987 Y119.139 E138.70238
G0 F9000 X119.645 Y118.796
G1 F1200 X117.135 Y116.287 E139.12825
G0 F9000 X116.731 Y116.448
G1 F1200 X123.567 Y123.284 E140.28836
G0 F9000 X122.624 Y122.907
G1 F1200 X116.327 Y116.610 E141.35700
G0 F9000 X115.923 Y116.772
G1 F1200 X121.681 Y122.529 E142.33408
G0 F9000 X120.738 Y122.152
G1 F1200 X115.519 Y116.933 E143.21977
G0 F9000 X117.539 Y116.125
G1 F1200 X119.643 Y118.229 E143.57683
G0 F9000 X119.886 Y117.906
G1 F1200 X117.943 Y115.963 E143.90657
G0 F9000 X118.347 Y115.801
G1 F1200 X120.290 Y117.744 E144.23631
G0 F9000 X120.693 Y117.582
G1 F1200 X118.751 Y115.640 E144.56587
G0 F9000 X119.155 Y115.478
G1 F1200 X121.097 Y117.420 E144.89544
G0 F9000 X121.501 Y117.258
G1 F1200 X119.559 Y115.316 E145.22501
G0 F9000 X119.962 Y115.154
G1 F1200 X121.905 Y117.097 E145.55475
G0 F9000 X122.309 Y116.935
G1 F1200 X120.367 Y114.993 E145.88432
G0 F9000 X120.771 Y114.831
G1 F1200 X122.713 Y116.773 E146.21389
G0 F9000 X123.117 Y116.611
G1 F1200 X121.174 Y114.669 E146.54354
G0 F9000 X121.579 Y114.508
G1 F1200 X123.521 Y116.450 E146.87311
G0 F9000 X123.925 Y116.288
G1 F1200 X121.982 Y114.346 E147.20276
G0 F9000 X122.386 Y114.184
G1 F1200 X124.329 Y116.126 E147.53241
G0 F9000 X124.732 Y115.964
G1 F1200 X122.790 Y114.022 E147.86198
G0 F9000 X123.194 Y113.861
G1 F1200 X125.136 Y115.802 E148.19147
G0 F9000 X125.541 Y115.641
G1 F1200 X123.598 Y113.699 E148.52112
G0 F9000 X124.002 Y113.537
G1 F1200 X125.944 Y115.479 E148.85069
G0 F9000 X126.348 Y115.317
G1 F1200 X124.406 Y113.375 E149.18026
G0 F9000 X124.810 Y113.214
G1 F1200 X126.752 Y115.155 E149.50974
G0 F9000 X127.156 Y114.993
G1 F1200 X125.214 Y113.052 E149.83922
G0 F9000 X125.353 Y112.625
G1 F1200 X127.560 Y114.832 E150.21376
G0 F9000 X127.964 Y114.670
G1 F1200 X125.352 Y112.058 E150.65703
G0 F9000 X125.250 Y111.956
G1 F1200 X120.729 Y107.435 E151.42427
G0 F9000 X121.671 Y107.812
G1 F1200 X128.368 Y114.508 E152.56071
G0 F9000 X128.771 Y114.346
G1 F1200 X122.614 Y108.189 E153.60558
G0 F9000 X123.557 Y108.566
G1 F1200 X129.175 Y114.185 E154.55908
G0 F9000 X129.259 Y113.702
G1 F1200 X124.499 Y108.943 E155.36679
G0 F9000 X125.442 Y109.320
G1 F1200 X129.259 Y113.137 E156.01456
G0 F9000 X129.259 Y112.571
G1 F1200 X126.384 Y109.697 E156.50237
G0 F9000 X127.327 Y110.073
G1 F1200 X129.259 Y112.005 E156.83025
G0 F9000 X129.259 Y111.440
G1 F1200 X128.269 Y110.450 E156.99825
G0 F9000 X124.307 Y111.580
G1 F1200 X119.786 Y107.058 E157.76558
G0 F9000 X119.645 Y106.917
G1 F1200 X117.049 Y104.321 E158.20613
G0 F9000 X117.453 Y104.160
G1 F1200 X119.644 Y106.350 E158.57787
G0 F9000 X119.800 Y105.940
G1 F1200 X117.857 Y103.998 E158.90753
G0 F9000 X118.261 Y103.836
G1 F1200 X120.203 Y105.778 E159.23710
G0 F9000 X120.608 Y105.617
G1 F1200 X118.665 Y103.674 E159.56683
G0 F9000 X119.069 Y103.513
G1 F1200 X121.012 Y105.455 E159.89649
G0 F9000 X121.415 Y105.293
G1 F1200 X119.473 Y103.351 E160.22606
G0 F9000 X119.877 Y103.189
G1 F1200 X121.819 Y105.131 E160.55562
G0 F9000 X122.224 Y104.970
G1 F1200 X120.280 Y103.027 E160.88545
G0 F9000 X120.685 Y102.866
G1 F1200 X122.627 Y104.808 E161.21502
G0 F9000 X123.031 Y104.646
G1 F1200 X121.089 Y102.704 E161.54458
G0 F9000 X121.492 Y102.542
G1 F1200 X123.435 Y104.484 E161.87424
G0 F9000 X123.839 Y104.322
G1 F1200 X121.896 Y102.380 E162.20389
G0 F9000 X122.301 Y102.219
G1 F1200 X124.243 Y104.161 E162.53346
G0 F9000 X124.647 Y103.999
G1 F1200 X122.704 Y102.057 E162.86311
G0 F9000 X123.108 Y101.895
G1 F1200 X125.051 Y103.837 E163.19276
G0 F9000 X125.454 Y103.675
G1 F1200 X123.512 Y101.733 E163.52233
G0 F9000 X123.916 Y101.572
G1 F1200 X125.858 Y103.514 E163.85190
G0 F9000 X126.263 Y103.352
G1 F1200 X124.320 Y101.410 E164.18155
G0 F9000 X124.724 Y101.248
G1 F1200 X126.666 Y103.190 E164.51112
G0 F9000 X127.070 Y103.028
G1 F1200 X125.128 Y101.086 E164.84069
G0 F9000 X125.430 Y100.822
G1 F1200 X127.474 Y102.867 E165.18765
G0 F9000 X127.878 Y102.705
G1 F1200 X125.292 Y100.119 E165.62651
G0 F9000 X125.110 Y98.240
G1 F1200 X129.090 Y102.220 E166.30194
G0 F9000 X129.259 Y101.823
G1 F1200 X125.676 Y98.240 E166.91000
G0 F9000 X126.241 Y98.240
G1 F1200 X129.259 Y101.257 E167.42208
G0 F9000 X129.259 Y100.692
G1 F1200 X126.807 Y98.240 E167.83820
G0 F9000 X127.373 Y98.240
G1 F1200 X129.259 Y100.126 E168.15827
G0 F9000 X128.686 Y102.381
G1 F1200 X124.544 Y98.240 E168.86110
G0 F9000 X123.979 Y98.240
G1 F1200 X128.282 Y102.543 E169.59135
G0 F9000 X119.818 Y106.120
G0 X119.821 Y106.883
G0 X123.365 Y111.203
G1 F1200 X116.645 Y104.483 E170.73177
G0 F9000 X116.241 Y104.645
G1 F1200 X122.422 Y110.826 E171.78072
G0 F9000 X121.480 Y110.449
G1 F1200 X115.838 Y104.807 E172.73820
G0 F9000 X115.433 Y104.968
G1 F1200 X120.536 Y110.071 E173.60421
G0 F9000 X119.594 Y109.694
G1 F1200 X115.030 Y105.130 E174.37874
G0 F9000 X114.127 Y104.793
G1 F1200 X118.651 Y109.318 E175.14657
G0 F9000 X117.709 Y108.941
G1 F1200 X113.184 Y104.416 E175.91449
G0 F9000 X112.241 Y104.039
G1 F1200 X116.766 Y108.564 E176.68241
G0 F9000 X115.824 Y108.187
