;FLAVOR:UltiGCode
;TIME:12165
;MATERIAL:15786
;MATERIAL2:0
;NOZZLE_DIAMETER:0.400000
;NOZZLE_DIAMETER2:0.400000

;Layer count: 348
;LAYER:0
M107
G0 F9000 X82.851 Y85.475 Z0.300
;TYPE:SKIRT
G1 F1200 X147.150 Y85.475 E7.71588
G1 X147.150 Y134.504 E13.59936
G1 X147.040 Y135.487 E13.71806
G1 X146.653 Y136.590 E13.85833
G1 X146.032 Y137.578 E13.99836
G1 X145.204 Y138.406 E14.13888
G1 X144.216 Y139.027 E14.27891
G1 X143.116 Y139.412 E14.41876
G1 X142.132 Y139.525 E14.53762
G1 X87.868 Y139.525 E21.04930
G1 X86.885 Y139.412 E21.16804
G1 X85.786 Y139.027 E21.30778
G1 X84.798 Y138.406 E21.44781
G1 X83.970 Y137.578 E21.58833
G1 X83.349 Y136.590 E21.72836
G1 X82.964 Y135.491 E21.86810
G1 X82.851 Y134.508 E21.98684
G1 X82.851 Y85.475 E27.87080
G10
G0 F9000 X86.651 Y89.275
;TYPE:WALL-INNER
G11
G1 F1200 X143.350 Y89.275 E34.67468
G1 X143.350 Y134.294 E40.07696
G1 X143.312 Y134.635 E40.11813
G1 X143.208 Y134.930 E40.15566
G1 X143.041 Y135.196 E40.19335
G1 X142.822 Y135.415 E40.23052
G1 X142.556 Y135.582 E40.26821
G1 X142.261 Y135.686 E40.30574
G1 X141.917 Y135.725 E40.34729
G1 X88.084 Y135.725 E46.80725
G1 X87.742 Y135.686 E46.84855
G1 X87.446 Y135.582 E46.88620
G1 X87.180 Y135.415 E46.92389
G1 X86.961 Y135.196 E46.96106
G1 X86.794 Y134.930 E46.99875
G1 X86.690 Y134.634 E47.03640
G1 X86.651 Y134.292 E47.07770
G1 X86.651 Y89.275 E52.47974
G0 F9000 X94.001 Y110.576
G1 F1200 X94.001 Y111.923 E52.64138
G1 X94.251 Y111.924 E52.67138
G1 X94.251 Y130.725 E54.92750
G1 X94.001 Y130.725 E54.95750
G1 X94.001 Y132.075 E55.11950
G1 X136.000 Y132.075 E60.15938
G1 X136.000 Y110.576 E62.73926
G1 X94.001 Y110.576 E67.77914
G0 F9000 X92.201 Y113.168
G1 F1200 X91.648 Y112.937 E67.85106
G1 X91.061 Y112.830 E67.92266
G1 X90.464 Y112.849 E67.99434
G1 X89.884 Y112.995 E68.06611
G1 X89.347 Y113.260 E68.13797
G1 X88.879 Y113.633 E68.20978
G1 X88.722 Y113.826 E68.23964
G1 X87.451 Y113.826 E68.39216
G1 X87.451 Y117.425 E68.82404
G1 X88.723 Y117.425 E68.97668
G1 X88.880 Y117.618 E69.00653
G1 X89.347 Y117.991 E69.07825
G1 X89.884 Y118.256 E69.15011
G1 X90.464 Y118.402 E69.22188
G1 X91.061 Y118.421 E69.29356
G1 X91.648 Y118.314 E69.36516
G1 X92.201 Y118.083 E69.43708
G1 X92.691 Y117.740 E69.50885
G1 X93.098 Y117.302 E69.58060
G1 X93.403 Y116.788 E69.65232
G1 X93.591 Y116.220 E69.72412
G1 X93.656 Y115.626 E69.79582
G1 X93.591 Y115.031 E69.86765
G1 X93.403 Y114.463 E69.93945
G1 X93.098 Y113.949 E70.01117
G1 X92.691 Y113.511 E70.08292
G1 X92.201 Y113.168 E70.15469
G0 F9000 X93.402 Y114.464
G0 X93.589 Y116.219
G0 X92.690 Y117.740
G0 X91.061 Y124.230
G1 F1200 X90.464 Y124.249 E70.22637
G1 X89.884 Y124.395 E70.29814
G1 X89.347 Y124.660 E70.37000
G1 X88.879 Y125.033 E70.44181
G1 X88.722 Y125.226 E70.47167
G1 X88.093 Y125.225 E70.54715
G1 X87.451 Y125.238 E70.62420
G1 X87.451 Y128.826 E71.05476
G1 X88.723 Y128.826 E71.20740
G1 X88.880 Y129.018 E71.23717
G1 X89.347 Y129.391 E71.30889
G1 X89.884 Y129.656 E71.38075
G1 X90.464 Y129.802 E71.45252
G1 X91.061 Y129.821 E71.52419
G1 X91.648 Y129.714 E71.59579
G1 X92.201 Y129.483 E71.66771
G1 X92.691 Y129.140 E71.73949
G1 X93.098 Y128.702 E71.81124
G1 X93.403 Y128.188 E71.88296
G1 X93.591 Y127.620 E71.95475
G1 X93.656 Y127.025 E72.02658
G1 X93.591 Y126.431 E72.09828
G1 X93.403 Y125.863 E72.17008
G1 X93.098 Y125.349 E72.24180
G1 X92.691 Y124.911 E72.31355
G1 X92.201 Y124.568 E72.38533
G1 X91.648 Y124.337 E72.45724
G1 X91.061 Y124.230 E72.52884
G0 F9000 X94.249 Y124.426
G0 X94.060 Y110.635
G0 X135.941 Y110.635
G0 X136.346 Y127.025
G1 F1200 X136.411 Y127.620 E72.60067
G1 X136.599 Y128.188 E72.67246
G1 X136.904 Y128.702 E72.74419
G1 X137.311 Y129.140 E72.81593
G1 X137.801 Y129.483 E72.88771
G1 X138.354 Y129.714 E72.95963
G1 X138.941 Y129.821 E73.03123
G1 X139.538 Y129.802 E73.10290
G1 X140.118 Y129.656 E73.17467
G1 X140.658 Y129.390 E73.24691
G1 X141.138 Y128.998 E73.32128
G1 X141.279 Y128.826 E73.34797
G1 X142.550 Y128.826 E73.50049
G1 X142.550 Y125.225 E73.93261
G1 X141.279 Y125.225 E74.08513
G1 X141.123 Y125.033 E74.11481
G1 X140.655 Y124.660 E74.18663
G1 X140.118 Y124.395 E74.25849
G1 X139.538 Y124.249 E74.33026
G1 X138.941 Y124.230 E74.40193
G1 X138.354 Y124.337 E74.47353
G1 X137.801 Y124.568 E74.54545
G1 X137.311 Y124.911 E74.61723
G1 X136.904 Y125.349 E74.68897
G1 X136.599 Y125.863 E74.76070
G1 X136.411 Y126.431 E74.83249
G1 X136.346 Y127.025 E74.90420
G0 F9000 X138.354 Y118.314
G1 F1200 X138.941 Y118.421 E74.97580
G1 X139.538 Y118.402 E75.04748
G1 X140.118 Y118.256 E75.11925
G1 X140.658 Y117.990 E75.19148
G1 X141.139 Y117.597 E75.26602
G1 X141.279 Y117.425 E75.29263
G1 X141.890 Y117.425 E75.36595
G1 X142.550 Y117.439 E75.44517
G1 X142.550 Y113.826 E75.87873
G1 X141.280 Y113.826 E76.03113
G1 X141.123 Y113.633 E76.06098
G1 X140.655 Y113.260 E76.13280
G1 X140.118 Y112.995 E76.20466
G1 X139.538 Y112.849 E76.27643
G1 X138.941 Y112.830 E76.34811
G1 X138.354 Y112.937 E76.41971
G1 X137.801 Y113.168 E76.49162
G1 X137.311 Y113.511 E76.56340
G1 X136.904 Y113.949 E76.63515
G1 X136.599 Y114.463 E76.70687
G1 X136.411 Y115.031 E76.77867
G1 X136.346 Y115.626 E76.85049
G1 X136.411 Y116.220 E76.92220
G1 X136.599 Y116.788 E76.99399
G1 X136.904 Y117.302 E77.06571
G1 X137.311 Y117.740 E77.13746
G1 X137.801 Y118.083 E77.20924
G1 X138.354 Y118.314 E77.28115
G0 F9000 X138.468 Y117.928
;TYPE:WALL-OUTER
G1 F1200 X138.971 Y118.020 E77.34252
G1 X139.483 Y118.003 E77.40399
G1 X139.979 Y117.879 E77.46534
G1 X140.440 Y117.651 E77.52706
G1 X140.854 Y117.313 E77.59119
G1 X141.089 Y117.025 E77.63580
G1 X141.898 Y117.025 E77.73288
G1 X142.150 Y117.030 E77.76312
G1 X142.150 Y114.226 E78.09960
G1 X141.089 Y114.226 E78.22692
G1 X140.840 Y113.919 E78.27436
G1 X140.439 Y113.599 E78.33592
G1 X139.979 Y113.372 E78.39748
G1 X139.483 Y113.248 E78.45883
G1 X138.971 Y113.231 E78.52030
G1 X138.468 Y113.323 E78.58166
G1 X137.995 Y113.521 E78.64320
G1 X137.575 Y113.814 E78.70465
G1 X137.226 Y114.190 E78.76621
G1 X136.965 Y114.630 E78.82760
G1 X136.804 Y115.116 E78.88904
G1 X136.749 Y115.626 E78.95059
G1 X136.804 Y116.135 E79.01203
G1 X136.965 Y116.621 E79.07346
G1 X137.226 Y117.061 E79.13485
G1 X137.575 Y117.437 E79.19641
G1 X137.995 Y117.730 E79.25787
G1 X138.468 Y117.928 E79.31940
G0 F9000 X138.414 Y118.222
G0 X138.980 Y124.332
G0 X138.971 Y124.631
G1 F1200 X138.468 Y124.723 E79.38076
G1 X137.995 Y124.921 E79.44229
G1 X137.575 Y125.214 E79.50374
G1 X137.226 Y125.590 E79.56531
G1 X136.965 Y126.030 E79.62670
G1 X136.804 Y126.516 E79.68813
G1 X136.749 Y127.025 E79.74957
G1 X136.804 Y127.535 E79.81112
G1 X136.965 Y128.021 E79.87256
G1 X137.226 Y128.461 E79.93395
G1 X137.575 Y128.837 E79.99551
G1 X137.995 Y129.130 E80.05696
G1 X138.468 Y129.328 E80.11850
G1 X138.971 Y129.420 E80.17986
G1 X139.483 Y129.403 E80.24133
G1 X139.979 Y129.279 E80.30268
G1 X140.440 Y129.051 E80.36440
G1 X140.854 Y128.713 E80.42853
G1 X141.089 Y128.426 E80.47305
G1 X142.150 Y128.426 E80.60037
G1 X142.150 Y125.625 E80.93649
G1 X141.088 Y125.625 E81.06393
G1 X140.840 Y125.319 E81.11119
G1 X140.439 Y124.999 E81.17276
G1 X139.979 Y124.772 E81.23431
G1 X139.483 Y124.648 E81.29566
G1 X138.971 Y124.631 E81.35714
G0 F9000 X138.980 Y124.332
G0 X140.654 Y124.661
G0 X142.491 Y125.284
G0 X142.491 Y128.767
G0 X143.450 Y134.297
G0 X143.750 Y134.312
G1 F1200 X143.704 Y134.725 E81.40700
G1 X143.569 Y135.108 E81.45573
G1 X143.357 Y135.446 E81.50361
G1 X143.072 Y135.731 E81.55198
G1 X142.734 Y135.943 E81.59986
G1 X142.352 Y136.077 E81.64844
G1 X141.936 Y136.125 E81.69869
G1 X88.065 Y136.125 E88.16321
G1 X87.651 Y136.077 E88.21322
G1 X87.268 Y135.943 E88.26191
G1 X86.930 Y135.731 E88.30979
G1 X86.645 Y135.446 E88.35815
G1 X86.433 Y135.108 E88.40603
G1 X86.299 Y134.725 E88.45472
G1 X86.251 Y134.311 E88.50474
G1 X86.251 Y88.875 E93.95706
G1 X143.750 Y88.875 E100.85694
G1 X143.750 Y134.312 E106.30938
G0 F9000 X143.450 Y134.297
G0 X135.600 Y131.975
G0 X135.600 Y131.675
G1 F1200 X135.600 Y110.976 E108.79326
G1 X94.401 Y110.976 E113.73714
G1 X94.401 Y111.524 E113.80290
G1 X94.651 Y111.525 E113.83290
G1 X94.651 Y131.125 E116.18490
G1 X94.401 Y131.125 E116.21490
G1 X94.401 Y131.675 E116.28090
G1 X135.600 Y131.675 E121.22478
G0 F9000 X135.600 Y131.975
G0 X94.060 Y132.016
G0 X94.060 Y130.784
G0 X93.321 Y116.716
G0 X93.037 Y116.621
G1 F1200 X93.198 Y116.135 E121.28621
G1 X93.253 Y115.626 E121.34765
G1 X93.198 Y115.116 E121.40921
G1 X93.037 Y114.630 E121.47064
G1 X92.776 Y114.190 E121.53203
G1 X92.427 Y113.814 E121.59359
G1 X92.007 Y113.521 E121.65505
G1 X91.534 Y113.323 E121.71658
G1 X91.031 Y113.231 E121.77794
G1 X90.519 Y113.248 E121.83941
G1 X90.023 Y113.372 E121.90076
G1 X89.563 Y113.599 E121.96232
G1 X89.162 Y113.919 E122.02388
G1 X88.913 Y114.226 E122.07132
G1 X87.851 Y114.226 E122.19876
G1 X87.851 Y117.025 E122.53464
G1 X88.913 Y117.025 E122.66208
G1 X89.163 Y117.332 E122.70959
G1 X89.563 Y117.652 E122.77106
G1 X90.023 Y117.879 E122.83261
G1 X90.519 Y118.003 E122.89397
G1 X91.031 Y118.020 E122.95544
G1 X91.534 Y117.928 E123.01680
G1 X92.007 Y117.730 E123.07833
G1 X92.427 Y117.437 E123.13978
G1 X92.776 Y117.061 E123.20135
G1 X93.037 Y116.621 E123.26274
G0 F9000 X93.321 Y116.716
G0 X91.588 Y124.429
G0 X91.534 Y124.723
G1 F1200 X91.031 Y124.631 E123.32410
G1 X90.519 Y124.648 E123.38557
G1 X90.023 Y124.772 E123.44692
G1 X89.563 Y124.999 E123.50848
G1 X89.162 Y125.319 E123.57004
G1 X88.913 Y125.626 E123.61748
G1 X88.097 Y125.625 E123.71540
G1 X87.851 Y125.630 E123.74492
G1 X87.851 Y128.426 E124.08044
G1 X88.913 Y128.426 E124.20788
G1 X89.163 Y128.732 E124.25530
G1 X89.563 Y129.052 E124.31677
G1 X90.023 Y129.279 E124.37832
G1 X90.519 Y129.403 E124.43968
G1 X91.031 Y129.420 E124.50115
G1 X91.534 Y129.328 E124.56251
G1 X92.007 Y129.130 E124.62404
G1 X92.427 Y128.837 E124.68550
G1 X92.776 Y128.461 E124.74706
G1 X93.037 Y128.021 E124.80845
G1 X93.198 Y127.535 E124.86988
G1 X93.253 Y127.025 E124.93144
G1 X93.198 Y126.516 E124.99288
G1 X93.037 Y126.030 E125.05431
G1 X92.776 Y125.590 E125.11570
G1 X92.427 Y125.214 E125.17726
G1 X92.007 Y124.921 E125.23872
G1 X91.534 Y124.723 E125.30025
G0 F9000 X91.670 Y124.197
;TYPE:SKIN
G1 F1200 X86.790 Y119.317 E126.12841
G0 F9000 X86.790 Y118.752
G1 F1200 X94.111 Y126.072 E127.37074
G0 F9000 X93.657 Y126.184
G1 F1200 X93.945 Y126.754 E127.44776
G1 X93.932 Y127.308 E127.50412
G1 X93.882 Y127.823 E127.56450
G1 X94.111 Y128.335 E127.63181
G0 F9000 X94.111 Y128.901
G1 F1200 X93.502 Y128.291 E127.73524
G0 F9000 X93.291 Y128.646
G1 F1200 X94.111 Y129.467 E127.87448
G0 F9000 X94.111 Y130.032
G1 F1200 X93.043 Y128.964 E128.05573
G0 F9000 X92.769 Y129.256
G1 F1200 X94.097 Y130.584 E128.28110
G0 F9000 X93.861 Y130.913
G1 F1200 X92.437 Y129.489 E128.52276
G0 F9000 X92.071 Y129.689
G1 F1200 X93.861 Y131.479 E128.82653
G0 F9000 X93.861 Y132.045
G1 F1200 X91.668 Y129.852 E129.19870
G0 F9000 X91.190 Y129.940
G1 F1200 X96.834 Y135.584 E130.15652
G0 F9000 X96.269 Y135.584
G1 F1200 X90.631 Y129.946 E131.11332
G0 F9000 X89.930 Y129.811
G1 F1200 X95.703 Y135.584 E132.09303
G0 F9000 X95.137 Y135.584
G1 F1200 X88.518 Y128.964 E133.21639
G0 F9000 X87.952 Y128.964
G1 F1200 X94.571 Y135.584 E134.33976
G0 F9000 X94.006 Y135.584
G1 F1200 X87.387 Y128.964 E135.46313
G0 F9000 X87.310 Y128.888
G1 F1200 X87.050 Y128.345 E135.55126
G1 X87.050 Y127.780 E135.63924
G1 X87.050 Y127.214 E135.72736
G1 X87.050 Y126.648 E135.81549
G1 X87.050 Y126.083 E135.90346
G1 X87.050 Y125.517 E135.99158
G1 X86.790 Y124.974 E136.06383
G0 F9000 X86.790 Y124.409
G1 F1200 X87.478 Y125.096 E136.18050
G0 F9000 X88.032 Y125.085
G1 F1200 X86.790 Y123.843 E136.39128
G0 F9000 X86.790 Y123.277
G1 F1200 X88.597 Y125.084 E136.69793
G0 F9000 X88.908 Y124.829
G1 F1200 X86.790 Y122.712 E137.05729
G0 F9000 X86.790 Y122.146
G1 F1200 X89.222 Y124.578 E137.47001
G0 F9000 X89.591 Y124.381
G1 F1200 X86.790 Y121.580 E137.94536
G0 F9000 X86.790 Y121.014
G1 F1200 X89.997 Y124.220 E138.48952
G0 F9000 X90.450 Y124.108
G1 F1200 X86.790 Y120.449 E139.11055
G0 F9000 X86.790 Y119.883
G1 F1200 X90.997 Y124.090 E139.82451
G0 F9000 X94.111 Y123.810
G1 F1200 X87.865 Y117.564 E140.88449
G0 F9000 X88.431 Y117.564
G1 F1200 X94.111 Y123.244 E141.84841
G0 F9000 X94.111 Y122.678
G1 F1200 X89.804 Y118.371 E142.57934
G0 F9000 X90.542 Y118.543
G1 F1200 X94.111 Y122.113 E143.18510
G0 F9000 X94.111 Y121.547
G1 F1200 X91.117 Y118.553 E143.69320
G0 F9000 X91.595 Y118.465
G1 F1200 X94.111 Y120.981 E144.12018
G0 F9000 X94.111 Y120.416
G1 F1200 X92.010 Y118.315 E144.47673
G0 F9000 X92.386 Y118.125
G1 F1200 X94.111 Y119.850 E144.76947
G0 F9000 X94.111 Y119.284
G1 F1200 X92.718 Y117.891 E145.00587
G0 F9000 X93.001 Y117.608
G1 F1200 X94.111 Y118.718 E145.19425
G0 F9000 X94.111 Y118.153
G1 F1200 X93.258 Y117.300 E145.33901
G0 F9000 X93.470 Y116.946
G1 F1200 X94.111 Y117.587 E145.44779
G0 F9000 X94.111 Y117.021
G1 F1200 X93.688 Y116.315 E145.52902
G1 X94.111 Y116.173 E145.59086
G1 X93.950 Y115.446 E145.64537
G1 X93.700 Y114.914 E145.71591
G0 F9000 X94.111 Y114.759
G1 F1200 X93.119 Y113.767 E145.88425
G0 F9000 X92.691 Y113.339
G1 F1200 X86.790 Y107.438 E146.88569
G0 F9000 X86.790 Y108.004
G1 F1200 X91.564 Y112.777 E147.69578
G0 F9000 X90.914 Y112.693
G1 F1200 X86.790 Y108.569 E148.39564
G0 F9000 X86.790 Y109.135
G1 F1200 X90.380 Y112.724 E149.00480
G0 F9000 X89.927 Y112.837
G1 F1200 X86.790 Y109.701 E149.53708
G0 F9000 X86.790 Y110.266
G1 F1200 X89.534 Y113.010 E150.00275
G0 F9000 X89.174 Y113.216
G1 F1200 X86.790 Y110.832 E150.40733
G0 F9000 X86.790 Y111.398
G1 F1200 X88.859 Y113.467 E150.75845
G0 F9000 X88.512 Y113.685
G1 F1200 X86.790 Y111.963 E151.05069
G0 F9000 X86.790 Y112.529
G1 F1200 X87.946 Y113.685 E151.24687
G0 F9000 X87.380 Y113.685
G1 F1200 X86.790 Y113.095 E151.34699
G0 F9000 X86.790 Y113.661
G1 F1200 X87.050 Y114.203 E151.43518
G1 X87.050 Y114.769 E151.52348
G1 X87.050 Y115.335 E151.61177
G1 X87.050 Y115.900 E151.70008
G1 X87.050 Y116.466 E151.78838
G1 X87.311 Y117.009 E151.86067
G0 F9000 X86.790 Y117.055
G1 F1200 X94.111 Y124.375 E153.10300
G0 F9000 X94.111 Y124.941
G1 F1200 X86.790 Y117.620 E154.34542
G0 F9000 X86.790 Y118.186
G1 F1200 X94.111 Y125.507 E155.58783
G0 F9000 X94.031 Y132.214
G1 F1200 X97.400 Y135.584 E156.15966
G0 F9000 X97.966 Y135.584
G1 F1200 X94.596 Y132.214 E156.73156
G0 F9000 X95.162 Y132.214
G1 F1200 X98.531 Y135.584 E157.30339
G0 F9000 X99.097 Y135.584
G1 F1200 X95.728 Y132.214 E157.87521
G0 F9000 X96.293 Y132.214
G1 F1200 X99.663 Y135.584 E158.44712
G0 F9000 X100.228 Y135.584
G1 F1200 X96.859 Y132.214 E159.01894
G0 F9000 X97.425 Y132.214
G1 F1200 X100.794 Y135.584 E159.59076
G0 F9000 X101.360 Y135.584
G1 F1200 X97.990 Y132.214 E160.16267
G0 F9000 X98.556 Y132.214
G1 F1200 X101.925 Y135.584 E160.73450
G0 F9000 X102.491 Y135.584
G1 F1200 X99.122 Y132.214 E161.30632
G0 F9000 X99.687 Y132.214
G1 F1200 X103.057 Y135.584 E161.87823
G0 F9000 X103.622 Y135.584
G1 F1200 X100.253 Y132.214 E162.45005
G0 F9000 X100.819 Y132.214
G1 F1200 X104.188 Y135.584 E163.02187
G0 F9000 X104.754 Y135.584
G1 F1200 X101.384 Y132.214 E163.59378
G0 F9000 X101.950 Y132.214
G1 F1200 X105.320 Y135.584 E164.16569
G0 F9000 X105.885 Y135.584
G1 F1200 X102.516 Y132.214 E164.73751
G0 F9000 X103.082 Y132.214
G1 F1200 X106.451 Y135.584 E165.30933
G0 F9000 X107.017 Y135.584
G1 F1200 X103.647 Y132.214 E165.88124
G0 F9000 X104.213 Y132.214
G1 F1200 X107.582 Y135.584 E166.45307
G0 F9000 X108.148 Y135.584
G1 F1200 X104.779 Y132.214 E167.02489
G0 F9000 X105.344 Y132.214
G1 F1200 X108.714 Y135.584 E167.59680
G0 F9000 X109.279 Y135.584
G1 F1200 X105.910 Y132.214 E168.16862
G0 F9000 X106.476 Y132.214
G1 F1200 X109.845 Y135.584 E168.74044
G0 F9000 X110.411 Y135.584
G1 F1200 X107.041 Y132.214 E169.31235
G0 F9000 X107.607 Y132.214
G1 F1200 X110.976 Y135.584 E169.88417
G0 F9000 X111.542 Y135.584
G1 F1200 X108.173 Y132.214 E170.45600
G0 F9000 X108.738 Y132.214
G1 F1200 X112.108 Y135.584 E171.02791
G0 F9000 X112.673 Y135.584
G1 F1200 X109.304 Y132.214 E171.59973
G0 F9000 X109.870 Y132.214
G1 F1200 X113.239 Y135.584 E172.17155
G0 F9000 X113.805 Y135.584
G1 F1200 X110.435 Y132.214 E172.74346
G0 F9000 X111.001 Y132.214
G1 F1200 X114.370 Y135.584 E173.31528
G0 F9000 X114.936 Y135.584
