;FLAVOR:UltiGCode
;TIME:1044
;MATERIAL:1041
;MATERIAL2:0
;NOZZLE_DIAMETER:0.400000
;NOZZLE_DIAMETER2:0.400000

;Layer count: 63
;LAYER:0
M107
G0 F9000 X107.269 Y40.547 Z0.300
;TYPE:SKIRT
G1 F1200 X107.576 Y39.747 E0.10283
G1 X108.174 Y38.534 E0.26511
G1 X108.929 Y37.382 E0.43040
G1 X109.463 Y36.713 E0.53312
G1 X110.355 Y35.780 E0.68801
G1 X110.956 Y35.258 E0.78354
G1 X111.555 Y34.797 E0.87424
G1 X112.715 Y34.062 E1.03903
G1 X114.013 Y33.449 E1.21129
G1 X115.371 Y32.999 E1.38296
G1 X116.716 Y32.727 E1.54763
G1 X117.493 Y32.645 E1.64139
G1 X118.233 Y32.611 E1.73028
G1 X118.952 Y32.625 E1.81658
G1 X119.720 Y32.685 E1.90902
G1 X120.996 Y32.902 E2.06433
G1 X121.825 Y33.124 E2.16732
G1 X123.092 Y33.588 E2.32923
G1 X124.315 Y34.214 E2.49410
G1 X124.989 Y34.642 E2.58991
G1 X125.574 Y35.066 E2.67661
G1 X126.171 Y35.559 E2.76952
G1 X127.130 Y36.505 E2.93117
G1 X128.021 Y37.627 E3.10310
G1 X128.739 Y38.800 E3.26814
G1 X129.091 Y39.517 E3.36398
G1 X129.382 Y40.216 E3.45484
G1 X129.794 Y41.521 E3.61906
G1 X130.055 Y42.933 E3.79137
G1 X130.143 Y44.385 E3.96593
G1 X130.054 Y45.796 E4.13559
G1 X129.794 Y47.203 E4.30729
G1 X129.363 Y48.569 E4.47917
G1 X128.770 Y49.873 E4.65107
G1 X128.053 Y51.046 E4.81605
G1 X127.551 Y51.718 E4.91670
G1 X126.636 Y52.738 E5.08113
G1 X125.596 Y53.643 E5.24657
G1 X124.951 Y54.107 E5.34192
G1 X124.313 Y54.511 E5.43254
G1 X123.139 Y55.111 E5.59075
G1 X122.342 Y55.428 E5.69368
G1 X121.104 Y55.797 E5.84869
G1 X120.321 Y55.952 E5.94448
G1 X119.635 Y56.046 E6.02757
G1 X118.924 Y56.101 E6.11314
G1 X118.126 Y56.114 E6.20891
G1 X116.830 Y56.013 E6.36491
G1 X115.986 Y55.868 E6.46767
G1 X114.683 Y55.520 E6.62951
G1 X113.408 Y55.010 E6.79430
G1 X112.695 Y54.643 E6.89053
G1 X112.028 Y54.247 E6.98361
G1 X110.935 Y53.456 E7.14551
G1 X109.884 Y52.483 E7.31738
G1 X108.959 Y51.388 E7.48939
G1 X108.203 Y50.234 E7.65494
G1 X107.834 Y49.533 E7.75000
G1 X107.521 Y48.847 E7.84049
G1 X107.069 Y47.549 E8.00542
G1 X106.764 Y46.149 E8.17736
G1 X106.633 Y44.719 E8.34968
G1 X106.677 Y43.289 E8.52136
G1 X106.895 Y41.870 E8.69364
G1 X107.269 Y40.547 E8.85862
G0 F9000 X107.649 Y40.673
G1 F1200 X107.943 Y39.908 E8.95697
G1 X108.522 Y38.733 E9.11416
G1 X109.253 Y37.617 E9.27425
G1 X109.765 Y36.976 E9.37269
G1 X110.631 Y36.070 E9.52309
G1 X111.209 Y35.568 E9.61496
G1 X111.784 Y35.126 E9.70199
G1 X112.909 Y34.413 E9.86182
G1 X114.161 Y33.821 E10.02801
G1 X115.474 Y33.386 E10.19399
G1 X116.777 Y33.123 E10.35350
G1 X117.524 Y33.044 E10.44364
G1 X118.239 Y33.011 E10.52953
G1 X118.932 Y33.025 E10.61271
G1 X119.671 Y33.083 E10.70166
G1 X120.910 Y33.293 E10.85246
G1 X121.704 Y33.505 E10.95108
G1 X122.931 Y33.956 E11.10795
G1 X124.116 Y34.562 E11.26767
G1 X124.765 Y34.973 E11.35985
G1 X125.329 Y35.383 E11.44353
G1 X125.903 Y35.857 E11.53286
G1 X126.832 Y36.773 E11.68941
G1 X127.693 Y37.856 E11.85544
G1 X128.388 Y38.993 E12.01535
G1 X128.726 Y39.682 E12.10744
G1 X129.006 Y40.353 E12.19469
G1 X129.405 Y41.618 E12.35386
G1 X129.657 Y42.981 E12.52020
G1 X129.742 Y44.384 E12.68886
G1 X129.656 Y45.747 E12.85275
G1 X129.405 Y47.106 E13.01859
G1 X128.989 Y48.426 E13.18467
G1 X128.416 Y49.686 E13.35077
G1 X127.721 Y50.821 E13.51047
G1 X127.241 Y51.464 E13.60676
G1 X126.354 Y52.452 E13.76609
G1 X125.347 Y53.329 E13.92633
G1 X124.727 Y53.775 E14.01798
G1 X124.114 Y54.163 E14.10504
G1 X122.974 Y54.747 E14.25875
G1 X122.211 Y55.049 E14.35722
G1 X121.007 Y55.409 E14.50802
G1 X120.255 Y55.557 E14.59999
G1 X119.593 Y55.648 E14.68018
G1 X118.906 Y55.701 E14.76286
G1 X118.138 Y55.713 E14.85503
G1 X116.879 Y55.615 E15.00657
G1 X116.072 Y55.476 E15.10484
G1 X114.809 Y55.140 E15.26167
G1 X113.574 Y54.645 E15.42133
G1 X112.889 Y54.293 E15.51375
G1 X112.247 Y53.912 E15.60333
G1 X111.189 Y53.146 E15.76007
G1 X110.174 Y52.206 E15.92608
G1 X109.281 Y51.149 E16.09213
G1 X108.548 Y50.031 E16.25255
G1 X108.193 Y49.356 E16.34407
G1 X107.892 Y48.697 E16.43101
G1 X107.455 Y47.441 E16.59059
G1 X107.160 Y46.088 E16.75677
G1 X107.034 Y44.707 E16.92318
G1 X107.076 Y43.325 E17.08909
G1 X107.286 Y41.955 E17.25541
G1 X107.649 Y40.673 E17.41530
G0 F9000 X108.028 Y40.800
G1 F1200 X108.309 Y40.068 E17.50939
G1 X108.870 Y38.932 E17.66143
G1 X109.578 Y37.852 E17.81639
G1 X110.066 Y37.240 E17.91032
G1 X110.907 Y36.359 E18.05648
G1 X111.463 Y35.877 E18.14478
G1 X112.013 Y35.454 E18.22804
G1 X113.102 Y34.764 E18.38274
G1 X114.310 Y34.193 E18.54308
G1 X115.576 Y33.774 E18.70311
G1 X116.838 Y33.519 E18.85761
G1 X117.554 Y33.443 E18.94401
G1 X118.244 Y33.412 E19.02689
G1 X118.913 Y33.424 E19.10719
G1 X119.622 Y33.480 E19.19253
G1 X120.825 Y33.684 E19.33895
G1 X121.583 Y33.887 E19.43312
G1 X122.771 Y34.323 E19.58498
G1 X123.918 Y34.910 E19.73959
G1 X124.540 Y35.304 E19.82795
G1 X125.084 Y35.699 E19.90862
G1 X125.635 Y36.154 E19.99437
G1 X126.534 Y37.041 E20.14592
G1 X127.364 Y38.086 E20.30606
G1 X128.037 Y39.186 E20.46081
G1 X128.362 Y39.847 E20.54920
G1 X128.630 Y40.490 E20.63279
G1 X129.016 Y41.715 E20.78692
G1 X129.259 Y43.030 E20.94739
G1 X129.341 Y44.384 E21.11017
G1 X129.259 Y45.698 E21.26815
G1 X129.016 Y47.009 E21.42815
G1 X128.615 Y48.282 E21.58831
G1 X128.062 Y49.498 E21.74861
G1 X127.390 Y50.597 E21.90319
G1 X126.932 Y51.210 E21.99502
G1 X126.073 Y52.167 E22.14934
G1 X125.099 Y53.015 E22.30431
G1 X124.503 Y53.444 E22.39243
G1 X123.916 Y53.815 E22.47576
G1 X122.808 Y54.382 E22.62511
G1 X122.080 Y54.671 E22.71911
G1 X120.911 Y55.020 E22.86550
G1 X120.189 Y55.162 E22.95380
G1 X119.550 Y55.250 E23.03121
G1 X118.887 Y55.301 E23.11100
G1 X118.151 Y55.313 E23.19934
G1 X116.929 Y55.218 E23.34642
G1 X116.157 Y55.085 E23.44042
G1 X114.935 Y54.759 E23.59219
G1 X113.740 Y54.281 E23.74664
G1 X113.083 Y53.943 E23.83530
G1 X112.467 Y53.577 E23.92128
G1 X111.443 Y52.836 E24.07296
G1 X110.464 Y51.930 E24.23303
G1 X109.602 Y50.909 E24.39337
G1 X108.894 Y49.828 E24.54844
G1 X108.552 Y49.180 E24.63637
G1 X108.264 Y48.548 E24.71971
G1 X107.840 Y47.332 E24.87425
G1 X107.556 Y46.027 E25.03451
G1 X107.435 Y44.695 E25.19501
G1 X107.475 Y43.362 E25.35504
G1 X107.678 Y42.040 E25.51554
G1 X108.028 Y40.800 E25.67015
G10
G0 F9000 X111.637 Y42.003
;TYPE:WALL-INNER
G11
G1 F1200 X111.796 Y41.589 E25.72337
G1 X112.174 Y40.824 E25.82577
G1 X112.657 Y40.086 E25.93161
G1 X112.935 Y39.737 E25.98515
G1 X113.533 Y39.112 E26.08895
G1 X114.197 Y38.569 E26.19188
G1 X114.940 Y38.099 E26.29738
G1 X115.720 Y37.729 E26.40098
G1 X116.558 Y37.452 E26.50689
G1 X117.412 Y37.279 E26.61145
G1 X118.285 Y37.213 E26.71651
G1 X118.732 Y37.222 E26.77016
G1 X119.148 Y37.254 E26.82023
G1 X120.014 Y37.401 E26.92564
G1 X120.440 Y37.515 E26.97855
G1 X121.246 Y37.811 E27.08159
G1 X122.027 Y38.211 E27.18689
G1 X122.404 Y38.450 E27.24045
G1 X123.092 Y38.982 E27.34482
G1 X123.700 Y39.582 E27.44732
G1 X124.244 Y40.267 E27.55229
G1 X124.703 Y41.018 E27.65791
G1 X124.899 Y41.416 E27.71115
G1 X125.059 Y41.800 E27.76107
G1 X125.321 Y42.633 E27.86585
G1 X125.480 Y43.491 E27.97057
G1 X125.534 Y44.378 E28.07720
G1 X125.480 Y45.233 E28.18001
G1 X125.321 Y46.091 E28.28472
G1 X125.060 Y46.920 E28.38901
G1 X124.701 Y47.710 E28.49314
G1 X124.240 Y48.463 E28.59909
G1 X123.991 Y48.796 E28.64899
G1 X123.396 Y49.460 E28.75598
G1 X122.738 Y50.033 E28.86068
G1 X122.027 Y50.513 E28.96362
G1 X121.242 Y50.915 E29.06946
G1 X120.833 Y51.077 E29.12225
G1 X119.999 Y51.326 E29.22669
G1 X119.148 Y51.470 E29.33026
G1 X118.716 Y51.503 E29.38226
G1 X118.265 Y51.511 E29.43638
G1 X117.398 Y51.443 E29.54074
G1 X116.977 Y51.371 E29.59200
G1 X116.133 Y51.145 E29.69685
G1 X115.320 Y50.820 E29.80191
G1 X114.553 Y50.396 E29.90708
G1 X113.856 Y49.892 E30.01029
G1 X113.214 Y49.297 E30.11533
G1 X112.657 Y48.638 E30.21888
G1 X112.172 Y47.898 E30.32505
G1 X111.795 Y47.133 E30.42739
G1 X111.504 Y46.295 E30.53384
G1 X111.320 Y45.453 E30.63727
G1 X111.240 Y44.578 E30.74270
G1 X111.267 Y43.706 E30.84739
G1 X111.399 Y42.845 E30.95192
G1 X111.637 Y42.003 E31.05692
G0 F9000 X112.603 Y42.414
G1 F1200 X112.383 Y43.267 E31.16263
G1 X112.288 Y44.142 E31.26825
G1 X112.320 Y45.021 E31.37380
G1 X112.478 Y45.887 E31.47943
G1 X112.759 Y46.722 E31.58515
G1 X113.157 Y47.507 E31.69077
G1 X113.665 Y48.227 E31.79651
G1 X114.270 Y48.866 E31.90211
G1 X114.961 Y49.412 E32.00779
G1 X115.718 Y49.849 E32.11268
G1 X116.236 Y50.068 E32.18017
G1 X116.968 Y50.296 E32.27217
G1 X117.825 Y50.436 E32.37637
G1 X118.279 Y50.462 E32.43094
G1 X118.823 Y50.444 E32.49626
G1 X119.270 Y50.395 E32.55022
G1 X120.012 Y50.241 E32.64115
G1 X120.544 Y50.065 E32.70840
G1 X121.244 Y49.752 E32.80041
G1 X121.988 Y49.284 E32.90589
G1 X122.659 Y48.715 E33.01146
G1 X123.242 Y48.054 E33.11722
G1 X123.723 Y47.316 E33.22293
G1 X124.093 Y46.517 E33.32859
G1 X124.344 Y45.673 E33.43426
G1 X124.468 Y44.813 E33.53853
G1 X124.485 Y44.364 E33.59244
G1 X124.481 Y44.230 E33.60853
G1 X124.422 Y43.483 E33.69845
G1 X124.234 Y42.625 E33.80385
G1 X123.922 Y41.800 E33.90970
G1 X123.496 Y41.030 E34.01530
G1 X122.962 Y40.329 E34.12104
G1 X122.335 Y39.713 E34.22652
G1 X121.624 Y39.192 E34.33229
G1 X120.846 Y38.780 E34.43794
G1 X120.017 Y38.483 E34.54361
G1 X119.164 Y38.311 E34.64803
G1 X118.715 Y38.272 E34.70211
G1 X118.265 Y38.262 E34.75612
G1 X117.406 Y38.341 E34.85964
G1 X116.855 Y38.459 E34.92726
G1 X116.126 Y38.695 E35.01921
G1 X115.340 Y39.075 E35.12397
G1 X114.868 Y39.381 E35.19147
G1 X114.269 Y39.859 E35.28344
G1 X113.672 Y40.489 E35.38759
G1 X113.393 Y40.857 E35.44300
G1 X112.944 Y41.602 E35.54738
G1 X112.603 Y42.414 E35.65307
G0 F9000 X112.983 Y42.542
;TYPE:WALL-OUTER
G1 F1200 X112.778 Y43.339 E35.75182
G1 X112.689 Y44.157 E35.85056
G1 X112.719 Y44.978 E35.94915
G1 X112.866 Y45.787 E36.04782
G1 X113.129 Y46.567 E36.14659
G1 X113.501 Y47.300 E36.24523
G1 X113.975 Y47.973 E36.34401
G1 X114.541 Y48.570 E36.44273
G1 X115.186 Y49.080 E36.54140
G1 X115.897 Y49.490 E36.63989
G1 X116.374 Y49.692 E36.70205
G1 X117.060 Y49.906 E36.78829
G1 X117.868 Y50.038 E36.88653
G1 X118.284 Y50.061 E36.93653
G1 X118.795 Y50.045 E36.99788
G1 X119.207 Y50.000 E37.04761
G1 X119.908 Y49.854 E37.13354
G1 X120.399 Y49.692 E37.19558
G1 X121.055 Y49.398 E37.28185
G1 X121.751 Y48.961 E37.38046
G1 X122.378 Y48.429 E37.47914
G1 X122.923 Y47.811 E37.57802
G1 X123.372 Y47.122 E37.67670
G1 X123.718 Y46.376 E37.77538
G1 X123.952 Y45.587 E37.87414
G1 X124.069 Y44.776 E37.97247
G1 X124.085 Y44.363 E38.02206
G1 X124.082 Y44.252 E38.03539
G1 X124.025 Y43.542 E38.12086
G1 X123.849 Y42.739 E38.21951
G1 X123.558 Y41.969 E38.31829
G1 X123.160 Y41.249 E38.41701
G1 X122.661 Y40.594 E38.51582
G1 X122.075 Y40.018 E38.61442
G1 X121.411 Y39.532 E38.71317
G1 X120.684 Y39.147 E38.81188
G1 X119.910 Y38.870 E38.91053
G1 X119.107 Y38.708 E39.00883
G1 X118.693 Y38.671 E39.05871
G1 X118.279 Y38.663 E39.10840
G1 X117.466 Y38.737 E39.20637
G1 X116.959 Y38.846 E39.26860
G1 X116.275 Y39.067 E39.35485
G1 X115.537 Y39.424 E39.45323
G1 X115.102 Y39.706 E39.51544
G1 X114.540 Y40.154 E39.60169
G1 X113.977 Y40.748 E39.69990
G1 X113.724 Y41.082 E39.75018
G1 X113.301 Y41.783 E39.84842
G1 X112.983 Y42.542 E39.94718
G0 F9000 X112.694 Y42.466
G0 X111.543 Y41.967
G0 X111.255 Y41.883
G1 F1200 X111.431 Y41.425 E40.00605
G1 X111.826 Y40.625 E40.11312
G1 X112.335 Y39.848 E40.22458
G1 X112.627 Y39.482 E40.28077
G1 X113.258 Y38.821 E40.39043
G1 X113.611 Y38.515 E40.44649
G1 X113.967 Y38.241 E40.50040
G1 X114.742 Y37.750 E40.61049
G1 X115.578 Y37.355 E40.72144
G1 X116.452 Y37.065 E40.83195
G1 X117.355 Y36.883 E40.94249
G1 X118.290 Y36.813 E41.05500
G1 X118.753 Y36.822 E41.11057
G1 X119.202 Y36.857 E41.16461
G1 X120.098 Y37.009 E41.27367
G1 X120.552 Y37.131 E41.33008
G1 X121.408 Y37.445 E41.43950
G1 X122.228 Y37.864 E41.55000
G1 X122.634 Y38.122 E41.60772
G1 X123.357 Y38.682 E41.71746
G1 X123.997 Y39.313 E41.82531
G1 X124.572 Y40.037 E41.93626
G1 X125.053 Y40.824 E42.04694
G1 X125.261 Y41.246 E42.10340
G1 X125.433 Y41.660 E42.15720
G1 X125.710 Y42.538 E42.26768
G1 X125.878 Y43.443 E42.37813
G1 X125.934 Y44.379 E42.49065
G1 X125.878 Y45.282 E42.59922
G1 X125.710 Y46.186 E42.70956
G1 X125.433 Y47.065 E42.82015
G1 X125.053 Y47.900 E42.93024
G1 X124.570 Y48.690 E43.04135
G1 X124.302 Y49.050 E43.09521
G1 X123.679 Y49.743 E43.20703
G1 X122.985 Y50.348 E43.31752
G1 X122.228 Y50.860 E43.42718
G1 X121.406 Y51.280 E43.53795
G1 X120.965 Y51.455 E43.59489
G1 X120.089 Y51.717 E43.70461
G1 X119.184 Y51.869 E43.81473
G1 X118.736 Y51.903 E43.86864
G1 X118.251 Y51.911 E43.92685
G1 X117.353 Y51.841 E44.03494
G1 X116.884 Y51.760 E44.09205
G1 X116.012 Y51.528 E44.20033
G1 X115.149 Y51.183 E44.31186
G1 X114.335 Y50.732 E44.42353
G1 X113.605 Y50.204 E44.53164
G1 X112.926 Y49.576 E44.64263
G1 X112.332 Y48.872 E44.75316
G1 X111.826 Y48.100 E44.86393
G1 X111.424 Y47.282 E44.97330
G1 X111.118 Y46.404 E45.08488
G1 X110.923 Y45.510 E45.19468
G1 X110.839 Y44.594 E45.30506
G1 X110.868 Y43.674 E45.41552
G1 X111.008 Y42.756 E45.52695
G1 X111.255 Y41.883 E45.63582
G0 F9000 X111.808 Y41.946
;TYPE:SKIN
G1 F1200 X112.420 Y42.558 E45.73968
G0 F9000 X112.565 Y42.137
G1 F1200 X111.972 Y41.544 E45.84032
G0 F9000 X112.159 Y41.166
G1 F1200 X112.733 Y41.739 E45.93764
G0 F9000 X112.923 Y41.364
G1 F1200 X112.357 Y40.797 E46.03378
G0 F9000 X112.581 Y40.456
G1 F1200 X113.247 Y40.840 E46.12788
G1 X112.935 Y39.962 E46.22097
G1 X113.745 Y40.206 E46.31360
G1 X113.476 Y39.371 E46.40597
G1 X114.314 Y39.644 E46.49799
G1 X114.081 Y38.845 E46.59037
G1 X114.956 Y39.154 E46.68307
G1 X114.578 Y38.493 E46.77445
G0 F9000 X114.924 Y38.274
G1 F1200 X115.493 Y38.843 E46.87101
G0 F9000 X115.875 Y38.658
G1 F1200 X115.299 Y38.083 E46.96867
G0 F9000 X115.683 Y37.901
G1 F1200 X116.279 Y38.497 E47.06982
G0 F9000 X116.707 Y38.359
G1 F1200 X116.098 Y37.751 E47.17309
G0 F9000 X116.524 Y37.611
G1 F1200 X117.163 Y38.250 E47.28153
G0 F9000 X117.656 Y38.177
G1 F1200 X116.986 Y37.507 E47.39523
G0 F9000 X117.459 Y37.415
G1 F1200 X118.174 Y38.130 E47.51657
G0 F9000 X118.743 Y38.132
G1 F1200 X117.985 Y37.375 E47.64512
G0 F9000 X118.534 Y37.358
G1 F1200 X119.390 Y38.214 E47.79039
G0 F9000 X120.108 Y38.366
G1 F1200 X119.135 Y37.393 E47.95551
G0 F9000 X119.816 Y37.509
G1 F1200 X121.024 Y38.716 E48.16043
G0 F9000 X121.577 Y38.138
G1 F1200 X124.635 Y41.196 E48.67939
G0 F9000 X124.048 Y41.741
G1 F1200 X125.232 Y42.924 E48.88024
G0 F9000 X125.346 Y43.605
G1 F1200 X124.378 Y42.637 E49.04451
G0 F9000 X124.537 Y43.361
G1 F1200 X125.382 Y44.206 E49.18792
G0 F9000 X125.368 Y44.758
G1 F1200 X124.602 Y43.991 E49.31799
G0 F9000 X124.615 Y44.571
G1 F1200 X125.328 Y45.283 E49.43891
G0 F9000 X125.239 Y45.760
G1 F1200 X124.568 Y45.089 E49.55278
G0 F9000 X124.497 Y45.584
G1 F1200 X125.133 Y46.220 E49.66072
G0 F9000 X124.997 Y46.649
G1 F1200 X124.381 Y46.034 E49.76517
G0 F9000 X124.252 Y46.470
G1 F1200 X124.841 Y47.060 E49.86521
G0 F9000 X124.665 Y47.448
G1 F1200 X124.083 Y46.867 E49.96389
G0 F9000 X123.904 Y47.254
G1 F1200 X124.361 Y47.994 E50.05965
G1 X123.584 Y47.782 E50.15437
G1 X123.903 Y48.667 E50.24863
G1 X123.097 Y48.427 E50.34147
G1 X123.371 Y49.267 E50.43372
G1 X122.539 Y48.999 E50.52550
G1 X122.779 Y49.806 E50.61819
G1 X121.907 Y49.499 E50.71110
G1 X122.290 Y50.165 E50.80330
G0 F9000 X121.953 Y50.394
G1 F1200 X121.386 Y49.827 E50.89952
G0 F9000 X121.005 Y50.012
G1 F1200 X121.578 Y50.585 E50.99676
G0 F9000 X121.204 Y50.776
G1 F1200 X120.615 Y50.187 E51.09672
G0 F9000 X120.191 Y50.329
G1 F1200 X120.800 Y50.937 E51.19998
G0 F9000 X120.365 Y51.069
G1 F1200 X119.737 Y50.440 E51.30664
G0 F9000 X119.266 Y50.536
G1 F1200 X119.927 Y51.196 E51.41873
G0 F9000 X119.443 Y51.278
G1 F1200 X118.751 Y50.586 E51.53617
G0 F9000 X118.197 Y50.597
G1 F1200 X118.945 Y51.345 E51.66311
G0 F9000 X118.401 Y51.367
G1 F1200 X117.570 Y50.536 E51.80413
G0 F9000 X116.886 Y50.418
G1 F1200 X117.802 Y51.334 E51.95959
G0 F9000 X117.163 Y51.260
G1 F1200 X116.040 Y50.138 E52.15008
G0 F9000 X115.519 Y50.748
G1 F1200 X111.994 Y47.223 E52.74829
G0 F9000 X112.603 Y46.700
G1 F1200 X111.493 Y45.590 E52.93667
G0 F9000 X111.413 Y44.945
G1 F1200 X112.330 Y45.862 E53.09229
G0 F9000 X112.204 Y45.170
G1 F1200 X111.385 Y44.351 E53.23127
G0 F9000 X111.403 Y43.803
G1 F1200 X112.163 Y44.563 E53.36025
G0 F9000 X112.163 Y43.998
