;FLAVOR:UltiGCode
;TIME:1175
;MATERIAL:1598
;MATERIAL2:0
;NOZZLE_DIAMETER:0.400000
;NOZZLE_DIAMETER2:0.400000

;Layer count: 18
;LAYER:0
M107
G0 F9000 X90.500 Y75.250 Z0.300
;TYPE:SKIRT
G1 F1200 X139.500 Y75.250 E5.88000
G1 X139.500 Y149.750 E14.82000
G1 X90.500 Y149.750 E20.70000
G1 X90.500 Y75.250 E29.64000
G10
G0 F9000 X94.300 Y79.050
;TYPE:WALL-INNER
G11
G1 F1200 X135.700 Y79.050 E34.60800
G1 X135.700 Y145.950 E42.63600
G1 X94.300 Y145.950 E47.60400
G1 X94.300 Y79.050 E55.63200
G0 F9000 X97.100 Y81.850
G1 F1200 X97.100 Y143.150 E62.98800
G1 X132.900 Y143.150 E67.28400
G1 X132.900 Y81.850 E74.64000
G1 X97.100 Y81.850 E78.93600
G0 F9000 X97.500 Y82.250
;TYPE:WALL-OUTER
G1 F1200 X97.500 Y142.750 E86.19600
G1 X132.500 Y142.750 E90.39600
G1 X132.500 Y82.250 E97.65600
G1 X97.500 Y82.250 E101.85600
G0 F9000 X97.500 Y81.950
G0 X94.200 Y78.860
G0 X93.900 Y78.650
G1 F1200 X136.100 Y78.650 E106.92000
G1 X136.100 Y146.350 E115.04400
G1 X93.900 Y146.350 E120.10800
G1 X93.900 Y78.650 E128.23200
G0 F9000 X94.439 Y79.448
;TYPE:SKIN
G1 F1200 X96.959 Y81.969 E128.65974
G0 F9000 X97.266 Y81.709
G1 F1200 X94.746 Y79.190 E129.08732
G0 F9000 X95.312 Y79.190
G1 F1200 X97.831 Y81.709 E129.51480
G0 F9000 X98.397 Y81.709
G1 F1200 X95.878 Y79.190 E129.94229
G0 F9000 X96.443 Y79.190
G1 F1200 X98.963 Y81.709 E130.36987
G0 F9000 X99.528 Y81.709
G1 F1200 X97.009 Y79.190 E130.79736
G0 F9000 X97.575 Y79.190
G1 F1200 X100.094 Y81.709 E131.22484
G0 F9000 X100.660 Y81.709
G1 F1200 X98.140 Y79.190 E131.65242
G0 F9000 X98.706 Y79.190
G1 F1200 X101.225 Y81.709 E132.07991
G0 F9000 X101.791 Y81.709
G1 F1200 X99.272 Y79.190 E132.50739
G0 F9000 X99.837 Y79.190
G1 F1200 X102.357 Y81.709 E132.93497
G0 F9000 X102.922 Y81.709
G1 F1200 X100.403 Y79.190 E133.36246
G0 F9000 X100.969 Y79.190
G1 F1200 X103.488 Y81.709 E133.78994
G0 F9000 X104.054 Y81.709
G1 F1200 X101.534 Y79.190 E134.21752
G0 F9000 X102.100 Y79.190
G1 F1200 X104.619 Y81.709 E134.64501
G0 F9000 X105.185 Y81.709
G1 F1200 X102.666 Y79.190 E135.07249
G0 F9000 X103.231 Y79.190
G1 F1200 X105.751 Y81.709 E135.50007
G0 F9000 X106.317 Y81.709
G1 F1200 X103.797 Y79.190 E135.92764
G0 F9000 X104.363 Y79.190
G1 F1200 X106.882 Y81.709 E136.35513
G0 F9000 X107.448 Y81.709
G1 F1200 X104.928 Y79.190 E136.78270
G0 F9000 X105.494 Y79.190
G1 F1200 X108.014 Y81.709 E137.21028
G0 F9000 X108.579 Y81.709
G1 F1200 X106.060 Y79.190 E137.63776
G0 F9000 X106.626 Y79.190
G1 F1200 X109.145 Y81.709 E138.06525
G0 F9000 X109.711 Y81.709
G1 F1200 X107.191 Y79.190 E138.49283
G0 F9000 X107.757 Y79.190
G1 F1200 X110.276 Y81.709 E138.92032
G0 F9000 X110.842 Y81.709
G1 F1200 X108.323 Y79.190 E139.34780
G0 F9000 X108.888 Y79.190
G1 F1200 X111.408 Y81.709 E139.77538
G0 F9000 X111.973 Y81.709
G1 F1200 X109.454 Y79.190 E140.20287
G0 F9000 X110.020 Y79.190
G1 F1200 X112.539 Y81.709 E140.63035
G0 F9000 X113.105 Y81.709
G1 F1200 X110.585 Y79.190 E141.05793
G0 F9000 X111.151 Y79.190
G1 F1200 X113.670 Y81.709 E141.48542
G0 F9000 X114.236 Y81.709
G1 F1200 X111.717 Y79.190 E141.91290
G0 F9000 X112.282 Y79.190
G1 F1200 X114.802 Y81.709 E142.34048
G0 F9000 X115.368 Y81.709
G1 F1200 X112.848 Y79.190 E142.76805
G0 F9000 X113.414 Y79.190
G1 F1200 X115.933 Y81.709 E143.19554
G0 F9000 X116.499 Y81.709
G1 F1200 X113.979 Y79.190 E143.62311
G0 F9000 X114.545 Y79.190
G1 F1200 X117.065 Y81.709 E144.05069
G0 F9000 X117.630 Y81.709
G1 F1200 X115.111 Y79.190 E144.47817
G0 F9000 X115.677 Y79.190
G1 F1200 X118.196 Y81.709 E144.90566
G0 F9000 X118.762 Y81.709
G1 F1200 X116.242 Y79.190 E145.33324
G0 F9000 X116.808 Y79.190
G1 F1200 X119.327 Y81.709 E145.76072
G0 F9000 X119.893 Y81.709
G1 F1200 X117.374 Y79.190 E146.18821
G0 F9000 X117.939 Y79.190
G1 F1200 X120.459 Y81.709 E146.61579
G0 F9000 X121.024 Y81.709
G1 F1200 X118.505 Y79.190 E147.04327
G0 F9000 X119.071 Y79.190
G1 F1200 X121.590 Y81.709 E147.47076
G0 F9000 X122.156 Y81.709
G1 F1200 X119.636 Y79.190 E147.89834
G0 F9000 X120.202 Y79.190
G1 F1200 X122.721 Y81.709 E148.32583
G0 F9000 X123.287 Y81.709
G1 F1200 X120.768 Y79.190 E148.75331
G0 F9000 X121.333 Y79.190
G1 F1200 X123.853 Y81.709 E149.18089
G0 F9000 X124.418 Y81.709
G1 F1200 X121.899 Y79.190 E149.60838
G0 F9000 X122.465 Y79.190
G1 F1200 X124.984 Y81.709 E150.03586
G0 F9000 X125.550 Y81.709
G1 F1200 X123.030 Y79.190 E150.46344
G0 F9000 X123.596 Y79.190
G1 F1200 X126.116 Y81.709 E150.89101
G0 F9000 X126.681 Y81.709
G1 F1200 X124.162 Y79.190 E151.31850
G0 F9000 X124.727 Y79.190
G1 F1200 X127.247 Y81.709 E151.74607
G0 F9000 X127.813 Y81.709
G1 F1200 X125.293 Y79.190 E152.17365
G0 F9000 X125.859 Y79.190
G1 F1200 X128.378 Y81.709 E152.60113
G0 F9000 X128.944 Y81.709
G1 F1200 X126.425 Y79.190 E153.02862
G0 F9000 X126.990 Y79.190
G1 F1200 X129.510 Y81.709 E153.45620
G0 F9000 X130.075 Y81.709
G1 F1200 X127.556 Y79.190 E153.88368
G0 F9000 X128.122 Y79.190
G1 F1200 X130.641 Y81.709 E154.31117
G0 F9000 X131.207 Y81.709
G1 F1200 X128.687 Y79.190 E154.73875
G0 F9000 X129.253 Y79.190
G1 F1200 X131.772 Y81.709 E155.16623
G0 F9000 X132.338 Y81.709
G1 F1200 X129.819 Y79.190 E155.59372
G0 F9000 X130.384 Y79.190
G1 F1200 X132.904 Y81.709 E156.02130
G0 F9000 X133.039 Y81.844
G1 F1200 X135.560 Y84.365 E156.44912
G0 F9000 X135.560 Y84.931
G1 F1200 X133.039 Y82.410 E156.87695
G0 F9000 X133.039 Y82.976
G1 F1200 X135.560 Y85.496 E157.30470
G0 F9000 X135.560 Y86.062
G1 F1200 X133.039 Y83.541 E157.73252
G0 F9000 X133.039 Y84.107
G1 F1200 X135.560 Y86.628 E158.16035
G0 F9000 X135.560 Y87.194
G1 F1200 X133.039 Y84.673 E158.58818
G0 F9000 X133.039 Y85.238
G1 F1200 X135.560 Y87.759 E159.01601
G0 F9000 X135.560 Y88.325
G1 F1200 X133.039 Y85.804 E159.44383
G0 F9000 X133.039 Y86.370
G1 F1200 X135.560 Y88.891 E159.87166
G0 F9000 X135.560 Y89.456
G1 F1200 X133.039 Y86.935 E160.29949
G0 F9000 X133.039 Y87.501
G1 F1200 X135.560 Y90.022 E160.72732
G0 F9000 X135.560 Y90.588
G1 F1200 X133.039 Y88.067 E161.15515
G0 F9000 X133.039 Y88.633
G1 F1200 X135.560 Y91.153 E161.58289
G0 F9000 X135.560 Y91.719
G1 F1200 X133.039 Y89.198 E162.01072
G0 F9000 X133.039 Y89.764
G1 F1200 X135.560 Y92.285 E162.43855
G0 F9000 X135.560 Y92.850
G1 F1200 X133.039 Y90.330 E162.86629
G0 F9000 X133.039 Y90.895
G1 F1200 X135.560 Y93.416 E163.29412
G0 F9000 X135.560 Y93.982
G1 F1200 X133.039 Y91.461 E163.72194
G0 F9000 X133.039 Y92.027
G1 F1200 X135.560 Y94.547 E164.14969
G0 F9000 X135.560 Y95.113
G1 F1200 X133.039 Y92.592 E164.57752
G0 F9000 X133.039 Y93.158
G1 F1200 X135.560 Y95.679 E165.00534
G0 F9000 X135.560 Y96.245
G1 F1200 X133.039 Y93.724 E165.43317
G0 F9000 X133.039 Y94.289
G1 F1200 X135.560 Y96.810 E165.86100
G0 F9000 X135.560 Y97.376
G1 F1200 X133.039 Y94.855 E166.28883
G0 F9000 X133.039 Y95.421
G1 F1200 X135.560 Y97.942 E166.71665
G0 F9000 X135.560 Y98.507
G1 F1200 X133.039 Y95.986 E167.14448
G0 F9000 X133.039 Y96.552
G1 F1200 X135.560 Y99.073 E167.57231
G0 F9000 X135.560 Y99.639
G1 F1200 X133.039 Y97.118 E168.00014
G0 F9000 X133.039 Y97.683
G1 F1200 X135.560 Y100.204 E168.42797
G0 F9000 X135.560 Y100.770
G1 F1200 X133.039 Y98.249 E168.85579
G0 F9000 X133.039 Y98.815
G1 F1200 X135.560 Y101.336 E169.28362
G0 F9000 X135.560 Y101.901
G1 F1200 X133.039 Y99.381 E169.71136
G0 F9000 X133.039 Y99.946
G1 F1200 X135.560 Y102.467 E170.13919
G0 F9000 X135.560 Y103.033
G1 F1200 X133.039 Y100.512 E170.56702
G0 F9000 X133.039 Y101.078
G1 F1200 X135.560 Y103.598 E170.99476
G0 F9000 X135.560 Y104.164
G1 F1200 X133.039 Y101.643 E171.42259
G0 F9000 X133.039 Y102.209
G1 F1200 X135.560 Y104.730 E171.85042
G0 F9000 X135.560 Y105.295
G1 F1200 X133.039 Y102.775 E172.27816
G0 F9000 X133.039 Y103.340
G1 F1200 X135.560 Y105.861 E172.70599
G0 F9000 X135.560 Y106.427
G1 F1200 X133.039 Y103.906 E173.13382
G0 F9000 X133.039 Y104.472
G1 F1200 X135.560 Y106.993 E173.56165
G0 F9000 X135.560 Y107.558
G1 F1200 X133.039 Y105.037 E173.98947
G0 F9000 X133.039 Y105.603
G1 F1200 X135.560 Y108.124 E174.41730
G0 F9000 X135.560 Y108.690
G1 F1200 X133.039 Y106.169 E174.84513
G0 F9000 X133.039 Y106.734
G1 F1200 X135.560 Y109.255 E175.27296
G0 F9000 X135.560 Y109.821
G1 F1200 X133.039 Y107.300 E175.70079
G0 F9000 X133.039 Y107.866
G1 F1200 X135.560 Y110.387 E176.12861
G0 F9000 X135.560 Y110.952
G1 F1200 X133.039 Y108.431 E176.55644
G0 F9000 X133.039 Y108.997
G1 F1200 X135.560 Y111.518 E176.98427
G0 F9000 X135.560 Y112.084
G1 F1200 X133.039 Y109.563 E177.41210
G0 F9000 X133.039 Y110.129
G1 F1200 X135.560 Y112.649 E177.83984
G0 F9000 X135.560 Y113.215
G1 F1200 X133.039 Y110.694 E178.26767
G0 F9000 X133.039 Y111.260
G1 F1200 X135.560 Y113.781 E178.69550
G0 F9000 X135.560 Y114.346
G1 F1200 X133.039 Y111.826 E179.12324
G0 F9000 X133.039 Y112.391
G1 F1200 X135.560 Y114.912 E179.55107
G0 F9000 X135.560 Y115.478
G1 F1200 X133.039 Y112.957 E179.97889
G0 F9000 X133.039 Y113.523
G1 F1200 X135.560 Y116.044 E180.40672
G0 F9000 X135.560 Y116.609
G1 F1200 X133.039 Y114.088 E180.83455
G0 F9000 X133.039 Y114.654
G1 F1200 X135.560 Y117.175 E181.26238
G0 F9000 X135.560 Y117.741
G1 F1200 X133.039 Y115.220 E181.69021
G0 F9000 X133.039 Y115.785
G1 F1200 X135.560 Y118.306 E182.11803
G0 F9000 X135.560 Y118.872
G1 F1200 X133.039 Y116.351 E182.54586
G0 F9000 X133.039 Y116.917
G1 F1200 X135.560 Y119.438 E182.97369
G0 F9000 X135.560 Y120.003
G1 F1200 X133.039 Y117.482 E183.40152
G0 F9000 X133.039 Y118.048
G1 F1200 X135.560 Y120.569 E183.82935
G0 F9000 X135.560 Y121.135
G1 F1200 X133.039 Y118.614 E184.25717
G0 F9000 X133.039 Y119.180
G1 F1200 X135.560 Y121.700 E184.68492
G0 F9000 X135.560 Y122.266
G1 F1200 X133.039 Y119.745 E185.11274
G0 F9000 X133.039 Y120.311
G1 F1200 X135.560 Y122.832 E185.54057
G0 F9000 X135.560 Y123.397
G1 F1200 X133.039 Y120.877 E185.96832
G0 F9000 X133.039 Y121.442
G1 F1200 X135.560 Y123.963 E186.39614
G0 F9000 X135.560 Y124.529
G1 F1200 X133.039 Y122.008 E186.82397
G0 F9000 X133.039 Y122.574
G1 F1200 X135.560 Y125.094 E187.25171
G0 F9000 X135.560 Y125.660
G1 F1200 X133.039 Y123.139 E187.67954
G0 F9000 X133.039 Y123.705
G1 F1200 X135.560 Y126.226 E188.10737
G0 F9000 X135.560 Y126.792
G1 F1200 X133.039 Y124.271 E188.53520
G0 F9000 X133.039 Y124.836
G1 F1200 X135.560 Y127.357 E188.96303
G0 F9000 X135.560 Y127.923
G1 F1200 X133.039 Y125.402 E189.39085
G0 F9000 X133.039 Y125.968
G1 F1200 X135.560 Y128.489 E189.81868
G0 F9000 X135.560 Y129.054
G1 F1200 X133.039 Y126.533 E190.24651
G0 F9000 X133.039 Y127.099
G1 F1200 X135.560 Y129.620 E190.67434
G0 F9000 X135.560 Y130.186
G1 F1200 X133.039 Y127.665 E191.10217
G0 F9000 X133.039 Y128.230
G1 F1200 X135.560 Y130.751 E191.52999
G0 F9000 X135.560 Y131.317
G1 F1200 X133.039 Y128.796 E191.95782
G0 F9000 X133.039 Y129.362
G1 F1200 X135.560 Y131.883 E192.38565
G0 F9000 X135.560 Y132.448
G1 F1200 X133.039 Y129.928 E192.81339
G0 F9000 X133.039 Y130.493
G1 F1200 X135.560 Y133.014 E193.24122
G0 F9000 X135.560 Y133.580
G1 F1200 X133.039 Y131.059 E193.66905
G0 F9000 X133.039 Y131.625
G1 F1200 X135.560 Y134.145 E194.09679
G0 F9000 X135.560 Y134.711
G1 F1200 X133.039 Y132.190 E194.52462
G0 F9000 X133.039 Y132.756
G1 F1200 X135.560 Y135.277 E194.95245
G0 F9000 X135.560 Y135.842
G1 F1200 X133.039 Y133.322 E195.38019
G0 F9000 X133.039 Y133.887
G1 F1200 X135.560 Y136.408 E195.80802
G0 F9000 X135.560 Y136.974
G1 F1200 X133.039 Y134.453 E196.23585
G0 F9000 X133.039 Y135.019
G1 F1200 X135.560 Y137.540 E196.66367
G0 F9000 X135.560 Y138.105
G1 F1200 X133.039 Y135.584 E197.09150
G0 F9000 X133.039 Y136.150
G1 F1200 X135.560 Y138.671 E197.51933
G0 F9000 X135.560 Y139.237
G1 F1200 X133.039 Y136.716 E197.94716
G0 F9000 X133.039 Y137.281
G1 F1200 X135.560 Y139.802 E198.37498
G0 F9000 X135.560 Y140.368
G1 F1200 X133.039 Y137.847 E198.80281
G0 F9000 X133.039 Y138.413
G1 F1200 X135.560 Y140.934 E199.23064
G0 F9000 X135.560 Y141.499
G1 F1200 X133.039 Y138.979 E199.65838
G0 F9000 X133.039 Y139.544
G1 F1200 X135.560 Y142.065 E200.08621
G0 F9000 X135.560 Y142.631
G1 F1200 X133.039 Y140.110 E200.51404
G0 F9000 X133.039 Y140.676
G1 F1200 X135.560 Y143.196 E200.94178
G0 F9000 X135.560 Y143.762
G1 F1200 X133.039 Y141.241 E201.36961
G0 F9000 X133.039 Y141.807
G1 F1200 X135.560 Y144.328 E201.79744
G0 F9000 X135.560 Y144.893
G1 F1200 X133.039 Y142.373 E202.22518
G0 F9000 X133.039 Y142.938
G1 F1200 X135.560 Y145.459 E202.65301
G0 F9000 X135.343 Y145.808
G1 F1200 X132.824 Y143.289 E203.08050
G0 F9000 X132.258 Y143.289
G1 F1200 X134.778 Y145.808 E203.50807
G0 F9000 X134.212 Y145.808
G1 F1200 X131.692 Y143.289 E203.93564
G0 F9000 X131.127 Y143.289
G1 F1200 X133.646 Y145.808 E204.36313
G0 F9000 X133.081 Y145.808
G1 F1200 X130.561 Y143.289 E204.79071
G0 F9000 X129.995 Y143.289
G1 F1200 X132.515 Y145.808 E205.21828
G0 F9000 X131.949 Y145.808
G1 F1200 X129.430 Y143.289 E205.64577
G0 F9000 X128.864 Y143.289
G1 F1200 X131.383 Y145.808 E206.07326
G0 F9000 X130.818 Y145.808
G1 F1200 X128.298 Y143.289 E206.50083
G0 F9000 X127.733 Y143.289
G1 F1200 X130.252 Y145.808 E206.92832
G0 F9000 X129.686 Y145.808
G1 F1200 X127.167 Y143.289 E207.35581
G0 F9000 X126.601 Y143.289
G1 F1200 X129.121 Y145.808 E207.78338
G0 F9000 X128.555 Y145.808
G1 F1200 X126.036 Y143.289 E208.21087
G0 F9000 X125.470 Y143.289
G1 F1200 X127.989 Y145.808 E208.63836
G0 F9000 X127.424 Y145.808
G1 F1200 X124.904 Y143.289 E209.06593
G0 F9000 X124.339 Y143.289
G1 F1200 X126.858 Y145.808 E209.49342
G0 F9000 X126.292 Y145.808
G1 F1200 X123.773 Y143.289 E209.92091
G0 F9000 X123.207 Y143.289
G1 F1200 X125.727 Y145.808 E210.34848
G0 F9000 X125.161 Y145.808
G1 F1200 X122.642 Y143.289 E210.77597
G0 F9000 X122.076 Y143.289
G1 F1200 X124.595 Y145.808 E211.20346
G0 F9000 X124.030 Y145.808
G1 F1200 X121.510 Y143.289 E211.63103
G0 F9000 X120.944 Y143.289
G1 F1200 X123.464 Y145.808 E212.05860
G0 F9000 X122.898 Y145.808
G1 F1200 X120.379 Y143.289 E212.48609
G0 F9000 X119.813 Y143.289
G1 F1200 X122.333 Y145.808 E212.91367
G0 F9000 X121.767 Y145.808
G1 F1200 X119.247 Y143.289 E213.34124
G0 F9000 X118.682 Y143.289
G1 F1200 X121.201 Y145.808 E213.76873
G0 F9000 X120.635 Y145.808
G1 F1200 X118.116 Y143.289 E214.19622
G0 F9000 X117.550 Y143.289
G1 F1200 X120.070 Y145.808 E214.62379
G0 F9000 X119.504 Y145.808
G1 F1200 X116.985 Y143.289 E215.05128
G0 F9000 X116.419 Y143.289
G1 F1200 X118.938 Y145.808 E215.47877
G0 F9000 X118.373 Y145.808
G1 F1200 X115.853 Y143.289 E215.90634
G0 F9000 X115.288 Y143.289
G1 F1200 X117.807 Y145.808 E216.33383
G0 F9000 X117.241 Y145.808
G1 F1200 X114.722 Y143.289 E216.76132
G0 F9000 X114.156 Y143.289
G1 F1200 X116.676 Y145.808 E217.18889
G0 F9000 X116.110 Y145.808
G1 F1200 X113.591 Y143.289 E217.61638
G0 F9000 X113.025 Y143.289
G1 F1200 X115.544 Y145.808 E218.04387
G0 F9000 X114.979 Y145.808
G1 F1200 X112.459 Y143.289 E218.47144
G0 F9000 X111.893 Y143.289
G1 F1200 X114.413 Y145.808 E218.89901
G0 F9000 X113.847 Y145.808
G1 F1200 X111.328 Y143.289 E219.32650
G0 F9000 X110.762 Y143.289
G1 F1200 X113.282 Y145.808 E219.75408
G0 F9000 X112.716 Y145.808
G1 F1200 X110.196 Y143.289 E220.18165
G0 F9000 X109.631 Y143.289
G1 F1200 X112.150 Y145.808 E220.60914
G0 F9000 X111.584 Y145.808
G1 F1200 X109.065 Y143.289 E221.03663
G0 F9000 X108.499 Y143.289
G1 F1200 X111.019 Y145.808 E221.46420
G0 F9000 X110.453 Y145.808
G1 F1200 X107.934 Y143.289 E221.89169
G0 F9000 X107.368 Y143.289
G1 F1200 X109.887 Y145.808 E222.31918
G0 F9000 X109.322 Y145.808
G1 F1200 X106.802 Y143.289 E222.74675
G0 F9000 X106.237 Y143.289
G1 F1200 X108.756 Y145.808 E223.17424
G0 F9000 X108.190 Y145.808
G1 F1200 X105.671 Y143.289 E223.60173
G0 F9000 X105.105 Y143.289
G1 F1200 X107.625 Y145.808 E224.02930
G0 F9000 X107.059 Y145.808
G1 F1200 X104.540 Y143.289 E224.45679
G0 F9000 X103.974 Y143.289
G1 F1200 X106.493 Y145.808 E224.88428
G0 F9000 X105.928 Y145.808
G1 F1200 X103.408 Y143.289 E225.31185
G0 F9000 X102.843 Y143.289
G1 F1200 X105.362 Y145.808 E225.73934
G0 F9000 X104.796 Y145.808
G1 F1200 X102.277 Y143.289 E226.16683
G0 F9000 X101.711 Y143.289
G1 F1200 X104.231 Y145.808 E226.59440
G0 F9000 X103.665 Y145.808
G1 F1200 X101.145 Y143.289 E227.02197
G0 F9000 X100.580 Y143.289
G1 F1200 X103.099 Y145.808 E227.44946
G0 F9000 X102.534 Y145.808
G1 F1200 X100.014 Y143.289 E227.87704
G0 F9000 X99.448 Y143.289
