;FLAVOR:UltiGCode
;TIME:2108
;MATERIAL:2716
;MATERIAL2:0
;NOZZLE_DIAMETER:0.400000
;NOZZLE_DIAMETER2:0.400000

;Layer count: 168
;LAYER:0
M107
G0 F9000 X100.917 Y101.150 Z0.300
;TYPE:SKIRT
G1 F1200 X112.991 Y101.150 E1.44888
G1 X112.991 Y106.441 E2.08380
G1 X117.043 Y106.441 E2.57004
G1 X117.043 Y101.150 E3.20496
G1 X129.100 Y101.150 E4.65180
G1 X129.100 Y123.850 E7.37580
G1 X100.901 Y123.850 E10.75968
G1 X100.900 Y104.970 E13.02528
G1 X100.917 Y101.150 E13.48368
G0 F9000 X101.315 Y101.550
G1 F1200 X112.591 Y101.550 E14.83680
G1 X112.591 Y106.841 E15.47172
G1 X117.443 Y106.841 E16.05396
G1 X117.443 Y101.550 E16.68888
G1 X128.700 Y101.550 E18.03972
G1 X128.700 Y123.450 E20.66772
G1 X101.301 Y123.450 E23.95560
G1 X101.300 Y104.971 E26.17308
G1 X101.315 Y101.550 E26.58361
G10
G0 F9000 X105.100 Y105.350
;TYPE:WALL-INNER
G11
G1 F1200 X108.791 Y105.350 E27.02653
G1 X108.791 Y110.641 E27.66145
G1 X121.243 Y110.641 E29.15569
G1 X121.243 Y105.350 E29.79061
G1 X124.900 Y105.350 E30.22945
G1 X124.900 Y119.650 E31.94545
G1 X105.101 Y119.650 E34.32133
G1 X105.100 Y105.350 E36.03733
G0 F9000 X104.701 Y104.950
;TYPE:WALL-OUTER
G1 F1200 X109.191 Y104.950 E36.57613
G1 X109.191 Y110.241 E37.21105
G1 X120.843 Y110.241 E38.60929
G1 X120.843 Y104.950 E39.24421
G1 X125.300 Y104.950 E39.77905
G1 X125.300 Y120.050 E41.59105
G1 X104.701 Y120.050 E44.06293
G1 X104.701 Y104.950 E45.87493
G0 F9000 X105.240 Y105.522
;TYPE:SKIN
G1 F1200 X108.650 Y108.933 E46.45371
G0 F9000 X108.650 Y109.499
G1 F1200 X105.240 Y106.088 E47.03249
G0 F9000 X105.240 Y106.654
G1 F1200 X108.650 Y110.064 E47.61119
G0 F9000 X108.650 Y110.630
G1 F1200 X105.240 Y107.220 E48.18988
G0 F9000 X105.240 Y107.785
G1 F1200 X116.963 Y119.508 E50.17934
G0 F9000 X117.528 Y119.508
G1 F1200 X108.801 Y110.781 E51.66036
G0 F9000 X109.366 Y110.781
G1 F1200 X118.094 Y119.508 E53.14147
G0 F9000 X118.660 Y119.508
G1 F1200 X109.932 Y110.781 E54.62257
G0 F9000 X110.498 Y110.781
G1 F1200 X119.225 Y119.508 E56.10360
G0 F9000 X119.791 Y119.508
G1 F1200 X111.063 Y110.781 E57.58470
G0 F9000 X111.629 Y110.781
G1 F1200 X120.357 Y119.508 E59.06581
G0 F9000 X120.923 Y119.508
G1 F1200 X112.195 Y110.781 E60.54691
G0 F9000 X112.760 Y110.781
G1 F1200 X121.488 Y119.508 E62.02802
G0 F9000 X122.054 Y119.508
G1 F1200 X113.326 Y110.781 E63.50913
G0 F9000 X113.892 Y110.781
G1 F1200 X122.620 Y119.508 E64.99023
G0 F9000 X123.185 Y119.508
G1 F1200 X114.457 Y110.781 E66.47134
G0 F9000 X115.023 Y110.781
G1 F1200 X123.751 Y119.508 E67.95244
G0 F9000 X124.317 Y119.508
G1 F1200 X115.589 Y110.781 E69.43355
G0 F9000 X116.155 Y110.781
G1 F1200 X124.759 Y119.385 E70.89370
G0 F9000 X124.759 Y118.819
G1 F1200 X116.720 Y110.781 E72.25787
G0 F9000 X117.286 Y110.781
G1 F1200 X124.759 Y118.253 E73.52600
G0 F9000 X124.759 Y117.688
G1 F1200 X117.852 Y110.781 E74.69816
G0 F9000 X118.417 Y110.781
G1 F1200 X124.759 Y117.122 E75.77434
G0 F9000 X124.759 Y116.556
G1 F1200 X118.983 Y110.781 E76.75448
G0 F9000 X119.549 Y110.781
G1 F1200 X124.759 Y115.990 E77.63856
G0 F9000 X124.759 Y115.425
G1 F1200 X120.114 Y110.781 E78.42676
G0 F9000 X120.680 Y110.781
G1 F1200 X124.759 Y114.859 E79.11890
G0 F9000 X124.759 Y114.293
G1 F1200 X121.246 Y110.781 E79.71499
G0 F9000 X121.381 Y110.351
G1 F1200 X124.759 Y113.728 E80.28818
G0 F9000 X124.759 Y113.162
G1 F1200 X121.381 Y109.785 E80.86136
G0 F9000 X121.381 Y109.219
G1 F1200 X124.759 Y112.596 E81.43454
G0 F9000 X124.759 Y112.031
G1 F1200 X121.381 Y108.654 E82.00772
G0 F9000 X121.381 Y108.088
G1 F1200 X124.759 Y111.465 E82.58090
G0 F9000 X124.759 Y110.899
G1 F1200 X121.381 Y107.522 E83.15408
G0 F9000 X121.381 Y106.956
G1 F1200 X124.759 Y110.334 E83.72734
G0 F9000 X124.759 Y109.768
G1 F1200 X121.381 Y106.391 E84.30053
G0 F9000 X121.381 Y105.825
G1 F1200 X124.759 Y109.202 E84.87371
G0 F9000 X124.759 Y108.637
G1 F1200 X121.612 Y105.490 E85.40777
G0 F9000 X122.178 Y105.490
G1 F1200 X124.759 Y108.071 E85.84578
G0 F9000 X124.759 Y107.505
G1 F1200 X122.743 Y105.490 E86.18782
G0 F9000 X123.309 Y105.490
G1 F1200 X124.759 Y106.940 E86.43389
G0 F9000 X124.759 Y106.374
G1 F1200 X123.875 Y105.490 E86.58391
G0 F9000 X124.440 Y105.490
G1 F1200 X124.759 Y105.808 E86.63797
G0 F9000 X116.397 Y119.508
G1 F1200 X105.240 Y108.351 E88.53137
G0 F9000 X105.240 Y108.917
G1 F1200 X115.831 Y119.508 E90.32872
G0 F9000 X115.266 Y119.508
G1 F1200 X105.240 Y109.482 E92.03019
G0 F9000 X105.240 Y110.048
G1 F1200 X114.700 Y119.508 E93.63561
G0 F9000 X114.134 Y119.508
G1 F1200 X105.240 Y110.614 E95.14497
G0 F9000 X105.240 Y111.179
G1 F1200 X113.569 Y119.508 E96.55845
G0 F9000 X113.003 Y119.508
G1 F1200 X105.240 Y111.745 E97.87587
G0 F9000 X105.240 Y112.311
G1 F1200 X112.437 Y119.508 E99.09724
G0 F9000 X111.872 Y119.508
G1 F1200 X105.240 Y112.876 E100.22273
G0 F9000 X105.240 Y113.442
G1 F1200 X111.306 Y119.508 E101.25217
G0 F9000 X110.740 Y119.508
G1 F1200 X105.240 Y114.008 E102.18555
G0 F9000 X105.240 Y114.573
G1 F1200 X110.175 Y119.508 E103.02304
G0 F9000 X109.609 Y119.508
G1 F1200 X105.240 Y115.139 E103.76449
G0 F9000 X105.240 Y115.705
G1 F1200 X109.043 Y119.508 E104.40988
G0 F9000 X108.477 Y119.508
G1 F1200 X105.240 Y116.270 E104.95930
G0 F9000 X105.240 Y116.836
G1 F1200 X107.912 Y119.508 E105.41275
G0 F9000 X107.346 Y119.508
G1 F1200 X105.240 Y117.402 E105.77015
G0 F9000 X105.240 Y117.968
G1 F1200 X106.780 Y119.508 E106.03150
G0 F9000 X106.215 Y119.508
G1 F1200 X105.240 Y118.533 E106.19696
G0 F9000 X105.240 Y119.099
G1 F1200 X105.649 Y119.508 E106.26637
G0 F9000 X108.650 Y108.367
G1 F1200 X105.772 Y105.489 E106.75479
G0 F9000 X106.338 Y105.489
G1 F1200 X108.650 Y107.801 E107.14715
G0 F9000 X108.650 Y107.236
G1 F1200 X106.903 Y105.489 E107.44362
G0 F9000 X107.469 Y105.489
G1 F1200 X108.650 Y106.670 E107.64404
G0 F9000 X108.650 Y106.104
G1 F1200 X108.035 Y105.489 E107.74841
;LAYER:1
M106 S5
G0 F9000 X108.791 Y105.350 Z0.400
;TYPE:WALL-INNER
G1 F1500 X108.791 Y110.641 E107.96005
G1 X121.243 Y110.641 E108.45813
G1 X121.243 Y105.350 E108.66977
G1 X124.900 Y105.350 E108.81605
G1 X124.900 Y119.650 E109.38805
G1 X105.101 Y119.650 E110.18001
G1 X105.100 Y105.350 E110.75201
G1 X108.791 Y105.350 E110.89965
G0 F9000 X109.191 Y104.950
;TYPE:WALL-OUTER
G1 F1500 X109.191 Y110.241 E111.11129
G1 X120.843 Y110.241 E111.57737
G1 X120.843 Y104.950 E111.78901
G1 X125.300 Y104.950 E111.96729
G1 X125.300 Y120.050 E112.57129
G1 X104.701 Y120.050 E113.39525
G1 X104.701 Y104.950 E113.99925
G1 X109.191 Y104.950 E114.17885
G0 F9000 X108.622 Y105.489
;TYPE:SKIN
G1 F1500 X105.240 Y108.871 E114.37017
G0 F9000 X105.240 Y109.436
G1 F1500 X108.650 Y106.027 E114.56304
G0 F9000 X108.650 Y106.592
G1 F1500 X105.240 Y110.002 E114.75594
G0 F9000 X105.240 Y110.568
G1 F1500 X108.650 Y107.158 E114.94884
G0 F9000 X108.650 Y107.724
G1 F1500 X105.240 Y111.133 E115.14171
G0 F9000 X105.240 Y111.699
G1 F1500 X108.650 Y108.289 E115.33460
G0 F9000 X108.650 Y108.855
G1 F1500 X105.240 Y112.265 E115.52750
G0 F9000 X105.240 Y112.830
G1 F1500 X108.650 Y109.421 E115.72037
G0 F9000 X108.650 Y109.986
G1 F1500 X105.240 Y113.396 E115.91327
G0 F9000 X105.240 Y113.962
G1 F1500 X108.650 Y110.552 E116.10617
G0 F9000 X108.988 Y110.780
G1 F1500 X105.240 Y114.527 E116.31816
G0 F9000 X105.240 Y115.093
G1 F1500 X109.554 Y110.780 E116.56217
G0 F9000 X110.119 Y110.780
G1 F1500 X105.240 Y115.659 E116.83817
G0 F9000 X105.240 Y116.225
G1 F1500 X110.685 Y110.780 E117.14618
G0 F9000 X111.251 Y110.780
G1 F1500 X105.240 Y116.790 E117.48619
G0 F9000 X105.240 Y117.356
G1 F1500 X111.816 Y110.780 E117.85818
G0 F9000 X112.382 Y110.780
G1 F1500 X105.240 Y117.922 E118.26220
G0 F9000 X105.240 Y118.487
G1 F1500 X112.948 Y110.780 E118.69820
G0 F9000 X113.513 Y110.780
G1 F1500 X105.240 Y119.053 E119.16619
G0 F9000 X105.350 Y119.509
G1 F1500 X114.079 Y110.780 E119.65998
G0 F9000 X114.645 Y110.780
G1 F1500 X105.916 Y119.509 E120.15376
G0 F9000 X106.481 Y119.509
G1 F1500 X115.211 Y110.780 E120.64758
G0 F9000 X115.776 Y110.780
G1 F1500 X107.047 Y119.509 E121.14137
G0 F9000 X107.613 Y119.509
G1 F1500 X116.342 Y110.780 E121.63515
G0 F9000 X116.908 Y110.780
G1 F1500 X108.178 Y119.509 E122.12897
G0 F9000 X108.744 Y119.509
G1 F1500 X117.473 Y110.780 E122.62275
G0 F9000 X118.039 Y110.780
G1 F1500 X109.310 Y119.509 E123.11654
G0 F9000 X109.875 Y119.509
G1 F1500 X118.605 Y110.780 E123.61036
G0 F9000 X119.170 Y110.780
G1 F1500 X110.441 Y119.509 E124.10414
G0 F9000 X111.007 Y119.509
G1 F1500 X119.736 Y110.780 E124.59793
G0 F9000 X120.302 Y110.780
G1 F1500 X111.572 Y119.509 E125.09174
G0 F9000 X112.138 Y119.509
G1 F1500 X120.867 Y110.780 E125.58553
G0 F9000 X121.382 Y110.265
G1 F1500 X124.759 Y106.889 E125.77654
G0 F9000 X124.759 Y107.454
G1 F1500 X112.704 Y119.509 E126.45847
G0 F9000 X113.270 Y119.509
G1 F1500 X124.759 Y108.020 E127.10838
G0 F9000 X124.759 Y108.586
G1 F1500 X113.835 Y119.509 E127.72631
G0 F9000 X114.401 Y119.509
G1 F1500 X124.759 Y109.151 E128.31225
G0 F9000 X124.759 Y109.717
G1 F1500 X114.967 Y119.509 E128.86617
G0 F9000 X115.532 Y119.509
G1 F1500 X124.759 Y110.283 E129.38810
G0 F9000 X124.759 Y110.848
G1 F1500 X116.098 Y119.509 E129.87804
G0 F9000 X116.664 Y119.509
G1 F1500 X124.759 Y111.414 E130.33596
G0 F9000 X124.759 Y111.980
G1 F1500 X117.229 Y119.509 E130.76189
G0 F9000 X117.795 Y119.509
G1 F1500 X124.759 Y112.545 E131.15584
G0 F9000 X124.759 Y113.111
G1 F1500 X118.361 Y119.509 E131.51776
G0 F9000 X118.926 Y119.509
G1 F1500 X124.759 Y113.677 E131.84770
G0 F9000 X124.759 Y114.242
G1 F1500 X119.492 Y119.509 E132.14564
G0 F9000 X108.850 Y110.582
G0 X108.057 Y105.489
G1 F1500 X105.240 Y108.305 E132.30497
G0 F9000 X105.240 Y107.739
G1 F1500 X107.491 Y105.489 E132.43228
G0 F9000 X106.925 Y105.489
G1 F1500 X105.240 Y107.174 E132.52759
G0 F9000 X105.240 Y106.608
G1 F1500 X106.360 Y105.489 E132.59092
G0 F9000 X105.794 Y105.489
G1 F1500 X105.240 Y106.042 E132.62223
G0 F9000 X108.850 Y110.582
G0 X121.184 Y110.582
G0 X121.382 Y106.305
G1 F1500 X122.198 Y105.489 E132.66839
G0 F9000 X122.764 Y105.489
G1 F1500 X121.382 Y106.871 E132.74657
G0 F9000 X121.382 Y107.437
G1 F1500 X123.330 Y105.489 E132.85677
G0 F9000 X123.895 Y105.489
G1 F1500 X121.382 Y108.002 E132.99892
G0 F9000 X121.382 Y108.568
G1 F1500 X124.461 Y105.489 E133.17310
G0 F9000 X124.759 Y105.757
G1 F1500 X121.382 Y109.134 E133.36413
G0 F9000 X121.382 Y109.699
G1 F1500 X124.759 Y106.323 E133.55513
G0 F9000 X121.632 Y105.489
G1 F1500 X121.382 Y105.740 E133.56930
G0 F9000 X124.759 Y114.808
G1 F1500 X120.058 Y119.509 E133.83523
G0 F9000 X120.623 Y119.509
G1 F1500 X124.759 Y115.374 E134.06917
G0 F9000 X124.759 Y115.940
G1 F1500 X121.189 Y119.509 E134.27109
G0 F9000 X121.755 Y119.509
G1 F1500 X124.759 Y116.505 E134.44103
G0 F9000 X124.759 Y117.071
G1 F1500 X122.320 Y119.509 E134.57897
G0 F9000 X122.886 Y119.509
G1 F1500 X124.759 Y117.637 E134.68489
G0 F9000 X124.759 Y118.202
G1 F1500 X123.452 Y119.509 E134.75883
G0 F9000 X124.018 Y119.509
G1 F1500 X124.759 Y118.768 E134.80075
G0 F9000 X124.759 Y119.334
G1 F1500 X124.583 Y119.509 E134.81067
;LAYER:2
M106 S10
G0 F9000 X124.900 Y119.650 Z0.500
;TYPE:WALL-INNER
G1 F1800 X105.101 Y119.650 E135.60263
G1 X105.100 Y105.350 E136.17463
G1 X108.791 Y105.350 E136.32227
G1 X108.791 Y110.641 E136.53391
G1 X121.243 Y110.641 E137.03199
G1 X121.243 Y105.350 E137.24363
G1 X124.900 Y105.350 E137.38991
G1 X124.900 Y119.650 E137.96191
G0 F9000 X125.300 Y120.050
;TYPE:WALL-OUTER
G1 F1800 X104.701 Y120.050 E138.78587
G1 X104.701 Y104.950 E139.38987
G1 X109.191 Y104.950 E139.56947
G1 X109.191 Y110.241 E139.78111
G1 X120.843 Y110.241 E140.24719
G1 X120.843 Y104.950 E140.45883
G1 X125.300 Y104.950 E140.63711
G1 X125.300 Y120.050 E141.24111
G0 F9000 X124.759 Y119.385
;TYPE:SKIN
G1 F1800 X116.155 Y110.781 E141.72783
G0 F9000 X116.720 Y110.781
G1 F1800 X124.759 Y118.819 E142.18255
G0 F9000 X124.759 Y118.253
G1 F1800 X117.286 Y110.781 E142.60526
G0 F9000 X117.852 Y110.781
G1 F1800 X124.759 Y117.688 E142.99598
G0 F9000 X124.759 Y117.122
G1 F1800 X118.417 Y110.781 E143.35471
G0 F9000 X118.983 Y110.781
G1 F1800 X124.759 Y116.556 E143.68142
G0 F9000 X124.759 Y115.990
G1 F1800 X119.549 Y110.781 E143.97612
G0 F9000 X115.589 Y110.781
G1 F1800 X124.317 Y119.508 E144.46982
G0 F9000 X123.751 Y119.508
G1 F1800 X115.023 Y110.781 E144.96352
G0 F9000 X114.457 Y110.781
G1 F1800 X123.185 Y119.508 E145.45722
G0 F9000 X122.620 Y119.508
G1 F1800 X113.892 Y110.781 E145.95092
G0 F9000 X113.326 Y110.781
G1 F1800 X122.054 Y119.508 E146.44463
G0 F9000 X121.488 Y119.508
G1 F1800 X112.760 Y110.781 E146.93833
G0 F9000 X112.195 Y110.781
G1 F1800 X120.923 Y119.508 E147.43203
G0 F9000 X120.357 Y119.508
G1 F1800 X111.629 Y110.781 E147.92573
G0 F9000 X111.063 Y110.781
G1 F1800 X119.791 Y119.508 E148.41943
G0 F9000 X119.225 Y119.508
G1 F1800 X110.498 Y110.781 E148.91311
G0 F9000 X109.932 Y110.781
G1 F1800 X118.660 Y119.508 E149.40681
G0 F9000 X118.094 Y119.508
G1 F1800 X109.366 Y110.781 E149.90051
G0 F9000 X108.801 Y110.781
G1 F1800 X117.528 Y119.508 E150.39419
G0 F9000 X116.963 Y119.508
G1 F1800 X105.240 Y107.785 E151.05734
G0 F9000 X105.240 Y107.220
G1 F1800 X108.650 Y110.630 E151.25024
G0 F9000 X108.650 Y110.064
G1 F1800 X105.240 Y106.654 E151.44314
G0 F9000 X105.240 Y106.088
G1 F1800 X108.650 Y109.499 E151.63606
G0 F9000 X108.650 Y108.933
G1 F1800 X105.240 Y105.522 E151.82899
G0 F9000 X105.772 Y105.489
G1 F1800 X108.650 Y108.367 E151.99179
G0 F9000 X108.650 Y107.801
G1 F1800 X106.338 Y105.489 E152.12258
G0 F9000 X106.903 Y105.489
G1 F1800 X108.650 Y107.236 E152.22141
G0 F9000 X108.650 Y106.670
G1 F1800 X107.469 Y105.489 E152.28821
G0 F9000 X108.035 Y105.489
G1 F1800 X108.650 Y106.104 E152.32300
G0 F9000 X105.240 Y108.351
G1 F1800 X116.397 Y119.508 E152.95414
G0 F9000 X115.831 Y119.508
G1 F1800 X105.240 Y108.917 E153.55326
G0 F9000 X105.240 Y109.482
G1 F1800 X115.266 Y119.508 E154.12041
G0 F9000 X114.700 Y119.508
G1 F1800 X105.240 Y110.048 E154.65555
G0 F9000 X105.240 Y110.614
G1 F1800 X114.134 Y119.508 E155.15867
G0 F9000 X113.569 Y119.508
G1 F1800 X105.240 Y111.179 E155.62983
G0 F9000 X105.240 Y111.745
G1 F1800 X113.003 Y119.508 E156.06897
G0 F9000 X112.437 Y119.508
G1 F1800 X105.240 Y112.311 E156.47610
G0 F9000 X105.240 Y112.876
G1 F1800 X111.872 Y119.508 E156.85126
G0 F9000 X111.306 Y119.508
G1 F1800 X105.240 Y113.442 E157.19440
G0 F9000 X105.240 Y114.008
G1 F1800 X110.740 Y119.508 E157.50553
G0 F9000 X110.175 Y119.508
G1 F1800 X105.240 Y114.573 E157.78470
G0 F9000 X105.240 Y115.139
G1 F1800 X109.609 Y119.508 E158.03184
G0 F9000 X109.043 Y119.508
G1 F1800 X105.240 Y115.705 E158.24697
G0 F9000 X105.240 Y116.270
G1 F1800 X108.477 Y119.508 E158.43012
G0 F9000 X107.912 Y119.508
G1 F1800 X105.240 Y116.836 E158.58127
G0 F9000 X105.240 Y117.402
G1 F1800 X107.346 Y119.508 E158.70040
G0 F9000 X106.780 Y119.508
G1 F1800 X105.240 Y117.968 E158.78752
G0 F9000 X105.240 Y118.533
G1 F1800 X106.215 Y119.508 E158.84267
G0 F9000 X105.649 Y119.508
G1 F1800 X105.240 Y119.099 E158.86581
G0 F9000 X120.114 Y110.781
G1 F1800 X124.759 Y115.425 E159.12854
G0 F9000 X124.759 Y114.859
G1 F1800 X120.680 Y110.781 E159.35925
G0 F9000 X121.246 Y110.781
G1 F1800 X124.759 Y114.293 E159.55795
G0 F9000 X124.759 Y113.728
G1 F1800 X121.381 Y110.351 E159.74901
G0 F9000 X121.381 Y109.785
G1 F1800 X124.759 Y113.162 E159.94007
G0 F9000 X124.759 Y112.596
G1 F1800 X121.381 Y109.219 E160.13113
G0 F9000 X121.381 Y108.654
G1 F1800 X124.759 Y112.031 E160.32219
G0 F9000 X124.759 Y111.465
G1 F1800 X121.381 Y108.088 E160.51325
G0 F9000 X121.381 Y107.522
G1 F1800 X124.759 Y110.899 E160.70431
G0 F9000 X124.759 Y110.334
G1 F1800 X121.381 Y106.956 E160.89540
G0 F9000 X121.381 Y106.391
G1 F1800 X124.759 Y109.768 E161.08646
G0 F9000 X124.759 Y109.202
G1 F1800 X121.381 Y105.825 E161.27752
G0 F9000 X121.612 Y105.490
G1 F1800 X124.759 Y108.637 E161.45554
G0 F9000 X124.759 Y108.071
G1 F1800 X122.178 Y105.490 E161.60155
G0 F9000 X122.743 Y105.490
G1 F1800 X124.759 Y107.505 E161.71556
G0 F9000 X124.759 Y106.940
G1 F1800 X123.309 Y105.490 E161.79758
G0 F9000 X123.875 Y105.490
G1 F1800 X124.759 Y106.374 E161.84759
G0 F9000 X124.759 Y105.808
G1 F1800 X124.440 Y105.490 E161.86561
;LAYER:3
M106 S15
