;FLAVOR:UltiGCode
;TIME:4832
;MATERIAL:6197
;MATERIAL2:0
;NOZZLE_DIAMETER:0.400000
;NOZZLE_DIAMETER2:0.400000

;Layer count: 68
;LAYER:0
M107
G0 F9000 X87.770 Y84.868 Z0.300
;TYPE:SKIRT
G1 F1200 X89.472 Y83.288 E0.27868
G1 X91.265 Y81.814 E0.55721
G1 X93.142 Y80.450 E0.83564
G1 X95.099 Y79.200 E1.11430
G1 X97.128 Y78.069 E1.39305
G1 X99.219 Y77.062 E1.67155
G1 X101.366 Y76.182 E1.95000
G1 X103.563 Y75.431 E2.22861
G1 X105.802 Y74.814 E2.50731
G1 X108.072 Y74.331 E2.78581
G1 X110.368 Y73.984 E3.06445
G1 X112.680 Y73.777 E3.34300
G1 X115.000 Y73.708 E3.62153
G1 X117.320 Y73.777 E3.90005
G1 X119.632 Y73.984 E4.17860
G1 X121.928 Y74.331 E4.45725
G1 X124.198 Y74.814 E4.73575
G1 X126.437 Y75.431 E5.01444
G1 X128.634 Y76.182 E5.29306
G1 X130.781 Y77.062 E5.57150
G1 X132.872 Y78.069 E5.85000
G1 X134.901 Y79.200 E6.12875
G1 X136.858 Y80.450 E6.40741
G1 X138.735 Y81.814 E6.68584
G1 X140.528 Y83.288 E6.96438
G1 X142.230 Y84.868 E7.24305
G1 X143.834 Y86.546 E7.52161
G1 X145.335 Y88.316 E7.80010
G1 X146.728 Y90.174 E8.07877
G1 X148.006 Y92.111 E8.35724
G1 X149.167 Y94.122 E8.63589
G1 X150.206 Y96.198 E8.91447
G1 X151.118 Y98.332 E9.19295
G1 X151.902 Y100.519 E9.47175
G1 X152.552 Y102.747 E9.75025
G1 X153.069 Y105.010 E10.02881
G1 X153.449 Y107.300 E10.30737
G1 X153.693 Y109.609 E10.58599
G1 X153.796 Y111.929 E10.86466
G1 X153.761 Y114.249 E11.14310
G1 X153.588 Y116.564 E11.42167
G1 X153.276 Y118.863 E11.70008
G1 X152.828 Y121.141 E11.97868
G1 X152.244 Y123.389 E12.25739
G1 X151.527 Y125.596 E12.53586
G1 X150.678 Y127.757 E12.81447
G1 X149.702 Y129.864 E13.09312
G1 X148.602 Y131.908 E13.37166
G1 X147.382 Y133.883 E13.65023
G1 X146.046 Y135.781 E13.92876
G1 X144.598 Y137.596 E14.20738
G1 X143.045 Y139.321 E14.48591
G1 X141.390 Y140.951 E14.76466
G1 X139.642 Y142.478 E15.04319
G1 X137.806 Y143.898 E15.32171
G1 X135.889 Y145.206 E15.60020
G1 X133.895 Y146.397 E15.87891
G1 X131.835 Y147.466 E16.15741
G1 X129.714 Y148.411 E16.43605
G1 X127.540 Y149.226 E16.71466
G1 X125.322 Y149.910 E16.99319
G1 X123.067 Y150.460 E17.27172
G1 X120.782 Y150.876 E17.55043
G1 X118.477 Y151.153 E17.82902
G1 X116.159 Y151.291 E18.10767
G1 X113.841 Y151.291 E18.38583
G1 X111.523 Y151.153 E18.66449
G1 X109.218 Y150.876 E18.94308
G1 X106.933 Y150.460 E19.22178
G1 X104.678 Y149.910 E19.50032
G1 X102.460 Y149.226 E19.77885
G1 X100.286 Y148.411 E20.05746
G1 X98.165 Y147.466 E20.33609
G1 X96.105 Y146.397 E20.61460
G1 X94.111 Y145.206 E20.89331
G1 X92.194 Y143.898 E21.17180
G1 X90.358 Y142.478 E21.45032
G1 X88.610 Y140.951 E21.72885
G1 X86.955 Y139.321 E22.00760
G1 X85.402 Y137.596 E22.28613
G1 X83.954 Y135.781 E22.56475
G1 X82.618 Y133.883 E22.84328
G1 X81.398 Y131.908 E23.12185
G1 X80.298 Y129.864 E23.40039
G1 X79.322 Y127.757 E23.67904
G1 X78.473 Y125.596 E23.95765
G1 X77.756 Y123.389 E24.23612
G1 X77.172 Y121.141 E24.51483
G1 X76.724 Y118.863 E24.79343
G1 X76.412 Y116.564 E25.07184
G1 X76.239 Y114.249 E25.35041
G1 X76.204 Y111.929 E25.62885
G1 X76.307 Y109.609 E25.90752
G1 X76.551 Y107.300 E26.18614
G1 X76.931 Y105.010 E26.46470
G1 X77.448 Y102.747 E26.74326
G1 X78.098 Y100.519 E27.02176
G1 X78.882 Y98.332 E27.30056
G1 X79.794 Y96.198 E27.57904
G1 X80.833 Y94.122 E27.85762
G1 X81.994 Y92.111 E28.13627
G1 X83.272 Y90.174 E28.41474
G1 X84.665 Y88.316 E28.69341
G1 X86.166 Y86.546 E28.97190
G1 X87.770 Y84.868 E29.25045
G10
G0 F9000 X90.444 Y87.571
;TYPE:WALL-INNER
G11
G1 F1200 X91.969 Y86.155 E29.50018
G1 X93.597 Y84.817 E29.75305
G1 X95.278 Y83.595 E30.00244
G1 X97.055 Y82.460 E30.25546
G1 X98.873 Y81.447 E30.50521
G1 X100.769 Y80.534 E30.75773
G1 X102.700 Y79.742 E31.00818
G1 X104.696 Y79.060 E31.26130
G1 X106.692 Y78.510 E31.50975
G1 X108.757 Y78.070 E31.76311
G1 X110.811 Y77.760 E32.01238
G1 X112.910 Y77.572 E32.26527
G1 X115.000 Y77.510 E32.51618
G1 X117.090 Y77.572 E32.76709
G1 X119.189 Y77.760 E33.01998
G1 X121.243 Y78.070 E33.26925
G1 X123.308 Y78.510 E33.52261
G1 X125.304 Y79.060 E33.77106
G1 X127.300 Y79.742 E34.02417
G1 X129.231 Y80.534 E34.27463
G1 X131.127 Y81.447 E34.52715
G1 X132.945 Y82.460 E34.77689
G1 X134.722 Y83.595 E35.02992
G1 X136.403 Y84.817 E35.27931
G1 X138.031 Y86.155 E35.53218
G1 X139.556 Y87.571 E35.78190
G1 X141.011 Y89.093 E36.03457
G1 X142.362 Y90.686 E36.28522
G1 X143.614 Y92.356 E36.53569
G1 X144.773 Y94.112 E36.78817
G1 X145.821 Y95.926 E37.03956
G1 X146.755 Y97.794 E37.29018
G1 X147.581 Y99.726 E37.54232
G1 X148.286 Y101.694 E37.79318
G1 X148.873 Y103.704 E38.04445
G1 X149.339 Y105.743 E38.29544
G1 X149.681 Y107.806 E38.54638
G1 X149.903 Y109.911 E38.80038
G1 X149.995 Y111.976 E39.04843
G1 X149.963 Y114.084 E39.30142
G1 X149.809 Y116.148 E39.54978
G1 X149.525 Y118.244 E39.80360
G1 X149.121 Y120.296 E40.05457
G1 X148.594 Y122.324 E40.30601
G1 X147.944 Y124.326 E40.55860
G1 X147.183 Y126.262 E40.80822
G1 X146.303 Y128.164 E41.05971
G1 X145.310 Y130.008 E41.31103
G1 X144.219 Y131.774 E41.56013
G1 X143.001 Y133.504 E41.81402
G1 X141.697 Y135.139 E42.06498
G1 X140.296 Y136.696 E42.31632
G1 X138.813 Y138.157 E42.56614
G1 X137.227 Y139.541 E42.81873
G1 X135.570 Y140.823 E43.07014
G1 X133.840 Y142.003 E43.32143
G1 X132.046 Y143.075 E43.57222
G1 X130.182 Y144.043 E43.82426
G1 X128.279 Y144.890 E44.07422
G1 X126.303 Y145.631 E44.32746
G1 X124.316 Y146.244 E44.57699
G1 X122.269 Y146.744 E44.82985
G1 X120.227 Y147.115 E45.07890
G1 X118.133 Y147.366 E45.33198
G1 X116.045 Y147.491 E45.58299
G1 X113.955 Y147.491 E45.83379
G1 X111.867 Y147.366 E46.08480
G1 X109.773 Y147.115 E46.33788
G1 X107.731 Y146.744 E46.58693
G1 X105.684 Y146.244 E46.83979
G1 X103.697 Y145.631 E47.08932
G1 X101.721 Y144.890 E47.34256
G1 X99.818 Y144.043 E47.59252
G1 X97.954 Y143.075 E47.84457
G1 X96.160 Y142.003 E48.09535
G1 X94.430 Y140.823 E48.34665
G1 X92.773 Y139.541 E48.59805
G1 X91.187 Y138.157 E48.85064
G1 X89.704 Y136.696 E49.10046
G1 X88.303 Y135.139 E49.35180
G1 X86.999 Y133.504 E49.60276
G1 X85.781 Y131.774 E49.85665
G1 X84.690 Y130.008 E50.10575
G1 X83.697 Y128.164 E50.35707
G1 X82.817 Y126.262 E50.60856
G1 X82.056 Y124.326 E50.85818
G1 X81.406 Y122.324 E51.11077
G1 X80.879 Y120.296 E51.36221
G1 X80.475 Y118.244 E51.61318
G1 X80.191 Y116.148 E51.86700
G1 X80.037 Y114.084 E52.11536
G1 X80.005 Y111.976 E52.36835
G1 X80.097 Y109.911 E52.61640
G1 X80.319 Y107.806 E52.87040
G1 X80.661 Y105.743 E53.12134
G1 X81.127 Y103.704 E53.37233
G1 X81.714 Y101.694 E53.62360
G1 X82.419 Y99.726 E53.87446
G1 X83.245 Y97.794 E54.12660
G1 X84.179 Y95.926 E54.37722
G1 X85.227 Y94.112 E54.62861
G1 X86.386 Y92.356 E54.88109
G1 X87.638 Y90.686 E55.13156
G1 X88.989 Y89.093 E55.38221
G1 X90.444 Y87.571 E55.63488
G0 F9000 X90.903 Y89.070
G1 F1200 X89.388 Y90.752 E55.90652
G1 X88.247 Y92.171 E56.12502
G1 X87.185 Y93.649 E56.34342
G1 X86.205 Y95.183 E56.56186
G1 X85.309 Y96.768 E56.78035
G1 X84.500 Y98.398 E56.99871
G1 X83.780 Y100.070 E57.21716
G1 X83.153 Y101.779 E57.43561
G1 X82.982 Y102.337 E57.50564
G1 X82.660 Y103.356 E57.63388
G1 X84.450 Y103.804 E57.85531
G1 X85.273 Y104.007 E57.95703
G1 X85.778 Y104.135 E58.01955
G1 X96.809 Y106.898 E59.38416
G1 X103.688 Y108.635 E60.23555
G1 X105.367 Y109.056 E60.44327
G1 X107.129 Y109.505 E60.66146
G1 X107.496 Y108.736 E60.76371
G1 X107.969 Y107.915 E60.87741
G1 X108.462 Y107.192 E60.98242
G1 X106.862 Y105.555 E61.25711
G1 X105.990 Y104.650 E61.40792
G1 X98.110 Y96.531 E62.76563
G1 X94.823 Y93.129 E63.33330
G1 X93.199 Y91.452 E63.61343
G1 X91.660 Y89.858 E63.87932
G1 X90.903 Y89.070 E64.01044
G0 F9000 X107.987 Y84.224
G1 F1200 X110.915 Y94.478 E65.29010
G1 X113.667 Y104.190 E66.50143
G1 X114.468 Y104.125 E66.59786
G1 X115.464 Y104.122 E66.71738
G1 X116.335 Y104.189 E66.82221
G1 X116.954 Y101.983 E67.09716
G1 X117.300 Y100.775 E67.24795
G1 X120.391 Y89.892 E68.60556
G1 X122.165 Y83.696 E69.37895
G1 X122.943 Y80.973 E69.71879
G1 X123.247 Y79.927 E69.84950
G1 X121.948 Y79.635 E70.00927
G1 X120.436 Y79.345 E70.19402
G1 X118.632 Y79.098 E70.41252
G1 X116.818 Y78.952 E70.63090
G1 X115.000 Y78.903 E70.84914
G1 X113.182 Y78.952 E71.06738
G1 X111.368 Y79.098 E71.28577
G1 X109.564 Y79.345 E71.50427
G1 X107.777 Y79.688 E71.72262
G1 X106.760 Y79.941 E71.84838
G1 X107.987 Y84.224 E72.38301
G0 F9000 X113.269 Y107.181
G1 F1200 X112.458 Y107.517 E72.48836
G1 X111.708 Y107.976 E72.59387
G1 X111.039 Y108.547 E72.69942
G1 X110.468 Y109.216 E72.80496
G1 X110.009 Y109.966 E72.91048
G1 X109.673 Y110.777 E73.01582
G1 X109.468 Y111.632 E73.12133
G1 X109.398 Y112.507 E73.22667
G1 X109.468 Y113.384 E73.33224
G1 X109.673 Y114.239 E73.43775
G1 X110.009 Y115.050 E73.54309
G1 X110.468 Y115.800 E73.64861
G1 X111.039 Y116.469 E73.75415
G1 X111.708 Y117.040 E73.85970
G1 X112.458 Y117.499 E73.96522
G1 X113.269 Y117.835 E74.07056
G1 X114.124 Y118.040 E74.17606
G1 X115.000 Y118.109 E74.28151
G1 X115.876 Y118.040 E74.38696
G1 X116.731 Y117.835 E74.49246
G1 X117.542 Y117.499 E74.59781
G1 X118.292 Y117.040 E74.70332
G1 X118.961 Y116.469 E74.80887
G1 X119.532 Y115.800 E74.91441
G1 X119.991 Y115.050 E75.01993
G1 X120.327 Y114.239 E75.12527
G1 X120.532 Y113.384 E75.23078
G1 X120.602 Y112.507 E75.33635
G1 X120.532 Y111.632 E75.44169
G1 X120.327 Y110.777 E75.54720
G1 X119.991 Y109.966 E75.65254
G1 X119.532 Y109.216 E75.75806
G1 X118.961 Y108.547 E75.86360
G1 X118.292 Y107.976 E75.96915
G1 X117.542 Y107.517 E76.07466
G1 X116.731 Y107.181 E76.18001
G1 X115.876 Y106.976 E76.28551
G1 X115.000 Y106.906 E76.39097
G1 X114.124 Y106.976 E76.49642
G1 X113.269 Y107.181 E76.60193
G0 F9000 X115.876 Y106.977
G0 X121.556 Y107.174
G1 F1200 X122.498 Y108.727 E76.81990
G1 X122.873 Y109.503 E76.92332
G1 X125.093 Y108.938 E77.19821
G1 X146.286 Y103.620 E79.82022
G1 X147.342 Y103.359 E79.95075
G1 X146.957 Y102.143 E80.10381
G1 X146.751 Y101.515 E80.18312
G1 X146.220 Y100.070 E80.36786
G1 X145.500 Y98.398 E80.58631
G1 X144.691 Y96.768 E80.80468
G1 X143.795 Y95.183 E81.02316
G1 X142.815 Y93.649 E81.24160
G1 X141.753 Y92.171 E81.46000
G1 X140.611 Y90.751 E81.67867
G1 X140.188 Y90.286 E81.75410
G1 X139.100 Y89.071 E81.94981
G1 X132.743 Y95.645 E83.04720
G1 X122.807 Y105.889 E84.75973
G1 X121.556 Y107.174 E84.97494
G0 F9000 X122.872 Y115.511
G1 F1200 X122.495 Y116.294 E85.07922
G1 X122.023 Y117.113 E85.19265
G1 X121.537 Y117.823 E85.29590
G1 X123.138 Y119.461 E85.57076
G1 X124.010 Y120.366 E85.72157
G1 X131.890 Y128.485 E87.07928
G1 X135.786 Y132.516 E87.75200
G1 X136.801 Y133.564 E87.92708
G1 X138.340 Y135.158 E88.19296
G1 X139.097 Y135.946 E88.32409
G1 X140.612 Y134.264 E88.59573
G1 X141.753 Y132.845 E88.81423
G1 X142.815 Y131.367 E89.03263
G1 X143.795 Y129.832 E89.25117
G1 X144.691 Y128.248 E89.46955
G1 X145.500 Y126.618 E89.68792
G1 X146.220 Y124.946 E89.90637
G1 X146.847 Y123.237 E90.12482
G1 X147.018 Y122.679 E90.19485
G1 X147.340 Y121.660 E90.32309
G1 X145.550 Y121.212 E90.54451
G1 X144.727 Y121.009 E90.64623
G1 X144.222 Y120.881 E90.70875
G1 X133.191 Y118.118 E92.07336
G1 X126.312 Y116.381 E92.92475
G1 X124.633 Y115.960 E93.13247
G1 X122.872 Y115.511 E93.35055
G0 F9000 X116.333 Y120.824
G1 F1200 X115.529 Y120.891 E93.44736
G1 X114.521 Y120.894 E93.56833
G1 X113.666 Y120.826 E93.67125
G1 X113.046 Y123.033 E93.94634
G1 X112.700 Y124.241 E94.09713
G1 X109.609 Y135.124 E95.45474
G1 X107.835 Y141.320 E96.22814
G1 X107.057 Y144.043 E96.56797
G1 X106.752 Y145.090 E96.69884
G1 X108.052 Y145.381 E96.85870
G1 X109.564 Y145.671 E97.04344
G1 X111.368 Y145.918 E97.26194
G1 X113.182 Y146.064 E97.48033
G1 X115.000 Y146.113 E97.69857
G1 X116.818 Y146.064 E97.91681
G1 X118.632 Y145.918 E98.13519
G1 X120.436 Y145.671 E98.35369
G1 X122.223 Y145.327 E98.57207
G1 X123.241 Y145.077 E98.69786
G1 X122.013 Y140.791 E99.23287
G1 X119.085 Y130.537 E100.51253
G1 X116.333 Y120.824 E101.72397
G0 F9000 X108.461 Y117.824
G1 F1200 X107.971 Y117.102 E101.82868
G1 X107.495 Y116.276 E101.94308
G1 X107.128 Y115.512 E102.04479
G1 X104.907 Y116.078 E102.31983
G1 X98.779 Y117.618 E103.07806
G1 X92.715 Y119.146 E103.82848
G1 X86.465 Y120.708 E104.60155
G1 X83.714 Y121.396 E104.94184
G1 X82.658 Y121.657 E105.07237
G1 X83.043 Y122.873 E105.22543
G1 X83.249 Y123.501 E105.30474
G1 X83.780 Y124.946 E105.48948
G1 X84.500 Y126.618 E105.70793
G1 X85.309 Y128.248 E105.92629
G1 X86.205 Y129.832 E106.14468
G1 X87.185 Y131.367 E106.36322
G1 X88.247 Y132.845 E106.58161
G1 X89.389 Y134.265 E106.80028
G1 X89.812 Y134.730 E106.87572
G1 X90.900 Y135.945 E107.07143
G1 X97.257 Y129.371 E108.16882
G1 X107.193 Y119.127 E109.88135
G1 X108.461 Y117.824 E110.09952
G0 F9000 X107.629 Y117.311
;TYPE:WALL-OUTER
G1 F1200 X107.144 Y116.469 E110.21613
G1 X106.909 Y115.981 E110.28112
G1 X92.813 Y119.534 E112.02555
G1 X83.168 Y121.943 E113.21850
G1 X83.424 Y122.750 E113.32010
G1 X83.627 Y123.370 E113.39838
G1 X84.152 Y124.798 E113.58096
G1 X84.863 Y126.450 E113.79678
G1 X85.662 Y128.061 E114.01257
G1 X86.548 Y129.626 E114.22838
G1 X87.516 Y131.142 E114.44422
G1 X88.566 Y132.603 E114.66012
G1 X89.693 Y134.005 E114.87598
G1 X90.110 Y134.464 E114.95040
G1 X90.911 Y135.358 E115.09444
G1 X107.947 Y117.778 E118.03206
G1 X107.629 Y117.311 E118.09986
G0 F9000 X107.886 Y117.156
G0 X110.537 Y115.721
G0 X110.793 Y115.564
G1 F1200 X111.323 Y116.185 E118.19783
G1 X111.944 Y116.715 E118.29580
G1 X112.640 Y117.142 E118.39379
G1 X113.393 Y117.454 E118.49160
G1 X114.187 Y117.644 E118.58957
G1 X115.000 Y117.708 E118.68743
G1 X115.813 Y117.644 E118.78529
G1 X116.607 Y117.454 E118.88326
G1 X117.360 Y117.142 E118.98107
G1 X118.056 Y116.715 E119.07906
G1 X118.677 Y116.185 E119.17703
G1 X119.207 Y115.564 E119.27500
G1 X119.634 Y114.868 E119.37298
G1 X119.946 Y114.115 E119.47079
G1 X120.136 Y113.321 E119.56876
G1 X120.201 Y112.507 E119.66675
G1 X120.136 Y111.695 E119.76451
G1 X119.946 Y110.901 E119.86248
G1 X119.634 Y110.148 E119.96028
G1 X119.207 Y109.452 E120.05827
G1 X118.677 Y108.831 E120.15624
G1 X118.056 Y108.301 E120.25421
G1 X117.360 Y107.874 E120.35220
G1 X116.607 Y107.562 E120.45001
G1 X115.813 Y107.372 E120.54798
G1 X115.000 Y107.307 E120.64585
G1 X114.187 Y107.372 E120.74372
G1 X113.393 Y107.562 E120.84169
G1 X112.640 Y107.874 E120.93950
G1 X111.944 Y108.301 E121.03748
G1 X111.323 Y108.831 E121.13545
G1 X110.793 Y109.452 E121.23342
G1 X110.366 Y110.148 E121.33141
G1 X110.054 Y110.901 E121.42922
G1 X109.864 Y111.695 E121.52719
G1 X109.799 Y112.507 E121.62494
G1 X109.864 Y113.321 E121.72293
G1 X110.054 Y114.115 E121.82090
G1 X110.366 Y114.868 E121.91871
G1 X110.793 Y115.564 E122.01670
G0 F9000 X110.537 Y115.721
G0 X113.674 Y121.169
G0 X113.962 Y121.251
G1 F1200 X113.430 Y123.144 E122.25266
G1 X107.256 Y144.793 E124.95412
G1 X108.133 Y144.989 E125.06195
G1 X109.629 Y145.276 E125.24475
G1 X111.411 Y145.520 E125.46058
G1 X113.203 Y145.665 E125.67632
G1 X115.000 Y145.713 E125.89204
G1 X116.797 Y145.665 E126.10776
G1 X118.589 Y145.520 E126.32350
G1 X120.371 Y145.276 E126.53934
G1 X122.137 Y144.936 E126.75515
G1 X122.742 Y144.788 E126.82989
G1 X116.037 Y121.250 E129.76681
G1 X115.551 Y121.291 E129.82534
G1 X114.502 Y121.294 E129.95122
G1 X113.962 Y121.251 E130.01622
G0 F9000 X113.674 Y121.169
G0 X113.700 Y120.874
G0 X121.806 Y117.610
G0 X122.052 Y117.778
G1 F1200 X123.425 Y119.184 E130.25205
G1 X139.088 Y135.358 E132.95385
G1 X140.307 Y134.005 E133.17239
G1 X141.434 Y132.603 E133.38825
G1 X142.484 Y131.142 E133.60415
G1 X143.452 Y129.626 E133.81999
G1 X144.338 Y128.061 E134.03580
G1 X145.137 Y126.450 E134.25159
G1 X145.848 Y124.798 E134.46741
G1 X146.468 Y123.110 E134.68320
G1 X146.637 Y122.558 E134.75248
G1 X146.831 Y121.945 E134.82963
G1 X123.090 Y115.980 E137.76710
G1 X122.848 Y116.484 E137.83419
G1 X122.366 Y117.321 E137.95009
G1 X122.052 Y117.778 E138.01663
G0 F9000 X121.806 Y117.610
G0 X123.164 Y109.325
G0 X123.091 Y109.035
G1 F1200 X137.187 Y105.482 E139.76106
G1 X146.832 Y103.073 E140.95401
G1 X146.576 Y102.266 E141.05561
G1 X146.373 Y101.646 E141.13390
G1 X145.848 Y100.218 E141.31647
G1 X145.137 Y98.566 E141.53229
G1 X144.338 Y96.955 E141.74808
G1 X143.452 Y95.389 E141.96399
G1 X142.484 Y93.874 E142.17973
G1 X141.434 Y92.413 E142.39563
G1 X140.307 Y91.011 E142.61149
G1 X139.890 Y90.552 E142.68591
G1 X139.089 Y89.658 E142.82995
G1 X122.059 Y107.232 E145.76656
