;FLAVOR:UltiGCode
;TIME:1528
;MATERIAL:1712
;MATERIAL2:0
;NOZZLE_DIAMETER:0.400000
;NOZZLE_DIAMETER2:0.400000

;Layer count: 48
;LAYER:0
M107
G0 F9000 X85.032 Y103.278 Z0.300
;TYPE:SKIRT
G1 F1200 X85.945 Y102.560 E0.13938
G1 X86.924 Y101.931 E0.27902
G1 X87.955 Y101.400 E0.41818
G1 X89.033 Y100.968 E0.55754
G1 X90.149 Y100.641 E0.69709
G1 X91.289 Y100.421 E0.83642
G1 X92.444 Y100.311 E0.97565
G1 X93.605 Y100.311 E1.11497
G1 X94.761 Y100.421 E1.25431
G1 X95.902 Y100.641 E1.39375
G1 X97.017 Y100.968 E1.53319
G1 X98.094 Y101.400 E1.67244
G1 X99.126 Y101.931 E1.81171
G1 X100.105 Y102.560 E1.95135
G1 X101.017 Y103.278 E2.09063
G1 X101.856 Y104.079 E2.22983
G1 X102.617 Y104.956 E2.36917
G1 X103.291 Y105.903 E2.50865
G1 X103.743 Y106.684 E2.61694
G1 X104.194 Y105.903 E2.72516
G1 X104.868 Y104.956 E2.86464
G1 X105.629 Y104.079 E3.00398
G1 X106.468 Y103.278 E3.14318
G1 X107.380 Y102.560 E3.28246
G1 X108.359 Y101.931 E3.42210
G1 X109.391 Y101.400 E3.56137
G1 X110.469 Y100.968 E3.70073
G1 X111.585 Y100.641 E3.84028
G1 X112.725 Y100.421 E3.97961
G1 X113.880 Y100.311 E4.11883
G1 X115.040 Y100.311 E4.25803
G1 X116.195 Y100.421 E4.39726
G1 X117.335 Y100.641 E4.53659
G1 X118.451 Y100.968 E4.67614
G1 X119.529 Y101.400 E4.81550
G1 X120.561 Y101.931 E4.95477
G1 X121.540 Y102.560 E5.09441
G1 X122.452 Y103.278 E5.23369
G1 X123.291 Y104.079 E5.37289
G1 X124.052 Y104.956 E5.51223
G1 X124.726 Y105.903 E5.65171
G1 X125.307 Y106.908 E5.79101
G1 X125.717 Y107.809 E5.90980
G1 X126.127 Y106.908 E6.02859
G1 X126.709 Y105.903 E6.16795
G1 X127.381 Y104.957 E6.30720
G1 X128.143 Y104.079 E6.44670
G1 X128.982 Y103.278 E6.58590
G1 X129.895 Y102.560 E6.72528
G1 X130.874 Y101.931 E6.86492
G1 X131.905 Y101.400 E7.00408
G1 X132.983 Y100.968 E7.14344
G1 X134.099 Y100.641 E7.28299
G1 X135.239 Y100.421 E7.42232
G1 X136.395 Y100.311 E7.56166
G1 X137.555 Y100.311 E7.70086
G1 X138.711 Y100.421 E7.84021
G1 X139.852 Y100.641 E7.97965
G1 X140.966 Y100.968 E8.11897
G1 X142.045 Y101.400 E8.25844
G1 X143.077 Y101.931 E8.39772
G1 X144.054 Y102.560 E8.53715
G1 X144.968 Y103.278 E8.67663
G1 X145.807 Y104.080 E8.81591
G1 X146.567 Y104.956 E8.95507
G1 X147.241 Y105.903 E9.09456
G1 X147.822 Y106.908 E9.23386
G1 X148.304 Y107.966 E9.37337
G1 X148.684 Y109.062 E9.51258
G1 X148.958 Y110.190 E9.65187
G1 X149.123 Y111.340 E9.79129
G1 X149.179 Y112.500 E9.93065
G1 X149.123 Y113.660 E10.07001
G1 X148.958 Y114.810 E10.20942
G1 X148.684 Y115.938 E10.34872
G1 X148.304 Y117.034 E10.48792
G1 X147.822 Y118.092 E10.62743
G1 X147.241 Y119.097 E10.76674
G1 X146.567 Y120.044 E10.90622
G1 X145.807 Y120.920 E11.04539
G1 X144.968 Y121.722 E11.18467
G1 X144.054 Y122.440 E11.32414
G1 X143.077 Y123.069 E11.46358
G1 X142.045 Y123.600 E11.60285
G1 X140.966 Y124.032 E11.74232
G1 X139.852 Y124.359 E11.88164
G1 X138.711 Y124.579 E12.02108
G1 X137.555 Y124.689 E12.16043
G1 X136.395 Y124.689 E12.29963
G1 X135.239 Y124.579 E12.43898
G1 X134.099 Y124.359 E12.57830
G1 X132.983 Y124.032 E12.71785
G1 X131.905 Y123.600 E12.85721
G1 X130.874 Y123.069 E12.99638
G1 X129.895 Y122.440 E13.13602
G1 X128.982 Y121.722 E13.27540
G1 X128.143 Y120.921 E13.41459
G1 X127.381 Y120.043 E13.55410
G1 X126.709 Y119.097 E13.69334
G1 X126.127 Y118.092 E13.83271
G1 X125.717 Y117.191 E13.95150
G1 X125.307 Y118.092 E14.07028
G1 X124.726 Y119.097 E14.20959
G1 X124.052 Y120.044 E14.34907
G1 X123.291 Y120.921 E14.48841
G1 X122.452 Y121.722 E14.62760
G1 X121.540 Y122.440 E14.76689
G1 X120.561 Y123.069 E14.90653
G1 X119.529 Y123.600 E15.04580
G1 X118.451 Y124.032 E15.18516
G1 X117.335 Y124.359 E15.32471
G1 X116.195 Y124.579 E15.46403
G1 X115.040 Y124.689 E15.60326
G1 X113.880 Y124.689 E15.74246
G1 X112.725 Y124.579 E15.88169
G1 X111.585 Y124.359 E16.02101
G1 X110.469 Y124.032 E16.16056
G1 X109.391 Y123.600 E16.29992
G1 X108.359 Y123.069 E16.43919
G1 X107.380 Y122.440 E16.57883
G1 X106.468 Y121.722 E16.71812
G1 X105.629 Y120.921 E16.85731
G1 X104.868 Y120.044 E16.99665
G1 X104.194 Y119.097 E17.13614
G1 X103.743 Y118.316 E17.24436
G1 X103.291 Y119.097 E17.35264
G1 X102.617 Y120.044 E17.49213
G1 X101.856 Y120.921 E17.63146
G1 X101.017 Y121.722 E17.77066
G1 X100.105 Y122.440 E17.90995
G1 X99.126 Y123.069 E18.04958
G1 X98.094 Y123.600 E18.18886
G1 X97.017 Y124.032 E18.32810
G1 X95.902 Y124.359 E18.46754
G1 X94.761 Y124.579 E18.60698
G1 X93.605 Y124.689 E18.74633
G1 X92.444 Y124.689 E18.88565
G1 X91.289 Y124.579 E19.02488
G1 X90.149 Y124.359 E19.16420
G1 X89.033 Y124.032 E19.30375
G1 X87.955 Y123.600 E19.44311
G1 X86.924 Y123.069 E19.58228
G1 X85.945 Y122.440 E19.72191
G1 X85.032 Y121.722 E19.86129
G1 X84.193 Y120.921 E20.00049
G1 X83.432 Y120.044 E20.13983
G1 X82.758 Y119.097 E20.27931
G1 X82.177 Y118.092 E20.41861
G1 X81.695 Y117.034 E20.55813
G1 X81.315 Y115.938 E20.69733
G1 X81.041 Y114.810 E20.83662
G1 X80.876 Y113.658 E20.97628
G1 X80.821 Y112.500 E21.11539
G1 X80.876 Y111.342 E21.25451
G1 X81.041 Y110.190 E21.39416
G1 X81.315 Y109.062 E21.53346
G1 X81.695 Y107.966 E21.67266
G1 X82.177 Y106.908 E21.81217
G1 X82.758 Y105.903 E21.95147
G1 X83.432 Y104.956 E22.09096
G1 X84.193 Y104.079 E22.23029
G1 X85.032 Y103.278 E22.36949
G10
G0 F9000 X87.526 Y106.151
;TYPE:WALL-INNER
G11
G1 F1200 X88.149 Y105.661 E22.46460
G1 X88.827 Y105.225 E22.56133
G1 X89.533 Y104.861 E22.65665
G1 X90.275 Y104.564 E22.75256
G1 X91.050 Y104.336 E22.84950
G1 X91.830 Y104.186 E22.94482
G1 X92.621 Y104.111 E23.04016
G1 X93.428 Y104.111 E23.13700
G1 X94.220 Y104.186 E23.23247
G1 X95.000 Y104.336 E23.32778
G1 X95.774 Y104.564 E23.42461
G1 X96.511 Y104.860 E23.51991
G1 X97.221 Y105.225 E23.61571
G1 X97.905 Y105.664 E23.71324
G1 X98.523 Y106.151 E23.80766
G1 X99.104 Y106.705 E23.90400
G1 X99.624 Y107.304 E23.99919
G1 X100.090 Y107.959 E24.09565
G1 X100.491 Y108.654 E24.19193
G1 X100.823 Y109.381 E24.28784
G1 X101.083 Y110.133 E24.38332
G1 X101.272 Y110.911 E24.47940
G1 X101.387 Y111.706 E24.57579
G1 X101.425 Y112.500 E24.67118
G1 X101.387 Y113.292 E24.76633
G1 X101.272 Y114.089 E24.86296
G1 X101.083 Y114.867 E24.95903
G1 X100.823 Y115.619 E25.05452
G1 X100.491 Y116.346 E25.15042
G1 X100.090 Y117.041 E25.24671
G1 X99.624 Y117.696 E25.34317
G1 X99.104 Y118.295 E25.43836
G1 X98.523 Y118.849 E25.53469
G1 X97.905 Y119.336 E25.62911
G1 X97.221 Y119.775 E25.72664
G1 X96.511 Y120.140 E25.82244
G1 X95.774 Y120.436 E25.91775
G1 X95.000 Y120.664 E26.01457
G1 X94.220 Y120.814 E26.10989
G1 X93.428 Y120.889 E26.20535
G1 X92.621 Y120.889 E26.30219
G1 X91.830 Y120.814 E26.39754
G1 X91.050 Y120.664 E26.49286
G1 X90.275 Y120.436 E26.58980
G1 X89.533 Y120.139 E26.68570
G1 X88.827 Y119.775 E26.78102
G1 X88.149 Y119.339 E26.87775
G1 X87.526 Y118.849 E26.97287
G1 X86.945 Y118.295 E27.06920
G1 X86.425 Y117.696 E27.16439
G1 X85.959 Y117.041 E27.26085
G1 X85.558 Y116.346 E27.35714
G1 X85.226 Y115.619 E27.45304
G1 X84.966 Y114.867 E27.54852
G1 X84.777 Y114.089 E27.64460
G1 X84.662 Y113.292 E27.74123
G1 X84.625 Y112.500 E27.83637
G1 X84.662 Y111.706 E27.93176
G1 X84.777 Y110.911 E28.02815
G1 X84.966 Y110.133 E28.12423
G1 X85.226 Y109.381 E28.21971
G1 X85.558 Y108.654 E28.31561
G1 X85.959 Y107.959 E28.41190
G1 X86.425 Y107.304 E28.50836
G1 X86.945 Y106.705 E28.60355
G1 X87.526 Y106.151 E28.69988
G0 F9000 X88.148 Y107.203
G1 F1200 X87.595 Y107.771 E28.79501
G1 X87.107 Y108.397 E28.89026
G1 X86.691 Y109.073 E28.98551
G1 X86.353 Y109.791 E29.08074
G1 X86.096 Y110.542 E29.17599
G1 X85.922 Y111.315 E29.27107
G1 X85.835 Y112.104 E29.36633
G1 X85.835 Y112.896 E29.46137
G1 X85.922 Y113.685 E29.55662
G1 X86.096 Y114.458 E29.65170
G1 X86.353 Y115.209 E29.74695
G1 X86.691 Y115.927 E29.84218
G1 X87.107 Y116.603 E29.93743
G1 X87.595 Y117.229 E30.03268
G1 X88.148 Y117.797 E30.12781
G1 X88.760 Y118.302 E30.22302
G1 X89.424 Y118.735 E30.31815
G1 X90.131 Y119.094 E30.41330
G1 X90.875 Y119.373 E30.50865
G1 X91.644 Y119.567 E30.60382
G1 X92.430 Y119.676 E30.69904
G1 X93.224 Y119.698 E30.79436
G1 X94.013 Y119.632 E30.88937
G1 X94.793 Y119.481 E30.98471
G1 X95.550 Y119.243 E31.07993
G1 X96.276 Y118.924 E31.17509
G1 X96.964 Y118.528 E31.27035
G1 X97.602 Y118.058 E31.36544
G1 X98.186 Y117.521 E31.46065
G1 X98.707 Y116.922 E31.55591
G1 X99.159 Y116.271 E31.65101
G1 X99.536 Y115.573 E31.74621
G1 X99.835 Y114.838 E31.84143
G1 X100.051 Y114.075 E31.93659
G1 X100.182 Y113.292 E32.03185
G1 X100.226 Y112.500 E32.12704
G1 X100.182 Y111.708 E32.22223
G1 X100.051 Y110.925 E32.31749
G1 X99.835 Y110.162 E32.41265
G1 X99.536 Y109.427 E32.50787
G1 X99.159 Y108.729 E32.60307
G1 X98.707 Y108.078 E32.69817
G1 X98.186 Y107.479 E32.79344
G1 X97.602 Y106.942 E32.88864
G1 X96.964 Y106.472 E32.98373
G1 X96.276 Y106.076 E33.07899
G1 X95.550 Y105.757 E33.17415
G1 X94.793 Y105.519 E33.26937
G1 X94.013 Y105.368 E33.36471
G1 X93.224 Y105.302 E33.45972
G1 X92.430 Y105.324 E33.55504
G1 X91.644 Y105.433 E33.65026
G1 X90.875 Y105.627 E33.74543
G1 X90.131 Y105.906 E33.84078
G1 X89.424 Y106.265 E33.93593
G1 X88.760 Y106.698 E34.03106
G1 X88.148 Y107.203 E34.12627
G0 F9000 X88.419 Y107.498
;TYPE:WALL-OUTER
G1 F1200 X87.897 Y108.034 E34.21605
G1 X87.436 Y108.626 E34.30609
G1 X87.044 Y109.264 E34.39595
G1 X86.724 Y109.942 E34.48592
G1 X86.481 Y110.651 E34.57586
G1 X86.317 Y111.381 E34.66564
G1 X86.235 Y112.126 E34.75558
G1 X86.235 Y112.874 E34.84534
G1 X86.317 Y113.619 E34.93528
G1 X86.481 Y114.349 E35.02506
G1 X86.724 Y115.058 E35.11500
G1 X87.044 Y115.736 E35.20497
G1 X87.436 Y116.374 E35.29482
G1 X87.897 Y116.966 E35.38486
G1 X88.419 Y117.502 E35.47464
G1 X88.997 Y117.979 E35.56457
G1 X89.625 Y118.388 E35.65451
G1 X90.292 Y118.727 E35.74429
G1 X90.994 Y118.990 E35.83425
G1 X91.721 Y119.174 E35.92424
G1 X92.463 Y119.277 E36.01413
G1 X93.213 Y119.297 E36.10417
G1 X93.958 Y119.235 E36.19387
G1 X94.694 Y119.092 E36.28385
G1 X95.409 Y118.868 E36.37376
G1 X96.095 Y118.567 E36.46365
G1 X96.745 Y118.193 E36.55364
G1 X97.347 Y117.749 E36.64341
G1 X97.899 Y117.242 E36.73335
G1 X98.391 Y116.676 E36.82334
G1 X98.818 Y116.061 E36.91318
G1 X99.174 Y115.402 E37.00307
G1 X99.456 Y114.708 E37.09296
G1 X99.660 Y113.987 E37.18288
G1 X99.784 Y113.248 E37.27280
G1 X99.825 Y112.500 E37.36269
G1 X99.784 Y111.752 E37.45258
G1 X99.660 Y111.013 E37.54250
G1 X99.456 Y110.292 E37.63242
G1 X99.174 Y109.598 E37.72231
G1 X98.818 Y108.939 E37.81219
G1 X98.391 Y108.324 E37.90204
G1 X97.899 Y107.758 E37.99203
G1 X97.347 Y107.251 E38.08197
G1 X96.745 Y106.807 E38.17174
G1 X96.095 Y106.433 E38.26173
G1 X95.409 Y106.132 E38.35162
G1 X94.694 Y105.908 E38.44153
G1 X93.958 Y105.765 E38.53151
G1 X93.213 Y105.703 E38.62121
G1 X92.463 Y105.723 E38.71125
G1 X91.721 Y105.826 E38.80114
G1 X90.994 Y106.010 E38.89113
G1 X90.292 Y106.273 E38.98109
G1 X89.625 Y106.612 E39.07087
G1 X88.997 Y107.021 E39.16081
G1 X88.419 Y107.498 E39.25074
G0 F9000 X88.206 Y107.288
G0 X87.461 Y106.075
G0 X87.263 Y105.850
G1 F1200 X87.923 Y105.330 E39.35156
G1 X88.617 Y104.884 E39.45056
G1 X89.371 Y104.496 E39.55232
G1 X90.148 Y104.184 E39.65279
G1 X90.954 Y103.948 E39.75357
G1 X91.770 Y103.790 E39.85331
G1 X92.604 Y103.711 E39.95384
G1 X93.445 Y103.711 E40.05476
G1 X94.280 Y103.790 E40.15541
G1 X95.096 Y103.948 E40.25515
G1 X95.901 Y104.184 E40.35581
G1 X96.682 Y104.497 E40.45678
G1 X97.427 Y104.880 E40.55730
G1 X98.126 Y105.330 E40.65706
G1 X98.786 Y105.850 E40.75789
G1 X99.395 Y106.430 E40.85881
G1 X99.941 Y107.059 E40.95876
G1 X100.429 Y107.745 E41.05978
G1 X100.845 Y108.466 E41.15967
G1 X101.195 Y109.232 E41.26073
G1 X101.469 Y110.024 E41.36130
G1 X101.665 Y110.831 E41.46095
G1 X101.784 Y111.661 E41.56157
G1 X101.825 Y112.500 E41.66237
G1 X101.784 Y113.339 E41.76317
G1 X101.665 Y114.169 E41.86379
G1 X101.469 Y114.976 E41.96345
G1 X101.195 Y115.768 E42.06401
G1 X100.845 Y116.534 E42.16507
G1 X100.429 Y117.255 E42.26496
G1 X99.941 Y117.941 E42.36599
G1 X99.395 Y118.570 E42.46594
G1 X98.786 Y119.150 E42.56686
G1 X98.126 Y119.670 E42.66768
G1 X97.427 Y120.120 E42.76744
G1 X96.682 Y120.503 E42.86797
G1 X95.901 Y120.816 E42.96893
G1 X95.096 Y121.052 E43.06960
G1 X94.280 Y121.210 E43.16934
G1 X93.445 Y121.289 E43.26998
G1 X92.604 Y121.289 E43.37090
G1 X91.770 Y121.210 E43.47143
G1 X90.954 Y121.052 E43.57117
G1 X90.148 Y120.816 E43.67195
G1 X89.371 Y120.504 E43.77243
G1 X88.617 Y120.116 E43.87418
G1 X87.923 Y119.670 E43.97318
G1 X87.263 Y119.150 E44.07401
G1 X86.654 Y118.570 E44.17493
G1 X86.108 Y117.941 E44.27488
G1 X85.620 Y117.255 E44.37590
G1 X85.204 Y116.534 E44.47579
G1 X84.854 Y115.768 E44.57685
G1 X84.580 Y114.976 E44.67742
G1 X84.384 Y114.169 E44.77707
G1 X84.265 Y113.338 E44.87781
G1 X84.225 Y112.500 E44.97849
G1 X84.265 Y111.662 E45.07916
G1 X84.384 Y110.831 E45.17990
G1 X84.580 Y110.024 E45.27955
G1 X84.854 Y109.232 E45.38012
G1 X85.204 Y108.466 E45.48118
G1 X85.620 Y107.745 E45.58107
G1 X86.108 Y107.059 E45.68209
G1 X86.654 Y106.430 E45.78204
G1 X87.263 Y105.850 E45.88296
G0 F9000 X87.760 Y106.145
;TYPE:SKIN
G1 F1200 X88.415 Y106.799 E45.99404
G0 F9000 X88.729 Y106.548
G1 F1200 X88.076 Y105.895 E46.10485
G0 F9000 X88.406 Y105.660
G1 F1200 X89.072 Y106.326 E46.21788
G0 F9000 X89.420 Y106.108
G1 F1200 X88.751 Y105.439 E46.33141
G0 F9000 X89.113 Y105.235
G1 F1200 X89.795 Y105.917 E46.44715
G0 F9000 X90.180 Y105.736
G1 F1200 X89.486 Y105.042 E46.56493
G0 F9000 X89.881 Y104.871
G1 F1200 X90.590 Y105.581 E46.68533
G0 F9000 X91.019 Y105.444
G1 F1200 X90.285 Y104.710 E46.80990
G0 F9000 X90.719 Y104.578
G1 F1200 X91.471 Y105.330 E46.93751
G0 F9000 X91.952 Y105.246
G1 F1200 X91.163 Y104.457 E47.07141
G0 F9000 X91.637 Y104.365
G1 F1200 X92.454 Y105.182 E47.21006
G0 F9000 X93.005 Y105.167
G1 F1200 X92.135 Y104.297 E47.35771
G0 F9000 X92.654 Y104.250
G1 F1200 X93.595 Y105.192 E47.51748
G0 F9000 X94.236 Y105.267
G1 F1200 X93.220 Y104.250 E47.68999
G0 F9000 X93.823 Y104.288
G1 F1200 X94.958 Y105.423 E47.88260
G0 F9000 X95.210 Y104.544
G1 F1200 X96.990 Y106.324 E48.18468
G0 F9000 X97.135 Y105.338
G1 F1200 X100.163 Y108.366 E48.69855
G0 F9000 X99.183 Y108.516
G1 F1200 X100.984 Y110.318 E49.00427
G0 F9000 X101.150 Y111.050
G1 F1200 X99.795 Y109.694 E49.23431
G0 F9000 X100.709 Y109.477
G1 F1200 X96.061 Y104.829 E50.02310
G0 F9000 X95.823 Y105.723
G1 F1200 X94.478 Y104.378 E50.25136
G0 F9000 X89.425 Y106.265
G0 X88.105 Y107.055
G1 F1200 X87.459 Y106.409 E50.36099
G0 F9000 X87.169 Y106.685
G1 F1200 X87.821 Y107.338 E50.47172
G0 F9000 X87.542 Y107.624
G1 F1200 X86.894 Y106.976 E50.58169
G0 F9000 X86.631 Y107.278
G1 F1200 X87.288 Y107.935 E50.69318
G0 F9000 X87.040 Y108.253
G1 F1200 X86.385 Y107.599 E50.80426
G0 F9000 X86.150 Y107.929
G1 F1200 X86.818 Y108.597 E50.91762
G0 F9000 X86.602 Y108.947
G1 F1200 X85.934 Y108.279 E51.03098
G0 F9000 X85.727 Y108.637
G1 F1200 X86.416 Y109.326 E51.14791
G0 F9000 X86.235 Y109.711
G1 F1200 X85.543 Y109.019 E51.26535
G0 F9000 X85.366 Y109.407
G1 F1200 X86.088 Y110.130 E51.38796
G0 F9000 X85.949 Y110.556
G1 F1200 X85.219 Y109.826 E51.51184
G0 F9000 X85.079 Y110.252
G1 F1200 X85.845 Y111.018 E51.64184
G0 F9000 X85.761 Y111.500
G1 F1200 X84.969 Y110.708 E51.77625
G0 F9000 X84.878 Y111.183
G1 F1200 X85.705 Y112.009 E51.91651
G0 F9000 X85.694 Y112.565
G1 F1200 X84.807 Y111.677 E52.06712
G0 F9000 X84.777 Y112.213
G1 F1200 X85.723 Y113.159 E52.22766
G0 F9000 X85.807 Y113.808
G1 F1200 X84.778 Y112.779 E52.40229
G0 F9000 X84.817 Y113.384
G1 F1200 X85.978 Y114.545 E52.59932
G0 F9000 X85.089 Y114.788
G1 F1200 X87.019 Y116.717 E52.92677
G0 F9000 X85.995 Y116.825
G1 F1200 X88.690 Y119.520 E53.38412
G0 F9000 X88.787 Y118.486
G1 F1200 X90.721 Y120.420 E53.71233
G0 F9000 X91.467 Y120.600
G1 F1200 X90.098 Y119.230 E53.94474
G0 F9000 X89.849 Y120.114
G1 F1200 X85.400 Y115.664 E54.69985
G0 F9000 X86.307 Y115.440
G1 F1200 X84.911 Y114.044 E54.93676
G0 F9000 X88.761 Y118.302
G0 X90.976 Y119.543
G1 F1200 X92.133 Y120.701 E55.13319
G0 F9000 X92.746 Y120.747
G1 F1200 X91.717 Y119.718 E55.30782
G0 F9000 X92.373 Y119.809
G1 F1200 X93.311 Y120.747 E55.46700
G0 F9000 X93.838 Y120.708
G1 F1200 X92.959 Y119.829 E55.61618
G0 F9000 X93.509 Y119.813
G1 F1200 X94.342 Y120.646 E55.75754
G0 F9000 X94.816 Y120.555
G1 F1200 X94.031 Y119.770 E55.89076
G0 F9000 X94.505 Y119.678
G1 F1200 X95.264 Y120.437 E56.01957
