;FLAVOR:UltiGCode
;TIME:2441
;MATERIAL:2933
;MATERIAL2:0
;NOZZLE_DIAMETER:0.400000
;NOZZLE_DIAMETER2:0.400000

;Layer count: 58
;LAYER:0
M107
G0 F9000 X85.085 Y82.353 Z0.300
;TYPE:SKIRT
G1 F1200 X86.942 Y80.618 E0.30497
G1 X88.900 Y78.996 E0.61008
G1 X90.951 Y77.496 E0.91499
G1 X93.087 Y76.120 E1.21989
G1 X95.227 Y74.917 E1.51449
G1 X95.434 Y74.802 E1.54290
G1 X97.594 Y73.762 E1.83058
G1 X99.938 Y72.792 E2.13500
G1 X102.340 Y71.963 E2.43992
G1 X104.687 Y71.306 E2.73239
G1 X104.920 Y71.241 E2.76142
G1 X107.189 Y70.759 E3.03977
G1 X107.404 Y70.711 E3.06621
G1 X109.789 Y70.353 E3.35561
G1 X112.314 Y70.117 E3.65993
G1 X114.746 Y70.036 E3.95194
G1 X114.990 Y70.027 E3.98124
G1 X117.310 Y70.097 E4.25976
G1 X117.310 Y70.098 E4.25988
G1 X117.528 Y70.102 E4.28605
G1 X119.931 Y70.319 E4.57558
G1 X122.440 Y70.688 E4.87990
G1 X124.927 Y71.208 E5.18479
G1 X127.380 Y71.876 E5.48987
G1 X129.787 Y72.689 E5.79474
G1 X132.142 Y73.644 E6.09970
G1 X134.436 Y74.739 E6.40473
G1 X136.660 Y75.969 E6.70970
G1 X138.726 Y77.279 E7.00326
G1 X138.927 Y77.406 E7.03179
G1 X140.774 Y78.749 E7.30583
G1 X140.976 Y78.893 E7.33560
G1 X142.841 Y80.428 E7.62546
G1 X144.705 Y82.147 E7.92973
G1 X146.469 Y83.978 E8.23483
G1 X148.042 Y85.823 E8.52577
G1 X148.204 Y86.010 E8.55546
G1 X149.653 Y87.943 E8.84536
G1 X151.004 Y89.975 E9.13818
G1 X151.132 Y90.166 E9.16577
G1 X152.408 Y92.379 E9.47231
G1 X153.482 Y94.525 E9.76028
G1 X154.445 Y96.756 E10.05187
G1 X154.542 Y96.979 E10.08106
G1 X155.320 Y99.154 E10.35825
G1 X155.400 Y99.377 E10.38668
G1 X156.075 Y101.686 E10.67536
G1 X156.648 Y104.155 E10.97951
G1 X157.073 Y106.663 E11.28476
G1 X157.347 Y109.189 E11.58966
G1 X157.465 Y111.622 E11.88196
G1 X157.477 Y111.864 E11.91104
G1 X157.442 Y114.184 E12.18947
G1 X157.440 Y114.403 E12.21575
G1 X157.259 Y116.809 E12.50529
G1 X156.939 Y119.230 E12.79833
G1 X156.908 Y119.465 E12.82678
G1 X156.443 Y121.823 E13.11519
G1 X155.814 Y124.279 E13.41942
G1 X155.038 Y126.698 E13.72427
G1 X154.117 Y129.068 E14.02939
G1 X153.056 Y131.378 E14.33443
G1 X151.793 Y133.746 E14.65648
G1 X150.574 Y135.716 E14.93448
G1 X150.457 Y135.907 E14.96136
G1 X149.072 Y137.874 E15.25004
G1 X147.556 Y139.788 E15.54304
G1 X147.409 Y139.974 E15.57149
G1 X145.799 Y141.760 E15.86004
G1 X143.999 Y143.546 E16.16432
G1 X142.162 Y145.162 E16.45792
G1 X141.993 Y145.313 E16.48511
G1 X140.151 Y146.736 E16.76443
G1 X139.979 Y146.871 E16.79067
G1 X137.986 Y148.228 E17.08000
G1 X135.814 Y149.536 E17.38425
G1 X133.562 Y150.716 E17.68934
G1 X131.330 Y151.718 E17.98294
G1 X131.122 Y151.813 E18.01038
G1 X128.862 Y152.660 E18.30000
G1 X126.443 Y153.415 E18.60409
G1 X124.068 Y154.004 E18.89772
G1 X123.843 Y154.061 E18.92557
G1 X121.470 Y154.490 E19.21495
G1 X119.058 Y154.789 E19.50661
G1 X118.817 Y154.819 E19.53575
G1 X116.523 Y154.955 E19.81151
G1 X116.281 Y154.971 E19.84062
G1 X113.984 Y154.970 E20.11626
G1 X113.741 Y154.972 E20.14542
G1 X111.333 Y154.828 E20.43489
G1 X108.815 Y154.533 E20.73912
G1 X106.172 Y154.064 E21.06123
G1 X103.835 Y153.492 E21.34995
G1 X101.497 Y152.780 E21.64323
G1 X101.271 Y152.710 E21.67162
G1 X99.023 Y151.867 E21.95973
G1 X96.703 Y150.843 E22.26404
G1 X94.442 Y149.680 E22.56915
G1 X92.256 Y148.384 E22.87411
G1 X90.231 Y147.013 E23.16756
G1 X90.038 Y146.883 E23.19548
G1 X88.202 Y145.463 E23.47401
G1 X88.022 Y145.325 E23.50123
G1 X86.279 Y143.801 E23.77906
G1 X86.279 Y143.800 E23.77918
G1 X86.111 Y143.655 E23.80582
G1 X84.396 Y141.964 E24.09483
G1 X82.693 Y140.086 E24.39905
G1 X81.102 Y138.105 E24.70395
G1 X79.687 Y136.111 E24.99735
G1 X79.550 Y135.918 E25.02575
G1 X78.353 Y133.979 E25.29920
G1 X78.218 Y133.766 E25.32946
G1 X77.073 Y131.635 E25.61976
G1 X76.049 Y129.443 E25.91008
G1 X75.943 Y129.220 E25.93971
G1 X75.060 Y126.969 E26.22987
G1 X74.269 Y124.561 E26.53402
G1 X73.621 Y122.103 E26.83906
G1 X73.122 Y119.612 E27.14392
G1 X72.771 Y117.095 E27.44888
G1 X72.572 Y114.561 E27.75390
G1 X72.528 Y112.117 E28.04723
G1 X72.522 Y111.885 E28.07508
G1 X72.627 Y109.565 E28.35376
G1 X72.637 Y109.336 E28.38127
G1 X72.888 Y106.948 E28.66940
G1 X73.295 Y104.444 E28.97383
G1 X73.852 Y101.965 E29.27872
G1 X74.557 Y99.523 E29.58373
G1 X75.405 Y97.128 E29.88862
G1 X76.361 Y94.869 E30.18297
G1 X76.455 Y94.649 E30.21168
G1 X77.529 Y92.505 E30.49944
G1 X78.789 Y90.305 E30.80367
G1 X80.182 Y88.178 E31.10877
G1 X81.699 Y86.141 E31.41355
G1 X83.334 Y84.196 E31.71846
G1 X85.085 Y82.353 E32.02352
G10
G0 F9000 X91.991 Y81.492
;TYPE:WALL-INNER
G11
G1 F1200 X91.937 Y81.482 E32.03011
G1 X93.103 Y80.630 E32.20341
G1 X95.045 Y79.378 E32.48068
G1 X97.078 Y78.236 E32.76049
G1 X97.182 Y78.178 E32.77478
G1 X99.161 Y77.225 E33.03836
G1 X99.666 Y77.016 E33.10395
G1 X99.648 Y77.066 E33.11033
G1 X99.617 Y77.319 E33.14091
G1 X99.705 Y77.712 E33.18924
G1 X100.212 Y78.744 E33.32722
G1 X113.243 Y105.811 E36.93207
G1 X113.458 Y106.093 E36.97463
G1 X113.744 Y106.286 E37.01603
G1 X113.105 Y106.462 E37.09557
G1 X112.853 Y106.532 E37.12695
G1 X111.967 Y106.929 E37.24346
G1 X111.150 Y107.458 E37.36025
G1 X110.621 Y107.930 E37.44533
G1 X110.425 Y108.104 E37.47678
G1 X110.233 Y108.337 E37.51301
G1 X110.236 Y108.318 E37.51532
G1 X110.233 Y108.142 E37.53644
G1 X110.159 Y107.792 E37.57937
G1 X110.060 Y107.612 E37.60402
G1 X93.200 Y82.886 E41.19528
G1 X92.520 Y81.875 E41.34149
G1 X92.348 Y81.701 E41.37085
G1 X92.197 Y81.584 E41.39377
G1 X91.991 Y81.492 E41.42084
G0 F9000 X93.201 Y82.889
G0 X110.233 Y108.143
G0 X108.848 Y110.563
G0 X78.370 Y108.434
G1 F1200 X108.302 Y110.680 E45.02278
G1 X108.540 Y110.665 E45.05140
G1 X108.850 Y110.566 E45.09045
G1 X108.997 Y110.460 E45.11220
G1 X108.944 Y110.592 E45.12927
G1 X108.723 Y111.540 E45.24608
G1 X108.648 Y112.508 E45.36258
G1 X108.723 Y113.478 E45.47933
G1 X108.944 Y114.425 E45.59603
G1 X108.992 Y114.544 E45.61142
G1 X108.825 Y114.446 E45.63466
G1 X108.519 Y114.346 E45.67329
G1 X108.294 Y114.337 E45.70031
G1 X103.530 Y114.696 E46.27361
G1 X102.952 Y114.738 E46.34316
G1 X100.100 Y114.953 E46.68637
G1 X99.522 Y114.995 E46.75591
G1 X94.955 Y115.339 E47.30550
G1 X94.337 Y115.384 E47.37986
G1 X91.286 Y115.614 E47.74702
G1 X90.668 Y115.659 E47.82137
G1 X85.783 Y116.027 E48.40923
G1 X85.164 Y116.072 E48.48371
G1 X82.114 Y116.302 E48.85075
G1 X81.495 Y116.347 E48.92523
G1 X78.449 Y116.577 E49.29179
G1 X77.226 Y116.661 E49.43889
G1 X76.792 Y116.790 E49.49322
G1 X76.712 Y116.870 E49.50680
G1 X76.625 Y116.929 E49.51941
G1 X76.591 Y116.974 E49.52618
G1 X76.370 Y114.381 E49.83847
G1 X76.327 Y112.046 E50.11872
G1 X76.324 Y111.921 E50.13372
G1 X76.427 Y109.637 E50.40808
G1 X76.594 Y108.042 E50.60053
G1 X76.630 Y108.086 E50.60735
G1 X76.813 Y108.219 E50.63450
G1 X76.999 Y108.299 E50.65879
G1 X77.244 Y108.358 E50.68903
G1 X78.370 Y108.434 E50.82446
G0 F9000 X109.138 Y114.662
G0 X109.795 Y115.784
G0 X110.205 Y117.073
G0 X109.307 Y118.507
G1 F1200 X110.077 Y117.381 E50.98815
G1 X110.207 Y117.074 E51.02816
G1 X110.240 Y116.840 E51.05652
G1 X110.222 Y116.668 E51.07727
G1 X110.424 Y116.913 E51.11538
G1 X111.150 Y117.559 E51.23199
G1 X111.966 Y118.089 E51.34875
G1 X112.854 Y118.486 E51.46548
G1 X113.750 Y118.732 E51.57698
G1 X113.448 Y118.938 E51.62084
G1 X113.243 Y119.205 E51.66124
G1 X103.438 Y139.571 E54.37364
G1 X103.168 Y140.130 E54.44814
G1 X101.842 Y142.886 E54.81515
G1 X101.572 Y143.445 E54.88964
G1 X100.248 Y146.197 E55.25611
G1 X99.710 Y147.297 E55.40305
G1 X99.645 Y147.528 E55.43185
G1 X99.618 Y147.716 E55.45464
G1 X99.646 Y147.947 E55.48256
G1 X99.663 Y147.996 E55.48879
G1 X98.344 Y147.414 E55.66179
G1 X96.278 Y146.351 E55.94060
G1 X94.293 Y145.173 E56.21759
G1 X92.361 Y143.866 E56.49750
G1 X91.922 Y143.536 E56.56340
G1 X91.986 Y143.524 E56.57122
G1 X92.192 Y143.435 E56.59815
G1 X92.356 Y143.310 E56.62289
G1 X92.521 Y143.141 E56.65123
G1 X93.154 Y142.198 E56.78752
G1 X109.307 Y118.507 E60.22837
G0 F9000 X116.258 Y118.733
G1 F1200 X116.226 Y118.721 E60.23247
G1 X116.682 Y118.633 E60.28820
G1 X117.598 Y118.304 E60.40500
G1 X118.223 Y117.965 E60.49032
G1 X118.452 Y117.840 E60.52163
G1 X119.018 Y117.409 E60.60700
G1 X119.226 Y117.250 E60.63841
G1 X119.717 Y116.739 E60.72345
G1 X119.766 Y116.689 E60.73185
G1 X119.764 Y116.699 E60.73308
G1 X119.766 Y116.865 E60.75300
G1 X119.787 Y117.030 E60.77296
G1 X119.840 Y117.223 E60.79698
G1 X119.940 Y117.406 E60.82200
G1 X136.798 Y142.129 E64.41283
G1 X137.481 Y143.144 E64.55964
G1 X137.651 Y143.315 E64.58857
G1 X137.800 Y143.432 E64.61130
G1 X138.013 Y143.527 E64.63929
G1 X138.075 Y143.537 E64.64683
G1 X137.739 Y143.799 E64.69796
G1 X135.934 Y145.027 E64.95993
G1 X133.951 Y146.222 E65.23776
G1 X131.893 Y147.300 E65.51655
G1 X130.334 Y148.000 E65.72162
G1 X130.352 Y147.951 E65.72789
G1 X130.383 Y147.699 E65.75835
G1 X130.295 Y147.306 E65.80668
G1 X129.786 Y146.269 E65.94530
G1 X117.348 Y120.438 E69.38565
G1 X116.757 Y119.206 E69.54962
G1 X116.542 Y118.924 E69.59218
G1 X116.258 Y118.733 E69.63325
G0 F9000 X119.018 Y117.408
G0 X119.899 Y116.550
G0 X120.775 Y114.839
G0 X121.293 Y114.395
G1 F1200 X120.995 Y114.552 E69.67367
G1 X121.184 Y113.956 E69.74870
G1 X121.333 Y112.994 E69.86551
G1 X121.333 Y112.023 E69.98203
G1 X121.184 Y111.062 E70.09873
G1 X120.996 Y110.467 E70.17361
G1 X121.176 Y110.572 E70.19862
G1 X121.482 Y110.673 E70.23728
G1 X121.709 Y110.680 E70.26454
G1 X123.041 Y110.579 E70.42484
G1 X123.619 Y110.537 E70.49438
G1 X128.185 Y110.193 E71.04385
G1 X128.763 Y110.151 E71.11339
G1 X131.615 Y109.936 E71.45661
G1 X132.193 Y109.894 E71.52615
G1 X136.879 Y109.541 E72.09006
G1 X137.498 Y109.496 E72.16454
G1 X140.548 Y109.266 E72.53158
G1 X141.167 Y109.221 E72.60605
G1 X144.217 Y108.991 E72.97309
G1 X144.837 Y108.946 E73.04769
G1 X146.053 Y108.853 E73.19403
G1 X146.670 Y108.808 E73.26827
G1 X149.721 Y108.578 E73.63543
G1 X150.339 Y108.533 E73.70979
G1 X151.552 Y108.441 E73.85576
G1 X152.770 Y108.357 E74.00227
G1 X153.165 Y108.240 E74.05171
G1 X153.398 Y108.068 E74.08646
G1 X153.558 Y109.504 E74.25985
G1 X153.670 Y111.816 E74.53761
G1 X153.676 Y111.929 E74.55119
G1 X153.642 Y114.128 E74.81510
G1 X153.641 Y114.251 E74.82986
G1 X153.480 Y116.400 E75.08846
G1 X153.404 Y116.974 E75.15795
G1 X153.370 Y116.933 E75.16434
G1 X153.188 Y116.797 E75.19160
G1 X152.886 Y116.689 E75.23009
G1 X152.761 Y116.660 E75.24549
G1 X151.630 Y116.583 E75.38152
G1 X123.042 Y114.440 E78.82171
G1 X121.696 Y114.336 E78.98371
G1 X121.484 Y114.352 E79.00922
G1 X121.293 Y114.395 E79.03271
G0 F9000 X121.183 Y111.063
G0 X120.890 Y110.136
G0 X119.760 Y108.179
G1 F1200 X119.777 Y108.340 E79.05214
G1 X119.407 Y107.955 E79.11622
G1 X119.225 Y107.767 E79.14762
G1 X118.660 Y107.337 E79.23282
G1 X118.453 Y107.178 E79.26414
G1 X117.598 Y106.713 E79.38093
G1 X116.682 Y106.385 E79.49769
G1 X116.238 Y106.298 E79.55198
G1 X116.542 Y106.093 E79.59598
G1 X116.757 Y105.811 E79.63853
G1 X126.562 Y85.447 E82.35072
G1 X126.832 Y84.888 E82.42522
G1 X127.360 Y83.789 E82.57153
G1 X127.630 Y83.230 E82.64602
G1 X128.158 Y82.132 E82.79223
G1 X128.428 Y81.573 E82.86672
G1 X128.956 Y80.474 E83.01303
G1 X129.226 Y79.915 E83.08753
G1 X129.752 Y78.821 E83.23319
G1 X130.291 Y77.720 E83.38029
G1 X130.355 Y77.492 E83.40871
G1 X130.382 Y77.302 E83.43174
G1 X130.354 Y77.070 E83.45978
G1 X130.333 Y77.011 E83.46730
G1 X130.613 Y77.125 E83.50358
G1 X132.697 Y78.120 E83.78070
G1 X134.718 Y79.237 E84.05779
G1 X136.792 Y80.552 E84.35248
G1 X138.072 Y81.482 E84.54235
G1 X138.010 Y81.493 E84.54990
G1 X137.808 Y81.584 E84.57649
G1 X137.644 Y81.706 E84.60102
G1 X137.478 Y81.878 E84.62970
G1 X136.846 Y82.820 E84.76583
G1 X119.923 Y107.637 E88.37037
G1 X119.793 Y107.943 E88.41026
G1 X119.760 Y108.179 E88.43886
G0 F9000 X120.185 Y108.399
;TYPE:WALL-OUTER
G1 F1200 X120.206 Y108.481 E88.44901
G1 X120.297 Y108.656 E88.47268
G1 X120.542 Y109.020 E88.52534
G1 X120.781 Y109.433 E88.58260
G1 X121.029 Y109.931 E88.64936
G1 X121.121 Y110.047 E88.66712
G1 X121.234 Y110.144 E88.68499
G1 X121.340 Y110.205 E88.69967
G1 X121.552 Y110.275 E88.72646
G1 X121.700 Y110.279 E88.74423
G1 X151.524 Y108.042 E92.33316
G1 X152.705 Y107.960 E92.47522
G1 X152.982 Y107.878 E92.50989
G1 X153.103 Y107.789 E92.52791
G1 X153.224 Y107.603 E92.55454
G1 X153.254 Y107.509 E92.56638
G1 X153.270 Y107.382 E92.58174
G1 X153.263 Y107.260 E92.59641
G1 X152.923 Y105.174 E92.85003
G1 X152.803 Y104.625 E92.91746
G1 X152.458 Y103.084 E93.10696
G1 X151.878 Y101.024 E93.36377
G1 X151.698 Y100.492 E93.43117
G1 X151.185 Y98.999 E93.62061
G1 X150.382 Y97.014 E93.87756
G1 X149.469 Y95.079 E94.13431
G1 X148.451 Y93.196 E94.39118
G1 X147.329 Y91.374 E94.64795
G1 X146.109 Y89.615 E94.90483
G1 X144.793 Y87.928 E95.16158
G1 X143.757 Y86.736 E95.35110
G1 X143.386 Y86.315 E95.41843
G1 X142.286 Y85.183 E95.60784
G1 X141.891 Y84.783 E95.67530
G1 X140.731 Y83.714 E95.86460
G1 X140.315 Y83.337 E95.93197
G1 X139.339 Y82.525 E96.08432
G1 X138.676 Y81.995 E96.18618
G1 X138.567 Y81.926 E96.20166
G1 X138.385 Y81.864 E96.22473
G1 X138.254 Y81.856 E96.24048
G1 X138.129 Y81.878 E96.25571
G1 X138.012 Y81.931 E96.27112
G1 X137.909 Y82.007 E96.28648
G1 X137.790 Y82.131 E96.30711
G1 X137.177 Y83.045 E96.43917
G1 X120.276 Y107.830 E100.03905
G1 X120.182 Y108.051 E100.06787
G1 X120.163 Y108.186 E100.08423
G1 X120.185 Y108.399 E100.10993
G0 F9000 X119.591 Y108.723
G1 F1200 X118.958 Y108.067 E100.21932
G1 X118.234 Y107.515 E100.32857
G1 X117.434 Y107.079 E100.43790
G1 X116.576 Y106.772 E100.54725
G1 X115.682 Y106.598 E100.65655
G1 X115.003 Y106.573 E100.73808
G1 X114.773 Y106.564 E100.76570
G1 X113.868 Y106.667 E100.87500
G1 X112.989 Y106.909 E100.98441
G1 X112.158 Y107.282 E101.09371
G1 X111.393 Y107.777 E101.20306
G1 X110.713 Y108.383 E101.31236
G1 X110.133 Y109.086 E101.42172
G1 X109.668 Y109.869 E101.53100
G1 X109.327 Y110.713 E101.64024
G1 X109.120 Y111.601 E101.74965
G1 X109.049 Y112.508 E101.85883
G1 X109.120 Y113.417 E101.96824
G1 X109.327 Y114.304 E102.07754
G1 X109.668 Y115.149 E102.18688
G1 X110.133 Y115.931 E102.29606
G1 X110.713 Y116.635 E102.40552
G1 X111.393 Y117.240 E102.51474
G1 X112.158 Y117.736 E102.62415
G1 X112.989 Y118.109 E102.73345
G1 X113.868 Y118.350 E102.84282
G1 X114.772 Y118.454 E102.95202
G1 X115.682 Y118.419 E103.06130
G1 X116.576 Y118.246 E103.17057
G1 X117.434 Y117.938 E103.27996
G1 X118.234 Y117.503 E103.38924
G1 X118.958 Y116.951 E103.49849
G1 X119.591 Y116.295 E103.60788
G1 X120.114 Y115.549 E103.71721
G1 X120.519 Y114.733 E103.82653
G1 X120.793 Y113.864 E103.93587
G1 X120.933 Y112.963 E104.04529
G1 X120.933 Y112.054 E104.15437
G1 X120.793 Y111.153 E104.26378
G1 X120.519 Y110.285 E104.37301
G1 X120.114 Y109.469 E104.48233
G1 X119.591 Y108.723 E104.59165
G0 F9000 X119.808 Y108.517
G0 X116.652 Y105.782
G0 X116.414 Y105.601
G1 F1200 X129.393 Y78.645 E108.18180
G1 X129.914 Y77.581 E108.32397
G1 X129.960 Y77.417 E108.34441
G1 X129.961 Y77.391 E108.34753
G1 X129.978 Y77.293 E108.35946
G1 X129.962 Y77.161 E108.37542
G1 X129.918 Y77.036 E108.39132
G1 X129.802 Y76.886 E108.41408
G1 X129.687 Y76.797 E108.43153
G1 X127.608 Y75.998 E108.69880
G1 X125.566 Y75.357 E108.95563
G1 X123.492 Y74.828 E109.21247
G1 X121.392 Y74.416 E109.46928
G1 X119.272 Y74.120 E109.72615
G1 X117.139 Y73.942 E109.98300
G1 X115.000 Y73.883 E110.23977
G1 X112.862 Y73.943 E110.49643
G1 X110.729 Y74.121 E110.75328
G1 X109.165 Y74.337 E110.94275
G1 X108.609 Y74.417 E111.01015
G1 X107.059 Y74.718 E111.19963
G1 X106.509 Y74.829 E111.26696
G1 X104.978 Y75.215 E111.45643
G1 X104.435 Y75.358 E111.52381
G1 X102.928 Y75.827 E111.71320
G1 X102.393 Y75.999 E111.78064
G1 X101.203 Y76.438 E111.93285
G1 X100.410 Y76.750 E112.03511
G1 X100.282 Y76.823 E112.05279
G1 X100.192 Y76.894 E112.06655
G1 X100.084 Y77.036 E112.08796
G1 X100.039 Y77.160 E112.10378
G1 X100.022 Y77.299 E112.12059
G1 X100.085 Y77.578 E112.15491
G1 X100.573 Y78.571 E112.28768
G1 X113.586 Y105.601 E115.88760
G1 X113.736 Y105.798 E115.91731
G1 X113.925 Y105.926 E115.94471
G1 X114.038 Y105.967 E115.95913
G1 X114.109 Y105.984 E115.96789
G1 X114.218 Y105.999 E115.98110
G1 X114.761 Y105.964 E116.04639
G1 X115.251 Y105.963 E116.10519
G1 X115.683 Y105.995 E116.15717
G1 X115.794 Y105.998 E116.17050
G1 X116.066 Y105.932 E116.20409
G1 X116.264 Y105.798 E116.23277
