;FLAVOR:UltiGCode
;TIME:212
;MATERIAL:313
;MATERIAL2:0
;NOZZLE_DIAMETER:0.400000
;NOZZLE_DIAMETER2:0.400000

;Layer count: 8
;LAYER:0
M107
G0 F9000 X89.851 Y96.800 Z0.300
;TYPE:SKIRT
G1 F1200 X97.800 Y96.800 E0.95388
G1 X97.800 Y116.800 E3.35388
G1 X132.199 Y116.800 E7.48176
G1 X132.199 Y96.800 E9.88176
G1 X140.149 Y96.800 E10.83576
G1 X140.149 Y128.200 E14.60376
G1 X89.851 Y128.200 E20.63952
G1 X89.851 Y96.800 E24.40752
G10
G0 F9000 X93.651 Y100.600
;TYPE:WALL-INNER
G11
G1 F1200 X94.000 Y100.600 E24.44940
G1 X94.000 Y120.600 E26.84940
G1 X135.999 Y120.600 E31.88928
G1 X135.999 Y100.600 E34.28928
G1 X136.349 Y100.600 E34.33128
G1 X136.349 Y124.400 E37.18728
G1 X93.651 Y124.400 E42.31104
G1 X93.651 Y100.600 E45.16704
G0 F9000 X93.251 Y100.200
;TYPE:WALL-OUTER
G1 F1200 X94.400 Y100.200 E45.30492
G1 X94.400 Y120.200 E47.70492
G1 X135.599 Y120.200 E52.64880
G1 X135.599 Y100.200 E55.04880
G1 X136.749 Y100.200 E55.18680
G1 X136.749 Y124.800 E58.13880
G1 X93.251 Y124.800 E63.35856
G1 X93.251 Y100.200 E66.31056
G0 F9000 X93.551 Y100.410
G0 X93.869 Y120.739
;TYPE:SKIN
G1 F1200 X97.389 Y124.259 E66.90792
G0 F9000 X97.954 Y124.259
G1 F1200 X94.435 Y120.739 E67.50520
G0 F9000 X95.001 Y120.739
G1 F1200 X98.520 Y124.259 E68.10248
G0 F9000 X99.086 Y124.259
G1 F1200 X95.566 Y120.739 E68.69985
G0 F9000 X96.132 Y120.739
G1 F1200 X99.651 Y124.259 E69.29712
G0 F9000 X100.217 Y124.259
G1 F1200 X96.698 Y120.739 E69.89440
G0 F9000 X97.263 Y120.739
G1 F1200 X100.783 Y124.259 E70.49177
G0 F9000 X101.348 Y124.259
G1 F1200 X97.829 Y120.739 E71.08905
G0 F9000 X98.395 Y120.739
G1 F1200 X101.914 Y124.259 E71.68633
G0 F9000 X102.480 Y124.259
G1 F1200 X98.961 Y120.739 E72.28360
G0 F9000 X99.526 Y120.739
G1 F1200 X103.045 Y124.259 E72.88088
G0 F9000 X103.611 Y124.259
G1 F1200 X100.092 Y120.739 E73.47816
G0 F9000 X100.658 Y120.739
G1 F1200 X104.177 Y124.259 E74.07544
G0 F9000 X104.743 Y124.259
G1 F1200 X101.223 Y120.739 E74.67280
G0 F9000 X101.789 Y120.739
G1 F1200 X105.308 Y124.259 E75.27008
G0 F9000 X105.874 Y124.259
G1 F1200 X102.355 Y120.739 E75.86736
G0 F9000 X102.920 Y120.739
G1 F1200 X106.440 Y124.259 E76.46473
G0 F9000 X107.005 Y124.259
G1 F1200 X103.486 Y120.739 E77.06201
G0 F9000 X104.052 Y120.739
G1 F1200 X107.571 Y124.259 E77.65928
G0 F9000 X108.137 Y124.259
G1 F1200 X104.617 Y120.739 E78.25665
G0 F9000 X105.183 Y120.739
G1 F1200 X108.702 Y124.259 E78.85393
G0 F9000 X109.268 Y124.259
G1 F1200 X105.749 Y120.739 E79.45121
G0 F9000 X106.314 Y120.739
G1 F1200 X109.834 Y124.259 E80.04857
G0 F9000 X110.399 Y124.259
G1 F1200 X106.880 Y120.739 E80.64585
G0 F9000 X107.446 Y120.739
G1 F1200 X110.965 Y124.259 E81.24313
G0 F9000 X111.531 Y124.259
G1 F1200 X108.011 Y120.739 E81.84049
G0 F9000 X108.577 Y120.739
G1 F1200 X112.096 Y124.259 E82.43777
G0 F9000 X112.662 Y124.259
G1 F1200 X109.143 Y120.739 E83.03505
G0 F9000 X109.709 Y120.739
G1 F1200 X113.228 Y124.259 E83.63233
G0 F9000 X113.793 Y124.259
G1 F1200 X110.274 Y120.739 E84.22961
G0 F9000 X110.840 Y120.739
G1 F1200 X114.359 Y124.259 E84.82689
G0 F9000 X114.925 Y124.259
G1 F1200 X111.406 Y120.739 E85.42417
G0 F9000 X111.971 Y120.739
G1 F1200 X115.491 Y124.259 E86.02153
G0 F9000 X116.056 Y124.259
G1 F1200 X112.537 Y120.739 E86.61881
G0 F9000 X113.103 Y120.739
G1 F1200 X116.622 Y124.259 E87.21609
G0 F9000 X117.188 Y124.259
G1 F1200 X113.668 Y120.739 E87.81345
G0 F9000 X114.234 Y120.739
G1 F1200 X117.753 Y124.259 E88.41073
G0 F9000 X118.319 Y124.259
G1 F1200 X114.800 Y120.739 E89.00801
G0 F9000 X115.365 Y120.739
G1 F1200 X118.885 Y124.259 E89.60537
G0 F9000 X119.450 Y124.259
G1 F1200 X115.931 Y120.739 E90.20265
G0 F9000 X116.497 Y120.739
G1 F1200 X120.016 Y124.259 E90.79993
G0 F9000 X120.582 Y124.259
G1 F1200 X117.062 Y120.739 E91.39729
G0 F9000 X117.628 Y120.739
G1 F1200 X121.147 Y124.259 E91.99457
G0 F9000 X121.713 Y124.259
G1 F1200 X118.194 Y120.739 E92.59185
G0 F9000 X118.759 Y120.739
G1 F1200 X122.279 Y124.259 E93.18922
G0 F9000 X122.844 Y124.259
G1 F1200 X119.325 Y120.739 E93.78650
G0 F9000 X119.891 Y120.739
G1 F1200 X123.410 Y124.259 E94.38377
G0 F9000 X123.976 Y124.259
G1 F1200 X120.457 Y120.739 E94.98105
G0 F9000 X121.022 Y120.739
G1 F1200 X124.542 Y124.259 E95.57842
G0 F9000 X125.107 Y124.259
G1 F1200 X121.588 Y120.739 E96.17570
G0 F9000 X122.154 Y120.739
G1 F1200 X125.673 Y124.259 E96.77297
G0 F9000 X126.239 Y124.259
G1 F1200 X122.719 Y120.739 E97.37034
G0 F9000 X123.285 Y120.739
G1 F1200 X126.804 Y124.259 E97.96762
G0 F9000 X127.370 Y124.259
G1 F1200 X123.851 Y120.739 E98.56490
G0 F9000 X124.416 Y120.739
G1 F1200 X127.936 Y124.259 E99.16226
G0 F9000 X128.501 Y124.259
G1 F1200 X124.982 Y120.739 E99.75954
G0 F9000 X125.548 Y120.739
G1 F1200 X129.067 Y124.259 E100.35682
G0 F9000 X129.633 Y124.259
G1 F1200 X126.113 Y120.739 E100.95418
G0 F9000 X126.679 Y120.739
G1 F1200 X130.198 Y124.259 E101.55146
G0 F9000 X130.764 Y124.259
G1 F1200 X127.245 Y120.739 E102.14874
G0 F9000 X127.810 Y120.739
G1 F1200 X131.330 Y124.259 E102.74610
G0 F9000 X131.895 Y124.259
G1 F1200 X128.376 Y120.739 E103.34338
G0 F9000 X128.942 Y120.739
G1 F1200 X132.461 Y124.259 E103.94066
G0 F9000 X133.027 Y124.259
G1 F1200 X129.508 Y120.739 E104.53794
G0 F9000 X130.073 Y120.739
G1 F1200 X133.592 Y124.259 E105.13522
G0 F9000 X134.158 Y124.259
G1 F1200 X130.639 Y120.739 E105.73250
G0 F9000 X131.205 Y120.739
G1 F1200 X134.724 Y124.259 E106.32978
G0 F9000 X135.290 Y124.259
G1 F1200 X131.770 Y120.739 E106.92714
G0 F9000 X132.336 Y120.739
G1 F1200 X135.855 Y124.259 E107.52442
G0 F9000 X136.208 Y124.046
G1 F1200 X132.902 Y120.739 E108.08555
G0 F9000 X133.467 Y120.739
G1 F1200 X136.208 Y123.480 E108.55072
G0 F9000 X136.208 Y122.914
G1 F1200 X134.033 Y120.739 E108.91982
G0 F9000 X134.599 Y120.739
G1 F1200 X136.208 Y122.349 E109.19297
G0 F9000 X136.208 Y121.783
G1 F1200 X135.164 Y120.739 E109.37014
G0 F9000 X135.730 Y120.739
G1 F1200 X136.208 Y121.217 E109.45126
G0 F9000 X96.823 Y124.259
G1 F1200 X93.791 Y121.227 E109.96581
G0 F9000 X93.791 Y121.792
G1 F1200 X96.257 Y124.259 E110.38438
G0 F9000 X95.692 Y124.259
G1 F1200 X93.791 Y122.358 E110.70699
G0 F9000 X93.791 Y122.924
G1 F1200 X95.126 Y124.259 E110.93355
G0 F9000 X94.560 Y124.259
G1 F1200 X93.791 Y123.489 E111.06414
G0 F9000 X93.791 Y124.055
G1 F1200 X93.994 Y124.259 E111.09868
;LAYER:1
M106 S5
G0 F9000 X93.651 Y124.400 Z0.400
;TYPE:WALL-INNER
G1 F1500 X93.651 Y100.600 E112.05068
G1 X94.000 Y100.600 E112.06464
G1 X94.000 Y120.600 E112.86464
G1 X135.999 Y120.600 E114.54460
G1 X135.999 Y100.600 E115.34460
G1 X136.349 Y100.600 E115.35860
G1 X136.349 Y124.400 E116.31060
G1 X93.651 Y124.400 E118.01852
G0 F9000 X93.251 Y124.800
;TYPE:WALL-OUTER
G1 F1500 X93.251 Y100.200 E119.00252
G1 X94.400 Y100.200 E119.04848
G1 X94.400 Y120.200 E119.84848
G1 X135.599 Y120.200 E121.49644
G1 X135.599 Y100.200 E122.29644
G1 X136.749 Y100.200 E122.34244
G1 X136.749 Y124.800 E123.32644
G1 X93.251 Y124.800 E125.06636
G0 F9000 X93.811 Y124.259
;TYPE:SKIN
G1 F1500 X97.332 Y120.739 E125.26551
G0 F9000 X97.898 Y120.739
G1 F1500 X94.377 Y124.259 E125.46465
G0 F9000 X94.943 Y124.259
G1 F1500 X98.463 Y120.739 E125.66378
G0 F9000 X99.029 Y120.739
G1 F1500 X95.508 Y124.259 E125.86293
G0 F9000 X96.074 Y124.259
G1 F1500 X99.595 Y120.739 E126.06208
G0 F9000 X100.160 Y120.739
G1 F1500 X96.640 Y124.259 E126.26120
G0 F9000 X97.205 Y124.259
G1 F1500 X100.726 Y120.739 E126.46035
G0 F9000 X101.292 Y120.739
G1 F1500 X97.771 Y124.259 E126.65950
G0 F9000 X98.337 Y124.259
G1 F1500 X101.858 Y120.739 E126.85865
G0 F9000 X102.423 Y120.739
G1 F1500 X98.903 Y124.259 E127.05777
G0 F9000 X99.468 Y124.259
G1 F1500 X102.989 Y120.739 E127.25692
G0 F9000 X103.555 Y120.739
G1 F1500 X100.034 Y124.259 E127.45607
G0 F9000 X100.600 Y124.259
G1 F1500 X104.120 Y120.739 E127.65519
G0 F9000 X104.686 Y120.739
G1 F1500 X101.165 Y124.259 E127.85434
G0 F9000 X101.731 Y124.259
G1 F1500 X105.252 Y120.739 E128.05349
G0 F9000 X105.817 Y120.739
G1 F1500 X102.297 Y124.259 E128.25261
G0 F9000 X102.862 Y124.259
G1 F1500 X106.383 Y120.739 E128.45176
G0 F9000 X106.949 Y120.739
G1 F1500 X103.428 Y124.259 E128.65091
G0 F9000 X103.994 Y124.259
G1 F1500 X107.514 Y120.739 E128.85003
G0 F9000 X108.080 Y120.739
G1 F1500 X104.559 Y124.259 E129.04918
G0 F9000 X105.125 Y124.259
G1 F1500 X108.646 Y120.739 E129.24833
G0 F9000 X109.211 Y120.739
G1 F1500 X105.691 Y124.259 E129.44745
G0 F9000 X106.256 Y124.259
G1 F1500 X109.777 Y120.739 E129.64660
G0 F9000 X110.343 Y120.739
G1 F1500 X106.822 Y124.259 E129.84575
G0 F9000 X107.388 Y124.259
G1 F1500 X110.908 Y120.739 E130.04487
G0 F9000 X111.474 Y120.739
G1 F1500 X107.953 Y124.259 E130.24402
G0 F9000 X108.519 Y124.259
G1 F1500 X112.040 Y120.739 E130.44317
G0 F9000 X112.606 Y120.739
G1 F1500 X109.085 Y124.259 E130.64232
G0 F9000 X109.651 Y124.259
G1 F1500 X113.171 Y120.739 E130.84144
G0 F9000 X113.737 Y120.739
G1 F1500 X110.216 Y124.259 E131.04059
G0 F9000 X110.782 Y124.259
G1 F1500 X114.303 Y120.739 E131.23974
G0 F9000 X114.868 Y120.739
G1 F1500 X111.348 Y124.259 E131.43886
G0 F9000 X111.913 Y124.259
G1 F1500 X115.434 Y120.739 E131.63801
G0 F9000 X116.000 Y120.739
G1 F1500 X112.479 Y124.259 E131.83716
G0 F9000 X113.045 Y124.259
G1 F1500 X116.565 Y120.739 E132.03628
G0 F9000 X117.131 Y120.739
G1 F1500 X113.610 Y124.259 E132.23543
G0 F9000 X114.176 Y124.259
G1 F1500 X117.697 Y120.739 E132.43458
G0 F9000 X118.262 Y120.739
G1 F1500 X114.742 Y124.259 E132.63370
G0 F9000 X115.307 Y124.259
G1 F1500 X118.828 Y120.739 E132.83285
G0 F9000 X119.394 Y120.739
G1 F1500 X115.873 Y124.259 E133.03200
G0 F9000 X116.439 Y124.259
G1 F1500 X119.959 Y120.739 E133.23112
G0 F9000 X120.525 Y120.739
G1 F1500 X117.004 Y124.259 E133.43027
G0 F9000 X117.570 Y124.259
G1 F1500 X121.091 Y120.739 E133.62942
G0 F9000 X121.657 Y120.739
G1 F1500 X118.136 Y124.259 E133.82857
G0 F9000 X118.702 Y124.259
G1 F1500 X122.222 Y120.739 E134.02769
G0 F9000 X122.788 Y120.739
G1 F1500 X119.267 Y124.259 E134.22684
G0 F9000 X119.833 Y124.259
G1 F1500 X123.354 Y120.739 E134.42599
G0 F9000 X123.919 Y120.739
G1 F1500 X120.399 Y124.259 E134.62511
G0 F9000 X120.964 Y124.259
G1 F1500 X124.485 Y120.739 E134.82426
G0 F9000 X125.051 Y120.739
G1 F1500 X121.530 Y124.259 E135.02341
G0 F9000 X122.096 Y124.259
G1 F1500 X125.616 Y120.739 E135.22253
G0 F9000 X126.182 Y120.739
G1 F1500 X122.661 Y124.259 E135.42168
G0 F9000 X123.227 Y124.259
G1 F1500 X126.748 Y120.739 E135.62083
G0 F9000 X127.313 Y120.739
G1 F1500 X123.793 Y124.259 E135.81995
G0 F9000 X124.358 Y124.259
G1 F1500 X127.879 Y120.739 E136.01910
G0 F9000 X128.445 Y120.739
G1 F1500 X124.924 Y124.259 E136.21825
G0 F9000 X125.490 Y124.259
G1 F1500 X129.010 Y120.739 E136.41737
G0 F9000 X129.576 Y120.739
G1 F1500 X126.055 Y124.259 E136.61652
G0 F9000 X126.621 Y124.259
G1 F1500 X130.142 Y120.739 E136.81567
G0 F9000 X130.707 Y120.739
G1 F1500 X127.187 Y124.259 E137.01479
G0 F9000 X127.752 Y124.259
G1 F1500 X131.273 Y120.739 E137.21394
G0 F9000 X131.839 Y120.739
G1 F1500 X128.318 Y124.259 E137.41309
G0 F9000 X128.884 Y124.259
G1 F1500 X132.405 Y120.739 E137.61224
G0 F9000 X132.970 Y120.739
G1 F1500 X129.450 Y124.259 E137.81136
G0 F9000 X130.015 Y124.259
G1 F1500 X133.536 Y120.739 E138.01051
G0 F9000 X134.102 Y120.739
G1 F1500 X130.581 Y124.259 E138.20966
G0 F9000 X131.147 Y124.259
G1 F1500 X134.667 Y120.739 E138.40878
G0 F9000 X135.233 Y120.739
G1 F1500 X131.712 Y124.259 E138.60793
G0 F9000 X132.278 Y124.259
G1 F1500 X135.799 Y120.739 E138.80708
G0 F9000 X136.208 Y120.895
G1 F1500 X132.844 Y124.259 E138.99738
G0 F9000 X133.409 Y124.259
G1 F1500 X136.208 Y121.461 E139.15568
G0 F9000 X136.208 Y122.026
G1 F1500 X133.975 Y124.259 E139.28200
G0 F9000 X134.541 Y124.259
G1 F1500 X136.208 Y122.592 E139.37630
G0 F9000 X136.208 Y123.158
G1 F1500 X135.106 Y124.259 E139.43861
G0 F9000 X135.672 Y124.259
G1 F1500 X136.208 Y123.723 E139.46893
G0 F9000 X96.766 Y120.739
G1 F1500 X93.791 Y123.714 E139.63722
G0 F9000 X93.791 Y123.149
G1 F1500 X96.201 Y120.739 E139.77355
G0 F9000 X95.635 Y120.739
G1 F1500 X93.791 Y122.583 E139.87787
G0 F9000 X93.791 Y122.017
G1 F1500 X95.069 Y120.739 E139.95016
G0 F9000 X94.504 Y120.739
G1 F1500 X93.791 Y121.451 E139.99047
G0 F9000 X93.791 Y120.886
G1 F1500 X93.938 Y120.739 E139.99878
;LAYER:2
M106 S10
G0 F9000 X94.000 Y120.600 Z0.500
;TYPE:WALL-INNER
G1 F1800 X135.999 Y120.600 E141.67874
G1 X135.999 Y100.600 E142.47874
G1 X136.349 Y100.600 E142.49274
G1 X136.349 Y124.400 E143.44474
G1 X93.651 Y124.400 E145.15266
G1 X93.651 Y100.600 E146.10466
G1 X94.000 Y100.600 E146.11862
G1 X94.000 Y120.600 E146.91862
G0 F9000 X94.400 Y120.200
;TYPE:WALL-OUTER
G1 F1800 X135.599 Y120.200 E148.56658
G1 X135.599 Y100.200 E149.36658
G1 X136.749 Y100.200 E149.41258
G1 X136.749 Y124.800 E150.39658
G1 X93.251 Y124.800 E152.13650
G1 X93.251 Y100.200 E153.12050
G1 X94.400 Y100.200 E153.16646
G1 X94.400 Y120.200 E153.96646
G0 F9000 X94.435 Y120.739
;TYPE:SKIN
G1 F1800 X97.954 Y124.259 E154.16556
G0 F9000 X97.389 Y124.259
G1 F1800 X93.869 Y120.739 E154.36468
G0 F9000 X93.791 Y121.227
G1 F1800 X96.823 Y124.259 E154.53619
G0 F9000 X96.257 Y124.259
G1 F1800 X93.791 Y121.792 E154.67572
G0 F9000 X93.791 Y122.358
G1 F1800 X95.692 Y124.259 E154.78326
G0 F9000 X95.126 Y124.259
G1 F1800 X93.791 Y122.924 E154.85877
G0 F9000 X93.791 Y123.489
G1 F1800 X94.560 Y124.259 E154.90230
G0 F9000 X93.994 Y124.259
G1 F1800 X93.791 Y124.055 E154.91382
G0 F9000 X95.001 Y120.739
G1 F1800 X98.520 Y124.259 E155.11291
G0 F9000 X99.086 Y124.259
G1 F1800 X95.566 Y120.739 E155.31203
G0 F9000 X96.132 Y120.739
G1 F1800 X99.651 Y124.259 E155.51112
G0 F9000 X100.217 Y124.259
G1 F1800 X96.698 Y120.739 E155.71022
G0 F9000 X97.263 Y120.739
G1 F1800 X100.783 Y124.259 E155.90934
G0 F9000 X101.348 Y124.259
G1 F1800 X97.829 Y120.739 E156.10843
G0 F9000 X98.395 Y120.739
G1 F1800 X101.914 Y124.259 E156.30752
G0 F9000 X102.480 Y124.259
G1 F1800 X98.961 Y120.739 E156.50662
G0 F9000 X99.526 Y120.739
G1 F1800 X103.045 Y124.259 E156.70571
G0 F9000 X103.611 Y124.259
G1 F1800 X100.092 Y120.739 E156.90480
G0 F9000 X100.658 Y120.739
G1 F1800 X104.177 Y124.259 E157.10390
G0 F9000 X104.743 Y124.259
G1 F1800 X101.223 Y120.739 E157.30302
G0 F9000 X101.789 Y120.739
G1 F1800 X105.308 Y124.259 E157.50211
G0 F9000 X105.874 Y124.259
G1 F1800 X102.355 Y120.739 E157.70120
G0 F9000 X102.920 Y120.739
G1 F1800 X106.440 Y124.259 E157.90032
G0 F9000 X107.005 Y124.259
G1 F1800 X103.486 Y120.739 E158.09942
G0 F9000 X104.052 Y120.739
G1 F1800 X107.571 Y124.259 E158.29851
G0 F9000 X108.137 Y124.259
G1 F1800 X104.617 Y120.739 E158.49763
G0 F9000 X105.183 Y120.739
G1 F1800 X108.702 Y124.259 E158.69672
G0 F9000 X109.268 Y124.259
G1 F1800 X105.749 Y120.739 E158.89582
G0 F9000 X106.314 Y120.739
G1 F1800 X109.834 Y124.259 E159.09494
G0 F9000 X110.399 Y124.259
G1 F1800 X106.880 Y120.739 E159.29403
G0 F9000 X107.446 Y120.739
G1 F1800 X110.965 Y124.259 E159.49312
G0 F9000 X111.531 Y124.259
G1 F1800 X108.011 Y120.739 E159.69225
G0 F9000 X108.577 Y120.739
G1 F1800 X112.096 Y124.259 E159.89134
G0 F9000 X112.662 Y124.259
G1 F1800 X109.143 Y120.739 E160.09043
G0 F9000 X109.709 Y120.739
G1 F1800 X113.228 Y124.259 E160.28952
G0 F9000 X113.793 Y124.259
G1 F1800 X110.274 Y120.739 E160.48862
G0 F9000 X110.840 Y120.739
G1 F1800 X114.359 Y124.259 E160.68771
G0 F9000 X114.925 Y124.259
G1 F1800 X111.406 Y120.739 E160.88680
G0 F9000 X111.971 Y120.739
G1 F1800 X115.491 Y124.259 E161.08592
G0 F9000 X116.056 Y124.259
G1 F1800 X112.537 Y120.739 E161.28502
G0 F9000 X113.103 Y120.739
G1 F1800 X116.622 Y124.259 E161.48411
G0 F9000 X117.188 Y124.259
G1 F1800 X113.668 Y120.739 E161.68323
G0 F9000 X114.234 Y120.739
G1 F1800 X117.753 Y124.259 E161.88232
G0 F9000 X118.319 Y124.259
G1 F1800 X114.800 Y120.739 E162.08142
G0 F9000 X115.365 Y120.739
G1 F1800 X118.885 Y124.259 E162.28054
G0 F9000 X119.450 Y124.259
G1 F1800 X115.931 Y120.739 E162.47963
G0 F9000 X116.497 Y120.739
G1 F1800 X120.016 Y124.259 E162.67873
G0 F9000 X120.582 Y124.259
G1 F1800 X117.062 Y120.739 E162.87785
G0 F9000 X117.628 Y120.739
G1 F1800 X121.147 Y124.259 E163.07694
G0 F9000 X121.713 Y124.259
G1 F1800 X118.194 Y120.739 E163.27603
G0 F9000 X118.759 Y120.739
