;FLAVOR:UltiGCode
;TIME:4877
;MATERIAL:5868
;MATERIAL2:0
;NOZZLE_DIAMETER:0.400000
;NOZZLE_DIAMETER2:0.400000

;Layer count: 58
;LAYER:0
M107
G0 F9000 X37.153 Y39.420 Z0.300
;TYPE:SKIRT
G1 F1200 X39.010 Y37.684 E0.30505
G1 X40.969 Y36.063 E0.61017
G1 X43.019 Y34.563 E0.91499
G1 X45.156 Y33.187 E1.22000
G1 X47.296 Y31.984 E1.51459
G1 X47.503 Y31.869 E1.54301
G1 X49.663 Y30.829 E1.83069
G1 X52.006 Y29.859 E2.13499
G1 X54.409 Y29.030 E2.44003
G1 X56.755 Y28.373 E2.73238
G1 X56.988 Y28.308 E2.76140
G1 X59.246 Y27.829 E3.03839
G1 X59.473 Y27.778 E3.06631
G1 X61.858 Y27.420 E3.35572
G1 X64.383 Y27.184 E3.66004
G1 X66.815 Y27.103 E3.95204
G1 X67.059 Y27.094 E3.98134
G1 X69.379 Y27.164 E4.25987
G1 X69.379 Y27.165 E4.25999
G1 X69.597 Y27.169 E4.28615
G1 X72.000 Y27.386 E4.57569
G1 X74.510 Y27.755 E4.88012
G1 X76.997 Y28.275 E5.18502
G1 X79.449 Y28.943 E5.48998
G1 X81.857 Y29.756 E5.79497
G1 X84.212 Y30.711 E6.09992
G1 X86.505 Y31.807 E6.40490
G1 X88.729 Y33.036 E6.70981
G1 X90.796 Y34.346 E7.00347
G1 X90.997 Y34.474 E7.03207
G1 X92.843 Y35.816 E7.30594
G1 X93.045 Y35.960 E7.33571
G1 X94.911 Y37.495 E7.62566
G1 X96.775 Y39.214 E7.92993
G1 X98.538 Y41.045 E8.23495
G1 X100.112 Y42.890 E8.52597
G1 X100.274 Y43.077 E8.55566
G1 X101.723 Y45.010 E8.84555
G1 X103.074 Y47.042 E9.13837
G1 X103.202 Y47.233 E9.16596
G1 X104.479 Y49.447 E9.47267
G1 X105.552 Y51.593 E9.76058
G1 X106.514 Y53.823 E10.05202
G1 X106.611 Y54.046 E10.08120
G1 X107.423 Y56.317 E10.37062
G1 X108.143 Y58.747 E10.67475
G1 X108.717 Y61.222 E10.97963
G1 X109.142 Y63.729 E11.28476
G1 X109.417 Y66.256 E11.58979
G1 X109.534 Y68.689 E11.88209
G1 X109.546 Y68.931 E11.91117
G1 X109.511 Y71.252 E12.18972
G1 X109.509 Y71.470 E12.21588
G1 X109.329 Y73.876 E12.50541
G1 X109.009 Y76.298 E12.79857
G1 X108.978 Y76.533 E12.82702
G1 X108.513 Y78.892 E13.11554
G1 X107.883 Y81.347 E13.41969
G1 X107.107 Y83.766 E13.72454
G1 X106.186 Y86.136 E14.02966
G1 X105.125 Y88.446 E14.33470
G1 X103.863 Y90.813 E14.65659
G1 X102.644 Y92.784 E14.93469
G1 X102.527 Y92.975 E14.96157
G1 X101.142 Y94.942 E15.25025
G1 X99.568 Y96.930 E15.55453
G1 X97.873 Y98.826 E15.85972
G1 X96.068 Y100.615 E16.16468
G1 X94.231 Y102.230 E16.45820
G1 X94.062 Y102.381 E16.48539
G1 X92.222 Y103.803 E16.76445
G1 X92.049 Y103.939 E16.79085
G1 X90.055 Y105.296 E17.08029
G1 X87.883 Y106.604 E17.38454
G1 X85.632 Y107.783 E17.68947
G1 X83.400 Y108.786 E17.98311
G1 X83.192 Y108.881 E18.01055
G1 X80.931 Y109.728 E18.30028
G1 X78.512 Y110.483 E18.60437
G1 X76.139 Y111.072 E18.89777
G1 X75.913 Y111.129 E18.92574
G1 X73.539 Y111.558 E19.21523
G1 X71.128 Y111.857 E19.50677
G1 X70.887 Y111.887 E19.53591
G1 X68.592 Y112.023 E19.81180
G1 X68.350 Y112.039 E19.84090
G1 X66.053 Y112.038 E20.11654
G1 X65.810 Y112.040 E20.14570
G1 X63.402 Y111.896 E20.43518
G1 X60.884 Y111.601 E20.73940
G1 X58.240 Y111.132 E21.06164
G1 X55.904 Y110.560 E21.35024
G1 X53.566 Y109.848 E21.64352
G1 X53.340 Y109.778 E21.67191
G1 X51.091 Y108.935 E21.96013
G1 X48.771 Y107.911 E22.26444
G1 X46.511 Y106.748 E22.56944
G1 X44.325 Y105.452 E22.87440
G1 X42.299 Y104.081 E23.16795
G1 X42.106 Y103.951 E23.19588
G1 X40.271 Y102.531 E23.47431
G1 X40.091 Y102.393 E23.50153
G1 X38.281 Y100.810 E23.79008
G1 X36.467 Y99.037 E24.09446
G1 X34.762 Y97.154 E24.39929
G1 X33.170 Y95.174 E24.70417
G1 X31.755 Y93.179 E24.99767
G1 X31.618 Y92.986 E25.02607
G1 X30.400 Y91.012 E25.30441
G1 X30.287 Y90.834 E25.32971
G1 X29.142 Y88.703 E25.62001
G1 X28.118 Y86.511 E25.91034
G1 X28.012 Y86.288 E25.93997
G1 X27.129 Y84.037 E26.23013
G1 X26.338 Y81.629 E26.53428
G1 X25.689 Y79.172 E26.83923
G1 X25.190 Y76.679 E27.14432
G1 X24.840 Y74.163 E27.44915
G1 X24.641 Y71.629 E27.75417
G1 X24.597 Y69.184 E28.04761
G1 X24.591 Y68.953 E28.07534
G1 X24.695 Y66.634 E28.35390
G1 X24.705 Y66.403 E28.38165
G1 X24.957 Y64.014 E28.66992
G1 X25.364 Y61.511 E28.97422
G1 X25.921 Y59.032 E29.27912
G1 X26.625 Y56.590 E29.58409
G1 X27.474 Y54.195 E29.88902
G1 X28.430 Y51.936 E30.18337
G1 X28.524 Y51.717 E30.21197
G1 X29.596 Y49.573 E30.49962
G1 X30.857 Y47.372 E30.80402
G1 X32.250 Y45.245 E31.10912
G1 X33.767 Y43.207 E31.41400
G1 X35.403 Y41.263 E31.71889
G1 X37.153 Y39.420 E32.02387
G0 F9000 X121.326 Y127.423
G1 F1200 X123.183 Y125.687 E32.32892
G1 X125.142 Y124.066 E32.63404
G1 X127.192 Y122.566 E32.93886
G1 X129.329 Y121.190 E33.24387
G1 X131.469 Y119.987 E33.53846
G1 X131.676 Y119.872 E33.56688
G1 X133.835 Y118.832 E33.85445
G1 X136.180 Y117.862 E34.15897
G1 X138.582 Y117.033 E34.46390
G1 X140.928 Y116.376 E34.75625
G1 X141.161 Y116.311 E34.78527
G1 X143.430 Y115.829 E35.06363
G1 X143.645 Y115.781 E35.09007
G1 X146.031 Y115.423 E35.37959
G1 X148.556 Y115.187 E35.68391
G1 X150.988 Y115.106 E35.97591
G1 X151.232 Y115.097 E36.00521
G1 X153.552 Y115.167 E36.28374
G1 X153.552 Y115.168 E36.28386
G1 X153.770 Y115.172 E36.31002
G1 X156.173 Y115.389 E36.59956
G1 X158.683 Y115.758 E36.90399
G1 X161.170 Y116.278 E37.20889
G1 X163.622 Y116.946 E37.51385
G1 X166.030 Y117.759 E37.81884
G1 X168.385 Y118.714 E38.12379
G1 X170.678 Y119.810 E38.42877
G1 X172.902 Y121.039 E38.73368
G1 X174.969 Y122.349 E39.02734
G1 X175.170 Y122.477 E39.05594
G1 X177.016 Y123.819 E39.32981
G1 X177.218 Y123.963 E39.35958
G1 X179.084 Y125.498 E39.64953
G1 X180.948 Y127.217 E39.95380
G1 X182.711 Y129.048 E40.25882
G1 X184.285 Y130.893 E40.54984
G1 X184.447 Y131.080 E40.57953
G1 X185.896 Y133.013 E40.86943
G1 X187.247 Y135.045 E41.16224
G1 X187.375 Y135.236 E41.18983
G1 X188.581 Y137.327 E41.47949
G1 X189.722 Y139.591 E41.78373
G1 X190.687 Y141.826 E42.07586
G1 X190.784 Y142.049 E42.10504
G1 X191.596 Y144.320 E42.39446
G1 X192.316 Y146.750 E42.69859
G1 X192.890 Y149.225 E43.00347
G1 X193.315 Y151.732 E43.30860
G1 X193.590 Y154.259 E43.61363
G1 X193.707 Y156.692 E43.90593
G1 X193.719 Y156.934 E43.93501
G1 X193.684 Y159.255 E44.21356
G1 X193.682 Y159.474 E44.23984
G1 X193.501 Y161.879 E44.52925
G1 X193.182 Y164.300 E44.82229
G1 X193.151 Y164.536 E44.85085
G1 X192.686 Y166.895 E45.13938
G1 X192.056 Y169.350 E45.44352
G1 X191.280 Y171.769 E45.74837
G1 X190.359 Y174.139 E46.05349
G1 X189.298 Y176.449 E46.35853
G1 X188.036 Y178.816 E46.68042
G1 X186.817 Y180.787 E46.95852
G1 X186.700 Y180.978 E46.98540
G1 X185.315 Y182.945 E47.27408
G1 X183.799 Y184.859 E47.56708
G1 X183.652 Y185.045 E47.59553
G1 X182.042 Y186.832 E47.88417
G1 X180.241 Y188.618 E48.18854
G1 X178.404 Y190.233 E48.48205
G1 X178.235 Y190.384 E48.50925
G1 X176.395 Y191.806 E48.78830
G1 X176.222 Y191.942 E48.81471
G1 X174.228 Y193.299 E49.10414
G1 X172.056 Y194.607 E49.40839
G1 X169.805 Y195.786 E49.71332
G1 X167.573 Y196.789 E50.00696
G1 X167.365 Y196.884 E50.03440
G1 X165.104 Y197.731 E50.32414
G1 X162.684 Y198.486 E50.62834
G1 X160.323 Y199.071 E50.92023
G1 X160.087 Y199.130 E50.94942
G1 X157.712 Y199.561 E51.23908
G1 X155.300 Y199.860 E51.53073
G1 X155.059 Y199.890 E51.55987
G1 X152.765 Y200.026 E51.83564
G1 X152.523 Y200.042 E51.86474
G1 X150.226 Y200.041 E52.14038
G1 X149.983 Y200.043 E52.16954
G1 X147.575 Y199.899 E52.45902
G1 X145.056 Y199.604 E52.76336
G1 X142.413 Y199.134 E53.08550
G1 X140.077 Y198.563 E53.37407
G1 X137.739 Y197.851 E53.66735
G1 X137.513 Y197.781 E53.69574
G1 X135.264 Y196.938 E53.98396
G1 X132.944 Y195.914 E54.28827
G1 X130.684 Y194.751 E54.59328
G1 X128.498 Y193.455 E54.89823
G1 X126.472 Y192.084 E55.19179
G1 X126.279 Y191.954 E55.21971
G1 X124.444 Y190.534 E55.49814
G1 X124.264 Y190.396 E55.52536
G1 X122.453 Y188.813 E55.81400
G1 X120.641 Y187.039 E56.11830
G1 X118.934 Y185.157 E56.42320
G1 X117.343 Y183.176 E56.72809
G1 X115.928 Y181.182 E57.02150
G1 X115.791 Y180.989 E57.04990
G1 X114.594 Y179.050 E57.32335
G1 X114.459 Y178.837 E57.35361
G1 X113.314 Y176.705 E57.64401
G1 X112.282 Y174.494 E57.93681
G1 X112.185 Y174.290 E57.96391
G1 X111.303 Y172.040 E58.25392
G1 X110.512 Y169.632 E58.55807
G1 X109.863 Y167.175 E58.86302
G1 X109.364 Y164.682 E59.16811
G1 X109.014 Y162.166 E59.47294
G1 X108.815 Y159.632 E59.77796
G1 X108.771 Y157.187 E60.07140
G1 X108.765 Y156.956 E60.09913
G1 X108.869 Y154.637 E60.37769
G1 X108.879 Y154.406 E60.40544
G1 X109.131 Y152.017 E60.69371
G1 X109.538 Y149.514 E60.99802
G1 X110.095 Y147.035 E61.30291
G1 X110.799 Y144.593 E61.60789
G1 X111.648 Y142.198 E61.91281
G1 X112.638 Y139.858 E62.21771
G1 X113.766 Y137.580 E62.52274
G1 X115.030 Y135.374 E62.82784
G1 X116.423 Y133.248 E63.13285
G1 X117.940 Y131.210 E63.43772
G1 X119.576 Y129.266 E63.74262
G1 X121.326 Y127.423 E64.04759
G10
G0 F9000 X90.079 Y100.594
;TYPE:WALL-INNER
G11
G1 F1200 X90.145 Y100.606 E64.05564
G1 X89.809 Y100.867 E64.10670
G1 X88.004 Y102.095 E64.36867
G1 X86.020 Y103.290 E64.64660
G1 X83.963 Y104.368 E64.92529
G1 X82.404 Y105.068 E65.13036
G1 X82.422 Y105.016 E65.13696
G1 X82.452 Y104.767 E65.16706
G1 X82.364 Y104.374 E65.21539
G1 X81.856 Y103.337 E65.35396
G1 X68.826 Y76.274 E68.95833
G1 X68.613 Y75.993 E69.00064
G1 X68.328 Y75.801 E69.04188
G1 X68.296 Y75.789 E69.04598
G1 X68.752 Y75.701 E69.10171
G1 X69.667 Y75.372 E69.21839
G1 X70.292 Y75.033 E69.30371
G1 X70.522 Y74.908 E69.33512
G1 X71.088 Y74.477 E69.42049
G1 X71.296 Y74.318 E69.45191
G1 X71.835 Y73.757 E69.54527
G1 X71.833 Y73.771 E69.54697
G1 X71.837 Y73.947 E69.56809
G1 X71.918 Y74.317 E69.61354
G1 X72.281 Y74.872 E69.69312
G1 X88.868 Y99.197 E73.22617
G1 X89.551 Y100.212 E73.37298
G1 X89.721 Y100.383 E73.40191
G1 X89.870 Y100.500 E73.42465
G1 X90.079 Y100.594 E73.45215
G0 F9000 X88.869 Y99.197
G0 X71.838 Y73.946
G0 X73.054 Y71.627
G0 X73.764 Y71.405
G0 X103.700 Y73.651
G1 F1200 X75.111 Y71.508 E76.89245
G1 X73.765 Y71.404 E77.05445
G1 X73.554 Y71.420 E77.07984
G1 X73.363 Y71.463 E77.10334
G1 X73.065 Y71.620 E77.14376
G1 X73.254 Y71.024 E77.21879
G1 X73.402 Y70.063 E77.33547
G1 X73.402 Y69.090 E77.45223
G1 X73.254 Y68.129 E77.56891
G1 X73.065 Y67.533 E77.64394
G1 X73.245 Y67.639 E77.66900
G1 X73.553 Y67.740 E77.70790
G1 X73.778 Y67.747 E77.73491
G1 X75.110 Y67.646 E77.89521
G1 X75.688 Y67.604 E77.96475
G1 X78.540 Y67.389 E78.30797
G1 X79.119 Y67.347 E78.37763
G1 X80.256 Y67.260 E78.51447
G1 X80.833 Y67.218 E78.58389
G1 X83.684 Y67.003 E78.92698
G1 X84.262 Y66.961 E78.99652
G1 X88.949 Y66.608 E79.56056
G1 X89.567 Y66.563 E79.63491
G1 X92.618 Y66.333 E80.00207
G1 X93.236 Y66.288 E80.07643
G1 X96.287 Y66.058 E80.44359
G1 X96.906 Y66.013 E80.51806
G1 X98.122 Y65.920 E80.66441
G1 X98.740 Y65.875 E80.73877
G1 X101.790 Y65.645 E81.10581
G1 X102.409 Y65.600 E81.18028
G1 X103.622 Y65.508 E81.32626
G1 X104.841 Y65.424 E81.47289
G1 X105.279 Y65.293 E81.52775
G1 X105.357 Y65.215 E81.54098
G1 X105.457 Y65.147 E81.55550
G1 X105.472 Y65.125 E81.55869
G1 X105.627 Y66.550 E81.73070
G1 X105.739 Y68.883 E82.01098
G1 X105.745 Y68.996 E82.02456
G1 X105.711 Y71.196 E82.28859
G1 X105.710 Y71.319 E82.30335
G1 X105.550 Y73.468 E82.56195
G1 X105.473 Y74.051 E82.63251
G1 X105.288 Y73.879 E82.66283
G1 X105.067 Y73.787 E82.69155
G1 X104.911 Y73.745 E82.71094
G1 X104.901 Y73.744 E82.71215
G1 X104.842 Y73.728 E82.71948
G1 X103.700 Y73.651 E82.85683
G0 F9000 X73.071 Y67.536
G0 X72.275 Y66.302
G0 X71.865 Y65.012
G0 X71.991 Y64.705
G1 F1200 X71.863 Y65.012 E82.89675
G1 X71.830 Y65.244 E82.92487
G1 X71.846 Y65.407 E82.94452
G1 X71.295 Y64.835 E83.03983
G1 X70.730 Y64.404 E83.12510
G1 X70.523 Y64.245 E83.15642
G1 X69.667 Y63.780 E83.27332
G1 X68.752 Y63.452 E83.38996
G1 X68.308 Y63.365 E83.44426
G1 X68.598 Y63.170 E83.48619
G1 X68.782 Y62.955 E83.52015
G1 X69.050 Y62.412 E83.59281
G1 X81.824 Y35.884 E87.12601
G1 X82.358 Y34.791 E87.27199
G1 X82.425 Y34.559 E87.30097
G1 X82.452 Y34.369 E87.32400
G1 X82.424 Y34.137 E87.35204
G1 X82.403 Y34.078 E87.35955
G1 X82.683 Y34.192 E87.39583
G1 X84.766 Y35.187 E87.67285
G1 X86.787 Y36.304 E87.94994
G1 X88.862 Y37.619 E88.24473
G1 X90.141 Y38.549 E88.43450
G1 X90.080 Y38.560 E88.44194
G1 X89.880 Y38.650 E88.46826
G1 X89.713 Y38.773 E88.49314
G1 X89.547 Y38.946 E88.52192
G1 X88.916 Y39.887 E88.65787
G1 X71.991 Y64.705 E92.26265
G0 F9000 X67.797 Y63.267
G0 X66.520 Y63.396
G0 X65.527 Y63.160
G1 F1200 X65.814 Y63.353 E92.30415
G1 X64.922 Y63.599 E92.41519
G1 X64.035 Y63.996 E92.53180
G1 X63.218 Y64.525 E92.64860
G1 X62.689 Y64.997 E92.73367
G1 X62.493 Y65.171 E92.76512
G1 X62.301 Y65.403 E92.80126
G1 X62.305 Y65.381 E92.80395
G1 X62.283 Y65.055 E92.84315
G1 X62.220 Y64.836 E92.87050
G1 X61.857 Y64.280 E92.95018
G1 X45.267 Y39.953 E96.48363
G1 X44.581 Y38.930 E96.63143
G1 X44.288 Y38.662 E96.67908
G1 X44.059 Y38.560 E96.70917
G1 X44.005 Y38.550 E96.71576
G1 X45.171 Y37.697 E96.88912
G1 X47.114 Y36.445 E97.16649
G1 X49.147 Y35.303 E97.44631
G1 X49.251 Y35.245 E97.46060
G1 X51.230 Y34.292 E97.72418
G1 X51.735 Y34.083 E97.78976
G1 X51.716 Y34.137 E97.79663
G1 X51.686 Y34.386 E97.82673
G1 X51.774 Y34.779 E97.87506
G1 X52.280 Y35.811 E98.01298
G1 X65.312 Y62.878 E101.61789
G1 X65.527 Y63.160 E101.66044
G10
G0 F9000 X61.013 Y67.659
G11
G1 F1200 X60.853 Y68.350 E101.74556
G1 X60.791 Y68.606 E101.77716
G1 X60.717 Y69.576 E101.89390
G1 X60.791 Y70.546 E102.01064
G1 X60.953 Y71.239 E102.09604
G1 X61.014 Y71.493 E102.12739
G1 X61.062 Y71.613 E102.14290
G1 X60.896 Y71.514 E102.16609
G1 X60.587 Y71.414 E102.20507
G1 X60.363 Y71.405 E102.23197
G1 X55.598 Y71.764 E102.80539
G1 X55.020 Y71.806 E102.87493
G1 X52.169 Y72.021 E103.21802
G1 X51.590 Y72.063 E103.28769
G1 X50.453 Y72.150 E103.42452
G1 X49.876 Y72.192 E103.49395
G1 X47.024 Y72.407 E103.83716
G1 X46.406 Y72.452 E103.91151
G1 X43.355 Y72.682 E104.27867
G1 X42.737 Y72.727 E104.35303
G1 X37.852 Y73.095 E104.94089
G1 X37.233 Y73.140 E105.01537
G1 X34.183 Y73.370 E105.38241
G1 X33.564 Y73.415 E105.45688
G1 X30.518 Y73.645 E105.82344
G1 X29.295 Y73.729 E105.97055
G1 X28.861 Y73.858 E106.02488
G1 X28.781 Y73.938 E106.03846
G1 X28.694 Y73.997 E106.05107
G1 X28.660 Y74.043 E106.05794
G1 X28.439 Y71.449 E106.37034
G1 X28.396 Y69.113 E106.65071
G1 X28.393 Y68.988 E106.66571
G1 X28.495 Y66.704 E106.94007
G1 X28.663 Y65.109 E107.13253
G1 X28.699 Y65.152 E107.13926
G1 X28.881 Y65.288 E107.16652
G1 X29.071 Y65.366 E107.19117
G1 X29.313 Y65.425 E107.22106
G1 X30.439 Y65.501 E107.35648
G1 X60.371 Y67.747 E110.95842
G1 X60.607 Y67.732 E110.98680
G1 X60.920 Y67.633 E111.02619
G1 X61.067 Y67.526 E111.04801
G1 X61.013 Y67.659 E111.06524
G0 F9000 X60.792 Y70.545
G0 X61.279 Y72.153
G0 X62.308 Y73.909
G1 F1200 X62.291 Y73.737 E111.08598
G1 X62.492 Y73.981 E111.12391
G1 X63.218 Y74.627 E111.24053
G1 X64.034 Y75.157 E111.35729
G1 X64.922 Y75.554 E111.47402
G1 X65.831 Y75.804 E111.58715
G1 X65.671 Y75.882 E111.60851
G1 X65.420 Y76.109 E111.64912
G1 X65.300 Y76.297 E111.67588
G1 X52.314 Y103.269 E115.26812
G1 X51.781 Y104.361 E115.41394
G1 X51.752 Y104.464 E115.42678
G1 X51.718 Y104.577 E115.44094
G1 X51.688 Y104.791 E115.46687
G1 X51.715 Y105.011 E115.49347
G1 X51.733 Y105.065 E115.50030
G1 X50.419 Y104.485 E115.67266
G1 X48.341 Y103.416 E115.95308
G1 X46.361 Y102.241 E116.22937
G1 X44.429 Y100.934 E116.50927
G1 X43.991 Y100.605 E116.57501
G1 X44.069 Y100.592 E116.58450
G1 X44.296 Y100.477 E116.61503
G1 X44.426 Y100.377 E116.63472
G1 X44.591 Y100.209 E116.66297
G1 X45.222 Y99.266 E116.79913
G1 X62.147 Y74.447 E120.40400
G1 X62.275 Y74.140 E120.44392
G1 X62.308 Y73.909 E120.47192
G0 F9000 X61.528 Y73.067
;TYPE:WALL-OUTER
G1 F1200 X61.039 Y72.153 E120.59631
G1 X60.924 Y72.015 E120.61787
G1 X60.832 Y71.941 E120.63203
G1 X60.730 Y71.881 E120.64623
G1 X60.516 Y71.811 E120.67325
G1 X60.370 Y71.806 E120.69078
G1 X30.545 Y74.044 E124.27985
G1 X29.363 Y74.125 E124.42202
G1 X29.073 Y74.211 E124.45832
G1 X29.036 Y74.249 E124.46468
G1 X28.974 Y74.290 E124.47360
G1 X28.884 Y74.410 E124.49160
G1 X28.841 Y74.492 E124.50271
G1 X28.815 Y74.578 E124.51349
G1 X28.799 Y74.703 E124.52861
G1 X28.805 Y74.825 E124.54327
G1 X29.146 Y76.912 E124.79703
G1 X29.266 Y77.461 E124.86447
G1 X29.611 Y79.002 E125.05397
G1 X29.760 Y79.543 E125.12130
G1 X30.191 Y81.062 E125.31078
G1 X30.882 Y83.086 E125.56742
G1 X31.687 Y85.072 E125.82458
G1 X32.599 Y87.007 E126.08128
G1 X33.618 Y88.889 E126.33809
G1 X34.740 Y90.712 E126.59497
G1 X35.960 Y92.469 E126.85165
G1 X36.928 Y93.716 E127.04109
