;FLAVOR:UltiGCode
;TIME:2506
;MATERIAL:2744
;MATERIAL2:0
;NOZZLE_DIAMETER:0.400000
;NOZZLE_DIAMETER2:0.400000

;Layer count: 78
;LAYER:0
M107
G0 F9000 X105.165 Y59.347 Z0.300
;TYPE:SKIRT
G1 F1200 X109.417 Y58.814 E0.51423
G1 X110.140 Y58.287 E0.62160
G1 X111.250 Y57.672 E0.77387
G1 X112.278 Y57.263 E0.90664
G1 X112.477 Y57.194 E0.93191
G1 X113.101 Y57.012 E1.00991
G1 X114.205 Y56.799 E1.14484
G1 X114.928 Y56.728 E1.23201
G1 X115.650 Y56.706 E1.31869
G1 X116.743 Y56.775 E1.45011
G1 X117.446 Y56.886 E1.53552
G1 X118.080 Y57.027 E1.61346
G1 X118.727 Y57.216 E1.69434
G1 X119.786 Y57.631 E1.83083
G1 X120.478 Y57.984 E1.92405
G1 X121.484 Y58.621 E2.06694
G1 X121.718 Y58.814 E2.10334
G1 X122.408 Y58.901 E2.18679
G1 X125.965 Y59.360 E2.61717
G1 X125.965 Y74.231 E4.40169
G1 X121.713 Y74.764 E4.91593
G1 X120.990 Y75.291 E5.02329
G1 X119.880 Y75.906 E5.17557
G1 X118.852 Y76.315 E5.30833
G1 X118.653 Y76.384 E5.33361
G1 X118.088 Y76.549 E5.40424
G1 X117.395 Y76.704 E5.48945
G1 X116.284 Y76.846 E5.62386
G1 X115.477 Y76.872 E5.72075
G1 X114.385 Y76.803 E5.85205
G1 X113.658 Y76.687 E5.94039
G1 X113.056 Y76.552 E6.01443
G1 X112.406 Y76.363 E6.09566
G1 X111.344 Y75.947 E6.23253
G1 X110.652 Y75.594 E6.32575
G1 X109.646 Y74.957 E6.46863
G1 X109.412 Y74.764 E6.50503
G1 X108.722 Y74.677 E6.58849
G1 X105.165 Y74.218 E7.01886
G1 X105.165 Y59.347 E8.80338
G0 F9000 X105.565 Y59.700
G1 F1200 X109.568 Y59.198 E9.28751
G1 X110.356 Y58.624 E9.40449
G1 X111.421 Y58.034 E9.55060
G1 X112.418 Y57.638 E9.67933
G1 X112.599 Y57.575 E9.70233
G1 X113.195 Y57.401 E9.77683
G1 X114.263 Y57.196 E9.90733
G1 X114.953 Y57.127 E9.99054
G1 X115.644 Y57.107 E10.07350
G1 X116.699 Y57.173 E10.20035
G1 X117.372 Y57.280 E10.28212
G1 X117.980 Y57.414 E10.35683
G1 X118.597 Y57.595 E10.43399
G1 X119.622 Y57.997 E10.56611
G1 X120.279 Y58.332 E10.65461
G1 X121.248 Y58.945 E10.79220
G1 X121.553 Y59.197 E10.83968
G1 X122.357 Y59.298 E10.93692
G1 X125.565 Y59.712 E11.32507
G1 X125.565 Y73.878 E13.02499
G1 X121.562 Y74.380 E13.50911
G1 X120.774 Y74.954 E13.62610
G1 X119.709 Y75.544 E13.77220
G1 X118.712 Y75.940 E13.90093
G1 X118.531 Y76.003 E13.92393
G1 X117.988 Y76.162 E13.99183
G1 X117.326 Y76.310 E14.07323
G1 X116.252 Y76.447 E14.20315
G1 X115.483 Y76.472 E14.29548
G1 X114.429 Y76.405 E14.42222
G1 X113.733 Y76.294 E14.50679
G1 X113.156 Y76.165 E14.57774
G1 X112.535 Y75.984 E14.65536
G1 X111.508 Y75.581 E14.78775
G1 X110.851 Y75.246 E14.87625
G1 X109.882 Y74.633 E15.01384
G1 X109.577 Y74.381 E15.06132
G1 X108.773 Y74.280 E15.15856
G1 X105.565 Y73.866 E15.54671
G1 X105.565 Y59.700 E17.24663
G0 F9000 X105.965 Y60.053
G1 F1200 X109.721 Y59.582 E17.70088
G1 X110.571 Y58.962 E17.82713
G1 X111.593 Y58.397 E17.96727
G1 X112.557 Y58.013 E18.09179
G1 X112.721 Y57.956 E18.11262
G1 X113.289 Y57.790 E18.18363
G1 X114.320 Y57.592 E18.30961
G1 X114.979 Y57.527 E18.38908
G1 X115.637 Y57.507 E18.46807
G1 X116.655 Y57.571 E18.59047
G1 X117.297 Y57.673 E18.66848
G1 X117.881 Y57.802 E18.74025
G1 X118.468 Y57.974 E18.81365
G1 X119.458 Y58.362 E18.94125
G1 X120.081 Y58.680 E19.02518
G1 X121.013 Y59.270 E19.15755
G1 X121.388 Y59.580 E19.21594
G1 X122.307 Y59.695 E19.32708
G1 X125.165 Y60.063 E19.67287
G1 X125.165 Y73.525 E21.28831
G1 X121.409 Y73.996 E21.74256
G1 X120.559 Y74.616 E21.86881
G1 X119.537 Y75.181 E22.00894
G1 X118.573 Y75.565 E22.13346
G1 X118.409 Y75.622 E22.15430
G1 X117.888 Y75.774 E22.21942
G1 X117.257 Y75.915 E22.29701
G1 X116.220 Y76.047 E22.42246
G1 X115.489 Y76.071 E22.51022
G1 X114.473 Y76.007 E22.63238
G1 X113.808 Y75.901 E22.71319
G1 X113.256 Y75.777 E22.78108
G1 X112.665 Y75.605 E22.85494
G1 X111.672 Y75.216 E22.98292
G1 X111.049 Y74.898 E23.06686
G1 X110.117 Y74.308 E23.19922
G1 X109.742 Y73.998 E23.25761
G1 X108.823 Y73.883 E23.36875
G1 X105.965 Y73.515 E23.71454
G1 X105.965 Y60.053 E25.32998
G10
G0 F9000 X110.166 Y63.497
;TYPE:FILL
G11
G1 F1200 X110.091 Y63.705 E25.34902
G1 X110.018 Y64.197 E25.38767
G1 X110.015 Y64.478 E25.42139
G0 F9000 X110.254 Y64.518
G0 X109.665 Y69.457
G0 X109.904 Y69.457
G1 F1200 X110.199 Y69.752 E25.47145
G10
G0 F9000 X120.930 Y69.736
G11
G1 F1200 X121.224 Y69.746 E25.52122
G1 X121.075 Y69.315 E25.57595
G0 F9000 X120.838 Y69.265
G0 X121.465 Y64.372
G0 X121.224 Y64.372
G1 F1200 X121.134 Y64.000 E25.60626
G1 X120.905 Y63.488 E25.67356
G0 F9000 X120.588 Y63.392
;TYPE:WALL-INNER
G1 F1200 X120.529 Y63.301 E25.68658
G1 X121.365 Y63.406 E25.78769
G1 X121.365 Y70.172 E26.59961
G1 X120.523 Y70.277 E26.70143
G1 X120.728 Y69.899 E26.75303
G1 X120.943 Y69.273 E26.83246
G1 X121.052 Y68.621 E26.91178
G1 X121.065 Y65.363 E27.30275
G1 X121.015 Y64.643 E27.38936
G1 X120.853 Y63.999 E27.46904
G1 X120.588 Y63.392 E27.54852
G10
G0 F9000 X110.402 Y63.679
G11
G1 F1200 X110.187 Y64.305 E27.62795
G1 X110.078 Y64.956 E27.70716
G1 X110.065 Y68.215 E28.09824
G1 X110.115 Y68.935 E28.18485
G1 X110.277 Y69.579 E28.26454
G1 X110.542 Y70.186 E28.34401
G1 X110.601 Y70.277 E28.35703
G1 X109.765 Y70.172 E28.45814
G1 X109.765 Y63.406 E29.27006
G1 X110.607 Y63.301 E29.37188
G1 X110.402 Y63.679 E29.42348
G0 F9000 X110.769 Y63.840
;TYPE:WALL-OUTER
G1 F1200 X110.576 Y64.404 E29.49501
G1 X110.478 Y64.990 E29.56631
G1 X110.465 Y68.202 E29.95175
G1 X110.512 Y68.872 E30.03235
G1 X110.657 Y69.450 E30.10386
G1 X110.895 Y69.996 E30.17533
G1 X111.219 Y70.495 E30.24673
G1 X111.623 Y70.935 E30.31841
G1 X112.093 Y71.301 E30.38989
G1 X112.616 Y71.585 E30.46131
G1 X113.180 Y71.778 E30.53284
G1 X113.767 Y71.876 E30.60426
G1 X116.904 Y71.889 E30.98070
G1 X117.373 Y71.876 E31.03700
G1 X117.936 Y71.781 E31.10552
G1 X118.247 Y71.689 E31.14444
G1 X118.772 Y71.459 E31.21322
G1 X119.271 Y71.135 E31.28461
G1 X119.711 Y70.731 E31.35629
G1 X120.077 Y70.261 E31.42778
G1 X120.361 Y69.738 E31.49919
G1 X120.554 Y69.174 E31.57073
G1 X120.652 Y68.587 E31.64214
G1 X120.665 Y65.376 E32.02746
G1 X120.618 Y64.706 E32.10806
G1 X120.473 Y64.128 E32.17957
G1 X120.235 Y63.582 E32.25104
G1 X119.911 Y63.083 E32.32244
G1 X119.507 Y62.643 E32.39412
G1 X119.037 Y62.277 E32.46560
G1 X118.514 Y61.993 E32.53702
G1 X117.950 Y61.800 E32.60855
G1 X117.363 Y61.702 E32.67997
G1 X114.226 Y61.689 E33.05641
G1 X113.757 Y61.702 E33.11271
G1 X113.194 Y61.797 E33.18123
G1 X112.883 Y61.889 E33.22015
G1 X112.358 Y62.119 E33.28893
G1 X111.859 Y62.443 E33.36032
G1 X111.419 Y62.847 E33.43200
G1 X111.053 Y63.317 E33.50349
G1 X110.769 Y63.840 E33.57490
G0 F9000 X111.222 Y62.820
G1 F1200 X111.806 Y62.271 E33.67109
G1 X112.406 Y61.833 E33.76023
G1 X113.049 Y61.477 E33.84843
G1 X113.740 Y61.202 E33.93767
G1 X114.093 Y61.098 E33.98183
G1 X114.806 Y60.961 E34.06896
G1 X115.578 Y60.910 E34.16180
G1 X116.281 Y60.954 E34.24633
G1 X117.030 Y61.096 E34.33781
G1 X117.369 Y61.195 E34.38019
G1 X118.061 Y61.466 E34.46937
G1 X118.395 Y61.636 E34.51434
G1 X119.015 Y62.029 E34.60243
G1 X119.580 Y62.496 E34.69039
G1 X119.905 Y62.820 E34.74546
G1 X121.765 Y63.053 E34.97040
G1 X121.765 Y70.525 E35.86704
G1 X119.908 Y70.758 E36.09163
G1 X119.324 Y71.307 E36.18781
G1 X118.724 Y71.745 E36.27696
G1 X118.081 Y72.101 E36.36515
G1 X117.390 Y72.376 E36.45440
G1 X117.037 Y72.481 E36.49859
G1 X116.666 Y72.564 E36.54421
G1 X115.955 Y72.654 E36.63022
G1 X115.544 Y72.668 E36.67956
G1 X114.848 Y72.624 E36.76325
G1 X114.442 Y72.559 E36.81259
G1 X114.106 Y72.484 E36.85390
G1 X113.761 Y72.383 E36.89704
G1 X113.069 Y72.112 E36.98622
G1 X112.735 Y71.942 E37.03119
G1 X112.115 Y71.549 E37.11928
G1 X111.550 Y71.082 E37.20724
G1 X111.225 Y70.758 E37.26231
G1 X109.365 Y70.525 E37.48726
G1 X109.365 Y63.053 E38.38390
G1 X111.222 Y62.820 E38.60849
G10
G0 F9000 X114.177 Y61.285
;TYPE:SKIN
G11
G1 F1200 X114.515 Y61.341 E38.64292
G1 X115.054 Y61.314 E38.69343
G1 X115.611 Y61.306 E38.75376
G1 X116.201 Y61.330 E38.81789
G1 X116.838 Y61.401 E38.87461
G1 X117.221 Y61.501 E38.92211
G10
G0 F9000 X117.056 Y72.084
G11
G1 F1200 X116.971 Y72.282 E38.94577
G1 X116.373 Y72.250 E38.98853
G1 X115.830 Y72.272 E39.04429
G1 X115.254 Y72.262 E39.10823
G1 X114.649 Y72.223 E39.16953
G1 X114.221 Y72.077 E39.22379
;LAYER:1
M106 S5
G10
G0 F9000 X110.257 Y69.913 Z0.400
;TYPE:FILL
G11
G1 F1440 X110.000 Y69.886 E39.23284
G1 X110.113 Y69.491 E39.24927
G0 F9000 X110.342 Y69.413
G0 X109.665 Y64.044
G0 X109.904 Y64.044
G1 F1440 X110.242 Y63.706 E39.26839
G10
G0 F9000 X120.913 Y63.783
G11
G1 F1440 X121.199 Y63.779 E39.28315
G1 X121.056 Y64.205 E39.30112
G0 F9000 X120.828 Y64.282
G0 X121.465 Y69.128
G0 X121.224 Y69.128
G1 F1440 X121.145 Y69.490 E39.31005
G1 X120.842 Y70.076 E39.33644
G0 F9000 X120.721 Y69.911
;TYPE:WALL-INNER
G1 F1440 X120.848 Y69.588 E39.35032
G1 X121.013 Y68.921 E39.37781
G1 X121.053 Y68.595 E39.39095
G1 X121.065 Y65.413 E39.51823
G1 X121.050 Y64.936 E39.53732
G1 X120.947 Y64.319 E39.56234
G1 X120.738 Y63.704 E39.58832
G1 X120.570 Y63.360 E39.60363
G1 X120.532 Y63.302 E39.60641
G1 X121.365 Y63.406 E39.63998
G1 X121.365 Y70.172 E39.91062
G1 X120.523 Y70.277 E39.94457
G1 X120.721 Y69.911 E39.96121
G10
G0 F9000 X110.560 Y70.218
G11
G1 F1440 X110.598 Y70.276 E39.96398
G1 X109.765 Y70.172 E39.99756
G1 X109.765 Y63.406 E40.26820
G1 X110.607 Y63.301 E40.30214
G1 X110.409 Y63.667 E40.31879
G1 X110.282 Y63.990 E40.33267
G1 X110.117 Y64.656 E40.36012
G1 X110.077 Y64.982 E40.37325
G1 X110.065 Y68.165 E40.50058
G1 X110.080 Y68.641 E40.51962
G1 X110.183 Y69.259 E40.54469
G1 X110.392 Y69.874 E40.57067
G1 X110.560 Y70.218 E40.58598
G0 F9000 X110.909 Y70.020
;TYPE:WALL-OUTER
G1 F1440 X111.219 Y70.494 E40.60864
G1 X111.622 Y70.932 E40.63244
G1 X112.092 Y71.300 E40.65632
G1 X112.612 Y71.582 E40.67998
G1 X113.205 Y71.782 E40.70502
G1 X113.497 Y71.842 E40.71694
G1 X113.779 Y71.877 E40.72831
G1 X116.838 Y71.889 E40.85067
G1 X117.344 Y71.877 E40.87091
G1 X117.379 Y71.875 E40.87231
G1 X117.937 Y71.782 E40.89494
G1 X118.497 Y71.591 E40.91861
G1 X118.796 Y71.445 E40.93192
G1 X119.270 Y71.135 E40.95457
G1 X119.708 Y70.732 E40.97838
G1 X120.076 Y70.262 E41.00226
G1 X120.358 Y69.742 E41.02592
G1 X120.558 Y69.149 E41.05095
G1 X120.618 Y68.857 E41.06288
G1 X120.653 Y68.570 E41.07444
G1 X120.665 Y65.418 E41.20052
G1 X120.651 Y64.975 E41.21825
G1 X120.558 Y64.417 E41.24088
G1 X120.367 Y63.857 E41.26455
G1 X120.221 Y63.558 E41.27786
G1 X119.911 Y63.084 E41.30051
G1 X119.508 Y62.646 E41.32432
G1 X119.038 Y62.278 E41.34820
G1 X118.518 Y61.996 E41.37186
G1 X117.925 Y61.796 E41.39689
G1 X117.633 Y61.736 E41.40881
G1 X117.353 Y61.701 E41.42010
G1 X116.839 Y61.689 E41.44067
G1 X114.292 Y61.689 E41.54255
G1 X113.786 Y61.701 E41.56279
G1 X113.751 Y61.703 E41.56420
G1 X113.193 Y61.796 E41.58682
G1 X112.633 Y61.987 E41.61049
G1 X112.334 Y62.133 E41.62380
G1 X111.860 Y62.443 E41.64646
G1 X111.422 Y62.846 E41.67026
G1 X111.054 Y63.316 E41.69414
G1 X110.772 Y63.836 E41.71780
G1 X110.572 Y64.429 E41.74283
G1 X110.512 Y64.721 E41.75476
G1 X110.477 Y65.007 E41.76628
G1 X110.465 Y68.160 E41.89240
G1 X110.479 Y68.602 E41.91009
G1 X110.572 Y69.161 E41.93276
G1 X110.763 Y69.721 E41.95643
G1 X110.909 Y70.020 E41.96974
G0 F9000 X111.225 Y70.758
G1 F1440 X109.365 Y70.525 E42.04472
G1 X109.365 Y63.053 E42.34360
G1 X111.222 Y62.820 E42.41846
G1 X111.812 Y62.265 E42.45086
G1 X112.101 Y62.039 E42.46554
G1 X112.716 Y61.648 E42.49469
G1 X113.060 Y61.471 E42.51016
G1 X113.734 Y61.204 E42.53916
G1 X114.091 Y61.098 E42.55406
G1 X114.798 Y60.961 E42.58286
G1 X115.587 Y60.910 E42.61449
G1 X116.271 Y60.953 E42.64190
G1 X116.695 Y61.020 E42.65907
G1 X117.032 Y61.096 E42.67289
G1 X117.733 Y61.325 E42.70239
G1 X118.383 Y61.631 E42.73113
G1 X119.011 Y62.026 E42.76080
G1 X119.577 Y62.493 E42.79015
G1 X119.905 Y62.820 E42.80868
G1 X121.765 Y63.053 E42.88366
G1 X121.765 Y70.525 E43.18254
G1 X119.908 Y70.758 E43.25740
G1 X119.318 Y71.313 E43.28981
G1 X119.029 Y71.539 E43.30448
G1 X118.414 Y71.930 E43.33363
G1 X118.073 Y72.106 E43.34898
G1 X117.386 Y72.378 E43.37854
G1 X117.372 Y72.383 E43.37913
G1 X117.039 Y72.480 E43.39300
G1 X116.322 Y72.619 E43.42222
G1 X115.535 Y72.668 E43.45376
G1 X114.858 Y72.625 E43.48089
G1 X114.436 Y72.558 E43.49799
G1 X113.771 Y72.386 E43.52546
G1 X113.397 Y72.253 E43.54134
G1 X112.747 Y71.947 E43.57008
G1 X112.119 Y71.552 E43.59975
G1 X111.553 Y71.085 E43.62910
G1 X111.225 Y70.758 E43.64763
G10
G0 F9000 X114.122 Y72.271
;TYPE:SKIN
G11
G1 F1440 X114.446 Y72.228 E43.65851
G1 X114.980 Y72.260 E43.67536
G1 X115.534 Y72.272 E43.69548
G1 X116.117 Y72.255 E43.71677
G1 X116.745 Y72.192 E43.73589
G1 X117.140 Y72.081 E43.75230
G10
G0 F9000 X116.980 Y61.492
G11
G1 F1440 X116.909 Y61.281 E43.76099
G1 X116.306 Y61.318 E43.77603
G1 X115.757 Y61.301 E43.79531
G1 X115.177 Y61.315 E43.81648
G1 X114.562 Y61.364 E43.83610
G1 X114.152 Y61.492 E43.85328
;LAYER:2
M106 S10
G10
G0 F9000 X110.280 Y63.611 Z0.500
;TYPE:FILL
G11
G1 F1440 X110.035 Y63.648 E43.85973
G1 X110.018 Y64.197 E43.87263
G1 X110.015 Y64.477 E43.88383
G0 F9000 X110.254 Y64.517
G0 X109.665 Y69.457
G0 X109.904 Y69.457
G1 F1440 X110.194 Y69.748 E43.90027
G10
G0 F9000 X120.930 Y69.735
G11
G1 F1440 X121.224 Y69.746 E43.91686
G1 X121.075 Y69.314 E43.93514
G0 F9000 X120.838 Y69.267
G0 X121.465 Y64.372
G0 X121.224 Y64.372
G1 F1440 X121.135 Y64.000 E43.94516
G1 X120.906 Y63.489 E43.96756
G0 F9000 X120.720 Y63.664
;TYPE:WALL-INNER
G1 F1440 X120.532 Y63.302 E43.98388
G1 X121.365 Y63.406 E44.01745
G1 X121.365 Y70.172 E44.28809
G1 X120.524 Y70.277 E44.32200
G1 X120.727 Y69.899 E44.33916
G1 X120.943 Y69.274 E44.36561
G1 X121.052 Y68.621 E44.39209
G1 X121.065 Y65.451 E44.51889
G1 X121.051 Y64.944 E44.53918
G1 X121.005 Y64.599 E44.55310
G1 X120.856 Y64.015 E44.57721
G1 X120.720 Y63.664 E44.59227
G10
G0 F9000 X110.403 Y63.679
G11
G1 F1440 X110.187 Y64.304 E44.61872
G1 X110.078 Y64.956 E44.64516
G1 X110.065 Y68.127 E44.77200
G1 X110.079 Y68.633 E44.79225
G1 X110.125 Y68.979 E44.80621
G1 X110.274 Y69.563 E44.83032
G1 X110.410 Y69.914 E44.84538
G1 X110.598 Y70.276 E44.86169
G1 X109.765 Y70.172 E44.89527
G1 X109.765 Y63.406 E45.16591
G1 X110.606 Y63.301 E45.19981
G1 X110.403 Y63.679 E45.21697
G0 F9000 X110.770 Y63.840
;TYPE:WALL-OUTER
G1 F1440 X110.576 Y64.403 E45.24079
G1 X110.478 Y64.990 E45.26460
G1 X110.465 Y68.122 E45.38988
G1 X110.478 Y68.601 E45.40905
G1 X110.518 Y68.903 E45.42123
G1 X110.655 Y69.440 E45.44340
G1 X110.911 Y70.024 E45.46891
G1 X111.216 Y70.489 E45.49115
G1 X111.647 Y70.954 E45.51651
G1 X112.123 Y71.319 E45.54050
G1 X112.616 Y71.584 E45.56289
G1 X113.179 Y71.778 E45.58671
G1 X113.765 Y71.876 E45.61048
G1 X114.284 Y71.889 E45.63124
G1 X116.773 Y71.889 E45.73080
G1 X117.340 Y71.879 E45.75349
G1 X117.678 Y71.836 E45.76712
G1 X118.216 Y71.699 E45.78932
G1 X118.800 Y71.443 E45.81483
G1 X119.265 Y71.138 E45.83707
G1 X119.730 Y70.707 E45.86243
G1 X120.095 Y70.231 E45.88643
G1 X120.360 Y69.738 E45.90882
G1 X120.554 Y69.175 E45.93264
G1 X120.652 Y68.587 E45.95648
G1 X120.665 Y65.456 E46.08172
G1 X120.652 Y64.976 E46.10093
G1 X120.612 Y64.675 E46.11307
G1 X120.475 Y64.138 E46.13524
G1 X120.219 Y63.554 E46.16075
G1 X119.914 Y63.089 E46.18299
G1 X119.483 Y62.624 E46.20835
G1 X119.007 Y62.259 E46.23235
G1 X118.514 Y61.994 E46.25473
G1 X117.951 Y61.800 E46.27855
G1 X117.365 Y61.702 E46.30232
G1 X116.824 Y61.689 E46.32397
G1 X114.357 Y61.689 E46.42265
G1 X113.792 Y61.699 E46.44525
G1 X113.452 Y61.742 E46.45896
G1 X112.914 Y61.879 E46.48116
G1 X112.330 Y62.135 E46.50667
G1 X111.865 Y62.440 E46.52891
G1 X111.400 Y62.871 E46.55428
G1 X111.035 Y63.347 E46.57827
G1 X110.770 Y63.840 E46.60066
G0 F9000 X111.222 Y62.820
G1 F1440 X111.808 Y62.268 E46.63286
G1 X112.101 Y62.039 E46.64773
G1 X112.710 Y61.651 E46.67662
G1 X113.387 Y61.329 E46.70660
G1 X114.083 Y61.099 E46.73593
G1 X114.788 Y60.962 E46.76465
G1 X115.595 Y60.910 E46.79700
G1 X116.261 Y60.952 E46.82369
G1 X117.005 Y61.090 E46.85396
G1 X117.355 Y61.191 E46.86853
G1 X117.733 Y61.325 E46.88457
G1 X118.382 Y61.630 E46.91326
G1 X119.004 Y62.021 E46.94265
G1 X119.573 Y62.490 E46.97214
G1 X119.905 Y62.820 E46.99086
G1 X121.765 Y63.053 E47.06585
G1 X121.765 Y70.525 E47.36473
G1 X119.908 Y70.758 E47.43959
G1 X119.322 Y71.310 E47.47179
G1 X119.029 Y71.539 E47.48667
G1 X118.420 Y71.927 E47.51555
G1 X117.743 Y72.249 E47.54554
G1 X117.046 Y72.478 E47.57488
