;FLAVOR:UltiGCode
;TIME:5231
;MATERIAL:6301
;MATERIAL2:0
;NOZZLE_DIAMETER:0.400000
;NOZZLE_DIAMETER2:0.400000

;Layer count: 63
;LAYER:0
M107
G0 F9000 X163.739 Y47.421 Z0.300
;TYPE:SKIRT
G1 F1200 X164.074 Y46.456 E0.12258
G1 X164.412 Y45.720 E0.21977
G1 X164.913 Y44.831 E0.34222
G1 X165.378 Y44.168 E0.43940
G1 X166.027 Y43.383 E0.56162
G1 X166.604 Y42.812 E0.65904
G1 X167.386 Y42.155 E0.78160
G1 X168.054 Y41.696 E0.87886
G1 X168.941 Y41.190 E1.00140
G1 X169.677 Y40.859 E1.09824
G1 X170.641 Y40.518 E1.22095
G1 X171.429 Y40.324 E1.31833
G1 X172.414 Y40.165 E1.43806
G1 X173.064 Y40.115 E1.51629
G1 X173.697 Y40.106 E1.59226
G1 X174.434 Y40.148 E1.68084
G1 X175.074 Y40.225 E1.75819
G1 X176.068 Y40.426 E1.87989
G1 X176.844 Y40.661 E1.97718
G1 X177.792 Y41.039 E2.09965
G1 X178.512 Y41.409 E2.19680
G1 X179.381 Y41.951 E2.31970
G1 X180.022 Y42.445 E2.41681
G1 X180.776 Y43.129 E2.53897
G1 X181.299 Y43.706 E2.63242
G1 X181.702 Y44.211 E2.70995
G1 X182.272 Y45.054 E2.83207
G1 X182.659 Y45.768 E2.92952
G1 X183.069 Y46.702 E3.05193
G1 X183.321 Y47.470 E3.14892
G1 X183.560 Y48.464 E3.27160
G1 X183.662 Y49.210 E3.36195
G1 X183.707 Y49.694 E3.42028
G1 X183.725 Y50.324 E3.49591
G1 X183.694 Y51.092 E3.58815
G1 X183.567 Y52.107 E3.71090
G1 X183.389 Y52.898 E3.80819
G1 X183.084 Y53.871 E3.93055
G1 X182.769 Y54.616 E4.02762
G1 X182.294 Y55.522 E4.15037
G1 X181.849 Y56.200 E4.24769
G1 X181.222 Y57.003 E4.36995
G1 X180.664 Y57.591 E4.46722
G1 X179.916 Y58.258 E4.58749
G1 X179.380 Y58.660 E4.66789
G1 X178.734 Y59.075 E4.76002
G1 X177.848 Y59.547 E4.88049
G1 X177.233 Y59.810 E4.96075
G1 X176.507 Y60.061 E5.05293
G1 X175.517 Y60.313 E5.17552
G1 X174.718 Y60.437 E5.27255
G1 X173.699 Y60.509 E5.39514
G1 X172.887 Y60.487 E5.49261
G1 X171.874 Y60.376 E5.61490
G1 X171.136 Y60.222 E5.70537
G1 X170.643 Y60.094 E5.76649
G1 X169.914 Y59.847 E5.85885
G1 X168.980 Y59.443 E5.98097
G1 X168.314 Y59.075 E6.07228
G1 X167.884 Y58.807 E6.13308
G1 X167.264 Y58.360 E6.22480
G1 X166.487 Y57.696 E6.34745
G1 X165.927 Y57.113 E6.44445
G1 X165.281 Y56.322 E6.56701
G1 X164.832 Y55.645 E6.66449
G1 X164.340 Y54.753 E6.78673
G1 X164.019 Y54.009 E6.88397
G1 X163.694 Y53.043 E7.00627
G1 X163.511 Y52.252 E7.10370
G1 X163.363 Y51.243 E7.22608
G1 X163.324 Y50.434 E7.32327
G1 X163.359 Y49.416 E7.44550
G1 X163.457 Y48.667 E7.53615
G1 X163.548 Y48.167 E7.59713
G1 X163.739 Y47.421 E7.68954
G0 F9000 X107.306 Y59.849
G1 F1200 X107.731 Y62.355 E7.99455
G1 X108.005 Y64.882 E8.29957
G1 X108.123 Y67.316 E8.59199
G1 X108.135 Y67.559 E8.62119
G1 X108.100 Y69.878 E8.89950
G1 X108.098 Y70.098 E8.92590
G1 X107.917 Y72.502 E9.21520
G1 X107.599 Y74.920 E9.50786
G1 X107.567 Y75.158 E9.53667
G1 X107.101 Y77.517 E9.82522
G1 X106.472 Y79.972 E10.12934
G1 X105.696 Y82.393 E10.43442
G1 X104.775 Y84.762 E10.73943
G1 X103.715 Y87.071 E11.04431
G1 X102.518 Y89.314 E11.34940
G1 X101.190 Y91.480 E11.65428
G1 X99.734 Y93.563 E11.95925
G1 X98.157 Y95.556 E12.26423
G1 X96.463 Y97.451 E12.56924
G1 X94.658 Y99.240 E12.87421
G1 X92.750 Y100.919 E13.17919
G1 X90.746 Y102.481 E13.48409
G1 X88.651 Y103.921 E13.78915
G1 X86.473 Y105.231 E14.09415
G1 X84.222 Y106.409 E14.39902
G1 X81.903 Y107.452 E14.70415
G1 X79.626 Y108.315 E14.99636
G1 X79.626 Y108.316 E14.99648
G1 X79.399 Y108.403 E15.02565
G1 X77.096 Y109.113 E15.31484
G1 X74.726 Y109.699 E15.60781
G1 X74.499 Y109.756 E15.63589
G1 X72.129 Y110.185 E15.92492
G1 X69.709 Y110.485 E16.21754
G1 X69.709 Y110.484 E16.21766
G1 X69.473 Y110.514 E16.24621
G1 X67.180 Y110.651 E16.52186
G1 X66.937 Y110.667 E16.55108
G1 X64.641 Y110.666 E16.82660
G1 X64.397 Y110.668 E16.85588
G1 X61.991 Y110.523 E17.14513
G1 X59.474 Y110.229 E17.44922
G1 X57.070 Y109.801 E17.74224
G1 X56.832 Y109.759 E17.77124
G1 X54.493 Y109.188 E18.06016
G1 X52.069 Y108.449 E18.36426
G1 X49.686 Y107.565 E18.66926
G1 X47.361 Y106.539 E18.97422
G1 X45.101 Y105.376 E19.27922
G1 X42.997 Y104.130 E19.57265
G1 X42.791 Y104.008 E19.60138
G1 X40.805 Y102.653 E19.88989
G1 X38.794 Y101.108 E20.19420
G1 X36.875 Y99.443 E20.49908
G1 X35.126 Y97.732 E20.79269
G1 X34.955 Y97.565 E20.82137
G1 X33.346 Y95.778 E21.10992
G1 X31.759 Y93.801 E21.41414
G1 X30.289 Y91.728 E21.71910
G1 X28.945 Y89.571 E22.02408
G1 X27.733 Y87.337 E22.32907
G1 X26.656 Y85.035 E22.63404
G1 X25.721 Y82.672 E22.93900
G1 X24.926 Y80.258 E23.24398
G1 X24.278 Y77.800 E23.54902
G1 X23.779 Y75.309 E23.85388
G1 X23.428 Y72.791 E24.15896
G1 X23.230 Y70.258 E24.46385
G1 X23.185 Y67.813 E24.75730
G1 X23.179 Y67.579 E24.78538
G1 X23.284 Y65.260 E25.06395
G1 X23.294 Y65.031 E25.09146
G1 X23.545 Y62.642 E25.37971
G1 X23.953 Y60.139 E25.68404
G1 X24.510 Y57.660 E25.98893
G1 X25.214 Y55.218 E26.29391
G1 X26.063 Y52.823 E26.59883
G1 X27.016 Y50.569 E26.89249
G1 X27.110 Y50.348 E26.92131
G1 X28.184 Y48.201 E27.20939
G1 X29.397 Y46.083 E27.50228
G1 X29.515 Y45.876 E27.53087
G1 X30.842 Y43.869 E27.81960
G1 X32.298 Y41.912 E28.11230
G1 X32.437 Y41.724 E28.14036
G1 X33.938 Y39.955 E28.41876
G1 X34.081 Y39.784 E28.44551
G1 X35.746 Y38.044 E28.73450
G1 X37.598 Y36.313 E29.03870
G1 X39.482 Y34.753 E29.33223
G1 X39.658 Y34.606 E29.35975
G1 X41.507 Y33.264 E29.63391
G1 X41.711 Y33.113 E29.66436
G1 X43.750 Y31.813 E29.95454
G1 X45.958 Y30.570 E30.25860
G1 X48.245 Y29.459 E30.56371
G1 X50.594 Y28.488 E30.86873
G1 X52.995 Y27.657 E31.17361
G1 X55.351 Y26.998 E31.46719
G1 X55.580 Y26.934 E31.49572
G1 X57.828 Y26.457 E31.77149
G1 X57.828 Y26.456 E31.77161
G1 X58.064 Y26.405 E31.80058
G1 X60.445 Y26.047 E32.08951
G1 X62.970 Y25.811 E32.39383
G1 X65.404 Y25.730 E32.68607
G1 X65.648 Y25.721 E32.71537
G1 X67.967 Y25.791 E32.99378
G1 X67.967 Y25.792 E32.99390
G1 X68.186 Y25.796 E33.02018
G1 X70.588 Y26.013 E33.30960
G1 X73.097 Y26.382 E33.61392
G1 X75.584 Y26.902 E33.91881
G1 X78.036 Y27.570 E34.22377
G1 X80.355 Y28.353 E34.51749
G1 X80.581 Y28.429 E34.54610
G1 X82.711 Y29.302 E34.82234
G1 X82.933 Y29.392 E34.85108
G1 X85.098 Y30.435 E35.13946
G1 X87.318 Y31.663 E35.44390
G1 X89.383 Y32.972 E35.73729
G1 X89.382 Y32.973 E35.73746
G1 X89.580 Y33.097 E35.76550
G1 X91.529 Y34.514 E36.05466
G1 X93.423 Y36.060 E36.34804
G1 X93.607 Y36.211 E36.37660
G1 X95.367 Y37.844 E36.66471
G1 X97.125 Y39.670 E36.96888
G1 X98.776 Y41.604 E37.27402
G1 X100.241 Y43.545 E37.56584
G1 X100.390 Y43.741 E37.59538
G1 X101.716 Y45.753 E37.88454
G1 X102.993 Y47.944 E38.18886
G1 X104.137 Y50.214 E38.49390
G1 X105.144 Y52.547 E38.79882
G1 X106.010 Y54.936 E39.10376
G1 X106.732 Y57.374 E39.40888
G1 X107.306 Y59.849 E39.71376
G0 F9000 X135.120 Y116.807
G1 F1200 X137.406 Y115.696 E40.01876
G1 X139.755 Y114.725 E40.32377
G1 X142.156 Y113.894 E40.62866
G1 X144.512 Y113.235 E40.92223
G1 X144.741 Y113.171 E40.95077
G1 X146.989 Y112.694 E41.22653
G1 X146.989 Y112.693 E41.22665
G1 X147.225 Y112.642 E41.25563
G1 X149.606 Y112.284 E41.54456
G1 X152.131 Y112.048 E41.84888
G1 X154.565 Y111.967 E42.14112
G1 X154.809 Y111.958 E42.17042
G1 X157.128 Y112.028 E42.44883
G1 X157.128 Y112.029 E42.44895
G1 X157.347 Y112.033 E42.47523
G1 X159.749 Y112.250 E42.76464
G1 X162.258 Y112.619 E43.06896
G1 X164.745 Y113.139 E43.37386
G1 X167.197 Y113.807 E43.67882
G1 X169.516 Y114.590 E43.97254
G1 X169.742 Y114.666 E44.00115
G1 X171.872 Y115.539 E44.27738
G1 X172.094 Y115.629 E44.30613
G1 X174.259 Y116.672 E44.59451
G1 X176.478 Y117.900 E44.89884
G1 X178.544 Y119.209 E45.19233
G1 X178.743 Y119.334 E45.22053
G1 X180.691 Y120.752 E45.50967
G1 X182.584 Y122.297 E45.80288
G1 X182.768 Y122.448 E45.83145
G1 X184.528 Y124.081 E46.11955
G1 X186.286 Y125.907 E46.42372
G1 X187.937 Y127.840 E46.72877
G1 X189.403 Y129.782 E47.02076
G1 X189.552 Y129.978 E47.05030
G1 X190.879 Y131.990 E47.33953
G1 X192.154 Y134.181 E47.64372
G1 X193.298 Y136.451 E47.94876
G1 X194.305 Y138.784 E48.25369
G1 X195.171 Y141.173 E48.55862
G1 X195.893 Y143.611 E48.86374
G1 X196.467 Y146.086 E49.16862
G1 X196.892 Y148.591 E49.47352
G1 X197.167 Y151.119 E49.77867
G1 X197.284 Y153.553 E50.07109
G1 X197.296 Y153.796 E50.10028
G1 X197.261 Y156.115 E50.37859
G1 X197.259 Y156.335 E50.40499
G1 X197.078 Y158.739 E50.69429
G1 X196.760 Y161.157 E50.98695
G1 X196.728 Y161.395 E51.01577
G1 X196.263 Y163.754 E51.30429
G1 X195.633 Y166.210 E51.60856
G1 X194.857 Y168.630 E51.91352
G1 X193.936 Y170.999 E52.21853
G1 X192.876 Y173.308 E52.52341
G1 X191.679 Y175.551 E52.82850
G1 X190.351 Y177.718 E53.13349
G1 X188.895 Y179.802 E53.43855
G1 X187.318 Y181.793 E53.74334
G1 X185.625 Y183.688 E54.04827
G1 X183.819 Y185.478 E54.35341
G1 X181.911 Y187.156 E54.65832
G1 X179.907 Y188.718 E54.96322
G1 X177.812 Y190.158 E55.26828
G1 X175.634 Y191.468 E55.57327
G1 X173.384 Y192.646 E55.87804
G1 X171.066 Y193.689 E56.18306
G1 X168.787 Y194.552 E56.47549
G1 X168.787 Y194.553 E56.47561
G1 X168.560 Y194.640 E56.50478
G1 X166.257 Y195.349 E56.79394
G1 X163.888 Y195.936 E57.08682
G1 X163.660 Y195.993 E57.11502
G1 X161.290 Y196.422 E57.40404
G1 X158.870 Y196.722 E57.69666
G1 X158.870 Y196.721 E57.69678
G1 X158.634 Y196.751 E57.72533
G1 X156.341 Y196.888 E58.00098
G1 X156.098 Y196.904 E58.03021
G1 X153.803 Y196.903 E58.30561
G1 X153.559 Y196.905 E58.33489
G1 X151.152 Y196.760 E58.62425
G1 X148.635 Y196.466 E58.92834
G1 X146.231 Y196.038 E59.22136
G1 X145.993 Y195.996 E59.25036
G1 X143.655 Y195.425 E59.53917
G1 X141.231 Y194.686 E59.84327
G1 X138.848 Y193.802 E60.14827
G1 X136.522 Y192.776 E60.45334
G1 X134.263 Y191.613 E60.75823
G1 X132.159 Y190.367 E61.05166
G1 X131.952 Y190.245 E61.08050
G1 X129.966 Y188.889 E61.36907
G1 X127.956 Y187.345 E61.67322
G1 X126.036 Y185.680 E61.97818
G1 X124.287 Y183.969 E62.27179
G1 X124.116 Y183.801 E62.30056
G1 X122.593 Y182.109 E62.57374
G1 X122.423 Y181.924 E62.60389
G1 X120.917 Y180.034 E62.89388
G1 X119.450 Y177.966 E63.19814
G1 X118.106 Y175.807 E63.50332
G1 X116.895 Y173.574 E63.80815
G1 X115.817 Y171.272 E64.11318
G1 X114.882 Y168.909 E64.41813
G1 X114.087 Y166.495 E64.72311
G1 X113.439 Y164.037 E65.02815
G1 X112.940 Y161.546 E65.33301
G1 X112.589 Y159.028 E65.63809
G1 X112.391 Y156.494 E65.94310
G1 X112.347 Y154.049 E66.23654
G1 X112.341 Y153.816 E66.26451
G1 X112.445 Y151.499 E66.54283
G1 X112.455 Y151.267 E66.57070
G1 X112.707 Y148.879 E66.85885
G1 X113.114 Y146.377 E67.16304
G1 X113.671 Y143.897 E67.46805
G1 X114.375 Y141.455 E67.77303
G1 X115.224 Y139.060 E68.07795
G1 X116.178 Y136.805 E68.37177
G1 X116.272 Y136.585 E68.40048
G1 X117.345 Y134.438 E68.68850
G1 X118.558 Y132.320 E68.98139
G1 X118.676 Y132.113 E69.00998
G1 X120.003 Y130.106 E69.29871
G1 X121.459 Y128.149 E69.59141
G1 X121.598 Y127.961 E69.61947
G1 X123.100 Y126.191 E69.89804
G1 X123.243 Y126.021 E69.92470
G1 X124.907 Y124.281 E70.21361
G1 X126.759 Y122.550 E70.51781
G1 X128.643 Y120.990 E70.81133
G1 X128.819 Y120.843 E70.83885
G1 X130.668 Y119.501 E71.11301
G1 X130.872 Y119.350 E71.14347
G1 X132.911 Y118.049 E71.43371
G1 X135.120 Y116.807 E71.73782
G0 F9000 X61.572 Y156.910
G1 F1200 X61.957 Y157.620 E71.83474
G1 X62.368 Y158.554 E71.95719
G1 X62.621 Y159.325 E72.05456
G1 X62.860 Y160.319 E72.17724
G1 X62.962 Y161.064 E72.26748
G1 X63.007 Y161.548 E72.32581
G1 X63.025 Y162.178 E72.40144
G1 X62.994 Y162.946 E72.49367
G1 X62.867 Y163.961 E72.61642
G1 X62.689 Y164.752 E72.71372
G1 X62.384 Y165.725 E72.83608
G1 X62.068 Y166.472 E72.93341
G1 X61.593 Y167.375 E73.05585
G1 X61.151 Y168.052 E73.15287
G1 X60.522 Y168.857 E73.27546
G1 X59.964 Y169.445 E73.37273
G1 X59.219 Y170.110 E73.49257
G1 X58.681 Y170.514 E73.57331
G1 X58.032 Y170.930 E73.66581
G1 X57.134 Y171.409 E73.78794
G1 X56.383 Y171.720 E73.88548
G1 X55.412 Y172.030 E74.00780
G1 X54.621 Y172.202 E74.10494
G1 X53.626 Y172.332 E74.22535
G1 X52.958 Y172.362 E74.30559
G1 X52.187 Y172.341 E74.39815
G1 X51.174 Y172.230 E74.52043
G1 X50.436 Y172.076 E74.61090
G1 X49.943 Y171.948 E74.67202
G1 X49.214 Y171.701 E74.76439
G1 X48.280 Y171.297 E74.88650
G1 X47.614 Y170.929 E74.97781
G1 X47.184 Y170.661 E75.03861
G1 X46.564 Y170.214 E75.13033
G1 X45.789 Y169.552 E75.25264
G1 X45.226 Y168.967 E75.35007
G1 X44.580 Y168.175 E75.47272
G1 X44.132 Y167.499 E75.57004
G1 X43.640 Y166.607 E75.69228
G1 X43.319 Y165.863 E75.78951
G1 X42.994 Y164.897 E75.91182
G1 X42.811 Y164.108 E76.00901
G1 X42.662 Y163.099 E76.13141
G1 X42.623 Y162.288 E76.22884
G1 X42.658 Y161.270 E76.35107
G1 X42.757 Y160.516 E76.44233
G1 X42.849 Y160.017 E76.50322
G1 X43.039 Y159.275 E76.59513
G1 X43.374 Y158.309 E76.71782
G1 X43.713 Y157.575 E76.81484
G1 X44.212 Y156.686 E76.93718
G1 X44.678 Y156.022 E77.03452
G1 X45.327 Y155.237 E77.15675
G1 X45.905 Y154.665 E77.25433
G1 X46.685 Y154.011 E77.37648
G1 X47.352 Y153.551 E77.47371
G1 X48.241 Y153.044 E77.59652
G1 X48.977 Y152.713 E77.69336
G1 X49.941 Y152.372 E77.81606
G1 X50.729 Y152.178 E77.91344
G1 X51.717 Y152.018 E78.03355
G1 X52.364 Y151.970 E78.11140
G1 X52.993 Y151.959 E78.18689
G1 X53.763 Y152.004 E78.27945
G1 X54.774 Y152.144 E78.40193
G1 X55.561 Y152.335 E78.49911
G1 X56.529 Y152.653 E78.62138
G1 X57.273 Y152.981 E78.71895
G1 X58.169 Y153.470 E78.84144
G1 X58.838 Y153.922 E78.93832
G1 X59.620 Y154.551 E79.05875
G1 X60.104 Y155.014 E79.13913
G1 X60.599 Y155.560 E79.22757
G1 X61.003 Y156.066 E79.30527
G1 X61.572 Y156.910 E79.42741
G10
G0 F9000 X50.301 Y103.644
;TYPE:WALL-INNER
G11
G1 F1200 X50.318 Y103.690 E79.43330
G1 X48.995 Y103.107 E79.60679
G1 X46.943 Y102.050 E79.88378
G1 X44.837 Y100.803 E80.17748
G1 X43.039 Y99.576 E80.43869
G1 X42.589 Y99.231 E80.50673
G1 X42.643 Y99.222 E80.51330
G1 X42.850 Y99.130 E80.54049
G1 X43.016 Y99.005 E80.56542
G1 X43.180 Y98.834 E80.59385
G1 X43.822 Y97.878 E80.73204
G1 X60.583 Y73.297 E84.30223
G1 X60.720 Y72.985 E84.34312
G1 X60.746 Y72.755 E84.37090
G1 X60.742 Y72.682 E84.37967
G1 X60.744 Y72.574 E84.39263
G1 X60.630 Y72.186 E84.44116
G1 X60.260 Y71.642 E84.52011
G1 X59.994 Y71.181 E84.58398
G1 X59.762 Y70.700 E84.64806
G1 X59.611 Y70.458 E84.68229
G1 X59.404 Y70.269 E84.71593
G1 X59.246 Y70.177 E84.73787
G1 X59.086 Y70.106 E84.75887
G1 X58.895 Y70.060 E84.78245
G1 X58.682 Y70.053 E84.80802
G1 X43.778 Y71.172 E86.60154
G1 X43.160 Y71.217 E86.67589
G1 X40.109 Y71.447 E87.04305
G1 X39.491 Y71.492 E87.11741
G1 X36.440 Y71.722 E87.48457
G1 X35.821 Y71.767 E87.55904
G1 X34.605 Y71.860 E87.70539
G1 X33.987 Y71.905 E87.77974
G1 X30.937 Y72.135 E88.14678
G1 X30.318 Y72.180 E88.22126
G1 X29.105 Y72.272 E88.36724
G1 X27.891 Y72.356 E88.51327
G1 X27.676 Y72.406 E88.53975
G1 X27.430 Y72.505 E88.57158
G1 X27.375 Y72.560 E88.58091
G1 X27.301 Y72.608 E88.59149
G1 X27.248 Y72.671 E88.60137
G1 X27.028 Y70.078 E88.91365
G1 X26.984 Y67.741 E89.19414
G1 X26.981 Y67.615 E89.20926
G1 X27.084 Y65.331 E89.48362
G1 X27.251 Y63.737 E89.67595
G1 X27.287 Y63.781 E89.68277
G1 X27.472 Y63.916 E89.71025
G1 X27.663 Y63.995 E89.73506
G1 X27.892 Y64.052 E89.76338
G1 X29.046 Y64.130 E89.90217
G1 X58.686 Y66.355 E93.46898
G1 X58.884 Y66.349 E93.49275
G1 X59.083 Y66.303 E93.51726
G1 X59.265 Y66.223 E93.54112
G1 X59.523 Y66.044 E93.57880
G1 X59.705 Y65.819 E93.61353
G1 X59.972 Y65.266 E93.68722
G1 X60.260 Y64.764 E93.75667
G1 X60.609 Y64.249 E93.83132
G1 X60.687 Y64.075 E93.85420
G1 X60.743 Y63.818 E93.88577
G1 X60.743 Y63.610 E93.91073
G1 X60.675 Y63.266 E93.95280
G1 X60.257 Y62.630 E94.04413
G1 X50.075 Y47.700 E96.21271
G1 X49.726 Y47.186 E96.28726
G1 X43.858 Y38.583 E97.53691
G1 X43.180 Y37.573 E97.68288
G1 X43.017 Y37.403 E97.71114
G1 X42.855 Y37.280 E97.73555
G1 X42.621 Y37.172 E97.76648
G1 X42.594 Y37.170 E97.76973
G1 X43.775 Y36.313 E97.94483
G1 X45.710 Y35.070 E98.22081
G1 X47.718 Y33.940 E98.49730
G1 X49.814 Y32.921 E98.77697
G1 X50.322 Y32.711 E98.84294
G1 X50.302 Y32.765 E98.84985
G1 X50.278 Y33.008 E98.87915
G1 X50.332 Y33.307 E98.91561
G1 X50.369 Y33.420 E98.92988
G1 X50.877 Y34.456 E99.06834
G1 X63.781 Y61.258 E102.63793
G1 X63.941 Y61.486 E102.67136
G1 X64.172 Y61.675 E102.70717
G1 X64.435 Y61.799 E102.74206
G1 X64.586 Y61.838 E102.76078
G1 X64.765 Y61.855 E102.78236
G1 X65.377 Y61.810 E102.85599
G1 X65.923 Y61.809 E102.92151
G1 X66.423 Y61.848 E102.98170
G1 X66.575 Y61.854 E102.99995
G1 X66.826 Y61.816 E103.03041
G1 X67.010 Y61.748 E103.05395
G1 X67.180 Y61.650 E103.07750
G1 X67.412 Y61.443 E103.11481
