;FLAVOR:UltiGCode
;TIME:8539
;MATERIAL:10766
;MATERIAL2:0
;NOZZLE_DIAMETER:0.400000
;NOZZLE_DIAMETER2:0.400000

;Layer count: 88
;LAYER:0
M107
G0 F9000 X12.318 Y14.629 Z0.300
G0 X14.090 Y16.400
;TYPE:SKIRT
G1 F1200 X16.262 Y14.221 E0.36920
G1 X36.700 Y34.659 E3.83764
G1 X34.226 Y37.135 E4.25766
G1 X188.799 Y191.708 E30.48957
G1 X191.273 Y189.233 E30.90950
G1 X211.708 Y209.667 E34.37735
G1 X209.532 Y211.844 E34.74672
G1 X211.297 Y213.615 E35.04676
G1 X205.932 Y218.981 E35.95731
G1 X203.354 Y221.567 E36.39549
G1 X201.580 Y219.796 E36.69630
G1 X199.402 Y221.968 E37.06541
G1 X178.970 Y201.538 E40.53266
G1 X181.444 Y199.062 E40.95269
G1 X26.872 Y44.489 E67.18451
G1 X24.397 Y46.964 E67.60453
G1 X3.962 Y26.529 E71.07246
G1 X6.135 Y24.355 E71.44132
G1 X4.364 Y22.586 E71.74170
G1 X7.140 Y19.815 E72.21238
G1 X9.318 Y17.636 E72.58208
G1 X9.742 Y17.214 E72.65387
G1 X12.318 Y14.629 E73.09179
G1 X14.090 Y16.400 E73.39243
G10
G0 F9000 X12.765 Y20.447
;TYPE:WALL-INNER
G11
G1 F1200 X13.445 Y21.129 E73.50800
G1 X13.486 Y21.136 E73.51299
G1 X13.491 Y21.145 E73.51422
G1 X13.984 Y21.246 E73.57461
G1 X14.335 Y21.217 E73.61687
G1 X14.817 Y20.996 E73.68050
G1 X15.082 Y20.783 E73.72130
G1 X16.265 Y19.598 E73.92224
G1 X31.327 Y34.660 E76.47834
G1 X30.370 Y35.618 E76.64083
G1 X30.270 Y35.730 E76.65885
G1 X29.999 Y36.082 E76.71216
G1 X29.788 Y36.590 E76.77817
G1 X29.717 Y37.135 E76.84412
G1 X29.788 Y37.680 E76.91007
G1 X29.999 Y38.187 E76.97597
G1 X30.309 Y38.592 E77.03718
G1 X187.342 Y195.625 E103.68656
G1 X187.747 Y195.935 E103.74776
G1 X188.253 Y196.146 E103.81355
G1 X188.799 Y196.217 E103.87962
G1 X189.344 Y196.146 E103.94558
G1 X189.852 Y195.935 E104.01158
G1 X190.256 Y195.625 E104.07269
G1 X191.273 Y194.606 E104.24545
G1 X206.335 Y209.668 E106.80156
G1 X205.151 Y210.852 E107.00249
G1 X205.006 Y211.033 E107.03032
G1 X204.838 Y211.323 E107.07054
G1 X204.731 Y211.606 E107.10684
G1 X204.681 Y211.923 E107.14535
G1 X204.750 Y212.345 E107.19667
G1 X204.800 Y212.410 E107.20651
G1 X204.834 Y212.517 E107.21998
G1 X205.804 Y213.486 E107.38451
G1 X205.929 Y213.610 E107.40564
G1 X203.348 Y216.192 E107.84373
G1 X202.225 Y215.071 E108.03414
G1 X202.187 Y215.064 E108.03878
G1 X202.180 Y215.052 E108.04045
G1 X201.687 Y214.951 E108.10084
G1 X201.335 Y214.980 E108.14322
G1 X201.063 Y215.105 E108.17914
G1 X200.950 Y215.140 E108.19334
G1 X200.596 Y215.407 E108.24654
G1 X199.405 Y216.598 E108.44866
G1 X184.343 Y201.537 E111.00469
G1 X185.312 Y200.568 E111.16913
G1 X185.670 Y200.120 E111.23795
G1 X185.883 Y199.607 E111.30460
G1 X185.954 Y199.062 E111.37055
G1 X185.883 Y198.516 E111.43663
G1 X185.672 Y198.009 E111.50252
G1 X185.361 Y197.604 E111.56380
G1 X28.329 Y40.572 E138.21301
G1 X27.924 Y40.262 E138.27422
G1 X27.417 Y40.051 E138.34012
G1 X26.872 Y39.980 E138.40607
G1 X26.327 Y40.051 E138.47202
G1 X25.820 Y40.262 E138.53792
G1 X25.415 Y40.572 E138.59912
G1 X24.397 Y41.591 E138.77197
G1 X9.335 Y26.529 E141.32807
G1 X10.520 Y25.345 E141.52909
G1 X10.670 Y25.157 E141.55795
G1 X10.846 Y24.832 E141.60230
G1 X10.940 Y24.592 E141.63323
G1 X10.988 Y24.273 E141.67194
G1 X10.921 Y23.853 E141.72298
G1 X10.868 Y23.783 E141.73352
G1 X10.833 Y23.677 E141.74691
G1 X9.742 Y22.587 E141.93198
G1 X12.323 Y20.006 E142.36999
G1 X12.765 Y20.447 E142.44491
G0 F9000 X13.984 Y21.243
G0 X17.856 Y21.967
G1 F1200 X11.705 Y28.120 E143.48894
G1 X15.028 Y31.444 E144.05296
G1 X21.179 Y25.291 E145.09699
G1 X17.856 Y21.967 E145.66100
G0 F9000 X21.097 Y25.291
G0 X21.631 Y30.904
G1 F1200 X21.070 Y31.333 E145.74575
G1 X20.640 Y31.894 E145.83057
G1 X20.370 Y32.547 E145.91537
G1 X20.278 Y33.246 E145.99997
G1 X20.370 Y33.947 E146.08481
G1 X20.640 Y34.598 E146.16938
G1 X21.070 Y35.159 E146.25420
G1 X21.630 Y35.589 E146.33893
G1 X22.282 Y35.860 E146.42366
G1 X22.983 Y35.951 E146.50848
G1 X23.684 Y35.860 E146.59331
G1 X24.336 Y35.589 E146.67804
G1 X24.896 Y35.159 E146.76276
G1 X25.326 Y34.598 E146.84759
G1 X25.596 Y33.947 E146.93216
G1 X25.688 Y33.246 E147.01700
G1 X25.596 Y32.547 E147.10160
G1 X25.326 Y31.894 E147.18640
G1 X24.896 Y31.333 E147.27122
G1 X24.335 Y30.904 E147.35597
G1 X23.684 Y30.634 E147.44054
G1 X22.983 Y30.541 E147.52539
G1 X22.282 Y30.634 E147.61025
G1 X21.631 Y30.904 E147.69482
G0 F9000 X23.683 Y30.635
G0 X25.325 Y31.895
G0 X25.594 Y33.945
G0 X190.775 Y201.038
G1 F1200 X190.345 Y201.598 E147.77955
G1 X190.074 Y202.250 E147.86428
G1 X189.983 Y202.951 E147.94910
G1 X190.074 Y203.650 E148.03369
G1 X190.345 Y204.304 E148.11864
G1 X190.775 Y204.864 E148.20337
G1 X191.336 Y205.293 E148.28812
G1 X191.987 Y205.563 E148.37269
G1 X192.688 Y205.656 E148.45755
G1 X193.388 Y205.563 E148.54228
G1 X194.040 Y205.293 E148.62697
G1 X194.601 Y204.864 E148.71172
G1 X195.030 Y204.303 E148.79646
G1 X195.300 Y203.651 E148.88115
G1 X195.393 Y202.951 E148.96588
G1 X195.300 Y202.250 E149.05074
G1 X195.030 Y201.599 E149.13531
G1 X194.601 Y201.038 E149.22006
G1 X194.041 Y200.608 E149.30479
G1 X193.387 Y200.337 E149.38974
G1 X192.688 Y200.246 E149.47433
G1 X191.987 Y200.337 E149.55915
G1 X191.335 Y200.608 E149.64388
G1 X190.775 Y201.038 E149.72861
G0 F9000 X192.688 Y200.248
G0 X194.600 Y201.040
G0 X200.643 Y204.753
G1 F1200 X194.490 Y210.906 E150.77280
G1 X197.814 Y214.230 E151.33691
G1 X203.965 Y208.077 E152.38094
G1 X200.643 Y204.753 E152.94487
G0 F9000 X200.643 Y205.319
;TYPE:WALL-OUTER
G1 F1200 X195.056 Y210.906 E153.89301
G1 X197.814 Y213.664 E154.36106
G1 X203.400 Y208.077 E155.30912
G1 X200.643 Y205.319 E155.77708
G0 F9000 X200.432 Y205.107
G0 X195.208 Y203.586
G0 X194.911 Y203.546
G1 F1200 X194.990 Y202.951 E155.84911
G1 X194.911 Y202.355 E155.92126
G1 X194.681 Y201.800 E155.99335
G1 X194.316 Y201.323 E156.06542
G1 X193.839 Y200.957 E156.13757
G1 X193.283 Y200.727 E156.20978
G1 X192.688 Y200.649 E156.28179
G1 X192.092 Y200.727 E156.35392
G1 X191.537 Y200.957 E156.42601
G1 X191.060 Y201.323 E156.49816
G1 X190.694 Y201.800 E156.57031
G1 X190.464 Y202.355 E156.64240
G1 X190.386 Y202.951 E156.71453
G1 X190.464 Y203.546 E156.78654
G1 X190.694 Y204.102 E156.85874
G1 X191.060 Y204.579 E156.93089
G1 X191.537 Y204.944 E157.00297
G1 X192.092 Y205.174 E157.07506
G1 X192.688 Y205.253 E157.14720
G1 X193.283 Y205.174 E157.21923
G1 X193.839 Y204.944 E157.29143
G1 X194.316 Y204.579 E157.36351
G1 X194.681 Y204.102 E157.43558
G1 X194.911 Y203.546 E157.50779
G0 F9000 X195.208 Y203.586
G0 X195.299 Y202.251
G0 X194.040 Y200.610
G0 X189.830 Y195.824
G0 X189.650 Y195.586
G1 F1200 X189.991 Y195.324 E157.55939
G1 X191.273 Y194.040 E157.77712
G1 X206.901 Y209.668 E160.42928
G1 X205.450 Y211.119 E160.67553
G1 X205.337 Y211.260 E160.69721
G1 X205.201 Y211.496 E160.72990
G1 X205.120 Y211.709 E160.75724
G1 X205.086 Y211.922 E160.78312
G1 X205.129 Y212.182 E160.81475
G1 X205.161 Y212.224 E160.82108
G1 X205.186 Y212.304 E160.83114
G1 X206.494 Y213.612 E161.05312
G1 X203.348 Y216.758 E161.58701
G1 X202.030 Y215.441 E161.81060
G1 X201.929 Y215.422 E161.82293
G1 X201.921 Y215.407 E161.82497
G1 X201.662 Y215.354 E161.85670
G1 X201.438 Y215.373 E161.88367
G1 X201.203 Y215.480 E161.91466
G1 X201.135 Y215.501 E161.92320
G1 X200.859 Y215.710 E161.96474
G1 X199.405 Y217.164 E162.21149
G1 X183.777 Y201.537 E164.86357
G1 X185.013 Y200.301 E165.07332
G1 X185.322 Y199.915 E165.13266
G1 X185.493 Y199.502 E165.18630
G1 X185.551 Y199.062 E165.23956
G1 X185.493 Y198.621 E165.29293
G1 X185.323 Y198.211 E165.34619
G1 X185.060 Y197.869 E165.39796
G1 X28.065 Y40.873 E192.04098
G1 X27.723 Y40.611 E192.09268
G1 X27.312 Y40.441 E192.14606
G1 X26.872 Y40.383 E192.19931
G1 X26.432 Y40.441 E192.25257
G1 X26.021 Y40.611 E192.30594
G1 X25.679 Y40.873 E192.35764
G1 X24.397 Y42.157 E192.57537
G1 X8.769 Y26.529 E195.22753
G1 X10.221 Y25.078 E195.47386
G1 X10.335 Y24.935 E195.49581
G1 X10.483 Y24.663 E195.53296
G1 X10.551 Y24.488 E195.55549
G1 X10.583 Y24.275 E195.58134
G1 X10.542 Y24.015 E195.61293
G1 X10.509 Y23.973 E195.61934
G1 X10.483 Y23.892 E195.62954
G1 X9.176 Y22.587 E195.85118
G1 X12.323 Y19.440 E196.38524
G1 X13.640 Y20.758 E196.60883
G1 X13.742 Y20.776 E196.62126
G1 X13.750 Y20.790 E196.62319
G1 X14.009 Y20.843 E196.65492
G1 X14.232 Y20.824 E196.68178
G1 X14.605 Y20.653 E196.73102
G1 X14.814 Y20.485 E196.76319
G1 X16.265 Y19.032 E197.00961
G1 X31.893 Y34.660 E199.66177
G1 X30.661 Y35.893 E199.87093
G1 X30.348 Y36.284 E199.93103
G1 X30.178 Y36.695 E199.98440
G1 X30.120 Y37.135 E200.03766
G1 X30.178 Y37.575 E200.09092
G1 X30.348 Y37.986 E200.14429
G1 X30.610 Y38.328 E200.19599
G1 X187.606 Y195.324 E226.83909
G1 X187.948 Y195.586 E226.89079
G1 X188.358 Y195.756 E226.94405
G1 X188.799 Y195.814 E226.99743
G1 X189.239 Y195.756 E227.05068
G1 X189.650 Y195.586 E227.10406
G0 F9000 X189.830 Y195.824
G0 X188.799 Y196.215
G0 X187.343 Y195.625
G0 X24.847 Y35.056
G0 X24.611 Y34.874
G1 F1200 X24.977 Y34.397 E227.17621
G1 X25.206 Y33.842 E227.24825
G1 X25.285 Y33.246 E227.32040
G1 X25.206 Y32.651 E227.39242
G1 X24.977 Y32.095 E227.46458
G1 X24.611 Y31.618 E227.53673
G1 X24.134 Y31.253 E227.60881
G1 X23.579 Y31.023 E227.68090
G1 X22.983 Y30.944 E227.75304
G1 X22.387 Y31.023 E227.82519
G1 X21.832 Y31.253 E227.89728
G1 X21.355 Y31.618 E227.96936
G1 X20.989 Y32.095 E228.04151
G1 X20.760 Y32.651 E228.11366
G1 X20.681 Y33.246 E228.18569
G1 X20.760 Y33.842 E228.25783
G1 X20.989 Y34.397 E228.32988
G1 X21.355 Y34.874 E228.40203
G1 X21.832 Y35.240 E228.47418
G1 X22.387 Y35.470 E228.54627
G1 X22.983 Y35.548 E228.61840
G1 X23.579 Y35.470 E228.69053
G1 X24.134 Y35.240 E228.76262
G1 X24.611 Y34.874 E228.83477
G0 F9000 X24.847 Y35.056
G0 X23.682 Y35.858
G0 X21.631 Y35.587
G0 X20.372 Y33.945
G0 X14.817 Y31.090
G0 X15.028 Y30.878
G1 F1200 X20.614 Y25.291 E229.78283
G1 X17.856 Y22.533 E230.25088
G1 X12.270 Y28.120 E231.19894
G1 X15.028 Y30.878 E231.66699
G0 F9000 X15.273 Y31.395
;TYPE:SKIN
G1 F1200 X24.834 Y40.956 E233.28954
G0 F9000 X24.551 Y41.239
G1 F1200 X9.686 Y26.374 E235.81222
G0 F9000 X9.970 Y26.092
G1 F1200 X11.751 Y27.873 E236.11446
G0 F9000 X12.034 Y27.590
G1 F1200 X10.253 Y25.809 E236.41671
G0 F9000 X10.536 Y25.527
G1 F1200 X12.317 Y27.307 E236.71887
G0 F9000 X12.599 Y27.024
G1 F1200 X10.794 Y25.219 E237.02519
G0 F9000 X10.989 Y24.848
G1 F1200 X12.882 Y26.742 E237.34653
G0 F9000 X13.165 Y26.459
G1 F1200 X11.109 Y24.402 E237.69553
G0 F9000 X11.011 Y23.738
G1 F1200 X13.448 Y26.176 E238.10918
G0 F9000 X13.731 Y25.893
G1 F1200 X10.182 Y22.344 E238.71147
G0 F9000 X10.465 Y22.061
G1 F1200 X14.014 Y25.610 E239.31375
G0 F9000 X14.296 Y25.327
G1 F1200 X10.748 Y21.778 E239.91595
G0 F9000 X11.030 Y21.496
G1 F1200 X14.579 Y25.045 E240.51824
G0 F9000 X14.862 Y24.762
G1 F1200 X11.313 Y21.213 E241.12053
G0 F9000 X11.596 Y20.930
G1 F1200 X15.145 Y24.479 E241.72281
G0 F9000 X15.428 Y24.196
G1 F1200 X11.879 Y20.647 E242.32510
G0 F9000 X12.162 Y20.364
G1 F1200 X15.711 Y23.913 E242.92738
G0 F9000 X15.994 Y23.630
G1 F1200 X13.691 Y21.328 E243.31813
G0 F9000 X14.289 Y21.360
G1 F1200 X16.276 Y23.347 E243.65533
G0 F9000 X16.559 Y23.065
G1 F1200 X14.697 Y21.203 E243.97133
G0 F9000 X15.048 Y20.988
G1 F1200 X16.842 Y22.782 E244.27578
G0 F9000 X17.125 Y22.499
G1 F1200 X15.344 Y20.718 E244.57802
G0 F9000 X15.627 Y20.435
G1 F1200 X17.408 Y22.216 E244.88027
G0 F9000 X17.691 Y21.933
G1 F1200 X15.909 Y20.151 E245.18268
G0 F9000 X21.097 Y25.291
G0 X19.798 Y26.869
G1 F1200 X23.379 Y30.450 E245.79040
G0 F9000 X22.786 Y30.423
G1 F1200 X19.515 Y27.152 E246.34551
G0 F9000 X19.232 Y27.435
G1 F1200 X22.288 Y30.490 E246.86404
G0 F9000 X21.879 Y30.647
G1 F1200 X18.949 Y27.717 E247.36128
G0 F9000 X18.666 Y28.000
G1 F1200 X21.496 Y30.829 E247.84146
G0 F9000 X21.175 Y31.075
G1 F1200 X18.384 Y28.283 E248.31520
G0 F9000 X18.101 Y28.567
G1 F1200 X20.882 Y31.347 E248.78706
G0 F9000 X20.636 Y31.667
G1 F1200 X17.819 Y28.849 E249.26521
G0 F9000 X17.536 Y29.132
G1 F1200 X20.432 Y32.029 E249.75676
G0 F9000 X20.267 Y32.429
G1 F1200 X17.253 Y29.415 E250.26825
G0 F9000 X16.970 Y29.698
G1 F1200 X20.180 Y32.908 E250.81301
G0 F9000 X20.163 Y33.457
G1 F1200 X16.687 Y29.981 E251.40290
G0 F9000 X16.404 Y30.264
G1 F1200 X20.311 Y34.170 E252.06586
G0 F9000 X22.060 Y35.919
G1 F1200 X26.123 Y39.982 E252.75537
G0 F9000 X26.581 Y39.875
G1 F1200 X22.771 Y36.065 E253.40195
G0 F9000 X23.321 Y36.049
G1 F1200 X27.145 Y39.873 E254.05091
G0 F9000 X27.961 Y40.124
G1 F1200 X23.801 Y35.963 E254.75697
G0 F9000 X24.200 Y35.797
G1 F1200 X190.136 Y201.733 E282.91724
G0 F9000 X190.341 Y201.372
G1 F1200 X24.560 Y35.591 E311.05121
G0 F9000 X24.880 Y35.346
G1 F1200 X190.587 Y201.052 E339.17253
G0 F9000 X190.879 Y200.779
G1 F1200 X25.153 Y35.052 E367.29725
G0 F9000 X25.398 Y34.732
G1 F1200 X191.200 Y200.534 E395.43479
G0 F9000 X191.583 Y200.351
G1 F1200 X25.581 Y34.349 E423.60626
G0 F9000 X25.737 Y33.940
G1 F1200 X29.749 Y37.951 E424.28703
G0 F9000 X29.587 Y37.224
G1 F1200 X25.804 Y33.441 E424.92903
G0 F9000 X25.777 Y32.848
G1 F1200 X29.632 Y36.703 E425.58324
G0 F9000 X29.767 Y36.273
G1 F1200 X25.541 Y32.046 E426.30051
G0 F9000 X24.183 Y30.688
G1 F1200 X20.081 Y26.586 E426.99664
G0 F9000 X20.363 Y26.303
G1 F1200 X29.962 Y35.901 E428.62556
G0 F9000 X30.211 Y35.585
G1 F1200 X20.646 Y26.020 E430.24879
G0 F9000 X20.929 Y25.737
G1 F1200 X30.490 Y35.298 E431.87135
G0 F9000 X30.773 Y35.015
G1 F1200 X21.212 Y25.455 E433.49382
G0 F9000 X16.192 Y19.868
G1 F1200 X31.056 Y34.733 E436.01641
G0 F9000 X25.728 Y40.153
G1 F1200 X16.122 Y30.547 E437.64660
G0 F9000 X15.839 Y30.829
G1 F1200 X25.408 Y40.399 E439.27060
G0 F9000 X25.116 Y40.672
G1 F1200 X15.556 Y31.112 E440.89298
G0 F9000 X28.328 Y40.572
G0 X185.807 Y197.970
G1 F1200 X189.970 Y202.132 E441.59938
G0 F9000 X189.885 Y202.612
G1 F1200 X186.059 Y198.787 E442.24859
G0 F9000 X186.057 Y199.351
G1 F1200 X189.868 Y203.162 E442.89534
G0 F9000 X190.015 Y203.874
G1 F1200 X185.949 Y199.809 E443.58528
G0 F9000 X187.982 Y196.185
G1 F1200 X191.990 Y200.193 E444.26546
G0 F9000 X192.491 Y200.128
G1 F1200 X188.709 Y196.346 E444.90729
G0 F9000 X189.230 Y196.302
G1 F1200 X193.083 Y200.154 E445.56108
G0 F9000 X193.885 Y200.391
G1 F1200 X189.660 Y196.166 E446.27808
G0 F9000 X190.032 Y195.971
G1 F1200 X199.628 Y205.567 E447.90658
G0 F9000 X199.911 Y205.285
G1 F1200 X190.351 Y195.725 E449.52896
G0 F9000 X190.634 Y195.442
G1 F1200 X200.193 Y205.002 E451.15126
G0 F9000 X200.476 Y204.719
G1 F1200 X190.917 Y195.160 E452.77348
G0 F9000 X191.200 Y194.877
G1 F1200 X206.063 Y209.740 E455.29582
G0 F9000 X205.780 Y210.023
G1 F1200 X203.998 Y208.241 E455.59823
G0 F9000 X203.716 Y208.524
G1 F1200 X205.497 Y210.305 E455.90048
G0 F9000 X205.214 Y210.588
G1 F1200 X203.433 Y208.807 E456.20272
G0 F9000 X203.150 Y209.090
G1 F1200 X204.945 Y210.884 E456.50726
G0 F9000 X204.728 Y211.234
G1 F1200 X202.867 Y209.372 E456.82317
G0 F9000 X202.584 Y209.655
G1 F1200 X204.582 Y211.653 E457.16224
G0 F9000 X204.589 Y212.226
G1 F1200 X202.301 Y209.938 E457.55052
G0 F9000 X202.018 Y210.221
G1 F1200 X205.570 Y213.772 E458.15323
G0 F9000 X205.287 Y214.055
G1 F1200 X201.736 Y210.504 E458.75586
G0 F9000 X201.453 Y210.787
G1 F1200 X205.004 Y214.338 E459.35848
G0 F9000 X204.721 Y214.621
G1 F1200 X201.170 Y211.069 E459.96119
G0 F9000 X200.887 Y211.352
G1 F1200 X204.438 Y214.903 E460.56382
G0 F9000 X204.155 Y215.186
G1 F1200 X200.604 Y211.635 E461.16644
G0 F9000 X200.321 Y211.918
G1 F1200 X203.873 Y215.469 E461.76915
G0 F9000 X203.590 Y215.752
G1 F1200 X200.039 Y212.201 E462.37178
G0 F9000 X199.756 Y212.484
G1 F1200 X202.180 Y214.908 E462.78314
G0 F9000 X201.528 Y214.822
G1 F1200 X199.473 Y212.767 E463.13189
G0 F9000 X199.190 Y213.049
G1 F1200 X201.081 Y214.940 E463.45280
G0 F9000 X200.715 Y215.140
G1 F1200 X198.907 Y213.332 E463.75963
G0 F9000 X198.624 Y213.615
G1 F1200 X200.406 Y215.397 E464.06204
G0 F9000 X200.123 Y215.680
G1 F1200 X198.342 Y213.898 E464.36438
G0 F9000 X198.059 Y214.181
G1 F1200 X199.841 Y215.963 E464.66679
G0 F9000 X199.558 Y216.246
G1 F1200 X184.694 Y201.382 E467.18929
G0 F9000 X184.978 Y201.100
G1 F1200 X194.537 Y210.659 E468.81151
G0 F9000 X194.819 Y210.376
G1 F1200 X185.261 Y200.817 E470.43364
G0 F9000 X185.529 Y200.519
G1 F1200 X195.102 Y210.093 E472.05832
G0 F9000 X195.385 Y209.810
G1 F1200 X185.780 Y200.205 E473.68834
