;FLAVOR:UltiGCode
;TIME:4774
;MATERIAL:5411
;MATERIAL2:0
;NOZZLE_DIAMETER:0.400000
;NOZZLE_DIAMETER2:0.400000

;Layer count: 63
;LAYER:0
M107
G0 F9000 X70.121 Y69.276 Z0.300
;TYPE:SKIRT
G1 F1200 X71.435 Y67.942 E0.22470
G1 X72.799 Y66.658 E0.44949
G1 X74.190 Y65.404 E0.67423
G1 X75.630 Y64.205 E0.89908
G1 X77.095 Y63.036 E1.12399
G1 X78.603 Y61.927 E1.34862
G1 X80.134 Y60.848 E1.57338
G1 X81.708 Y59.831 E1.79826
G1 X83.301 Y58.846 E2.02301
G1 X84.934 Y57.926 E2.24793
G1 X86.583 Y57.038 E2.47268
G1 X88.268 Y56.218 E2.69755
G1 X89.966 Y55.431 E2.92213
G1 X91.699 Y54.713 E3.14723
G1 X93.443 Y54.030 E3.37199
G1 X95.212 Y53.419 E3.59657
G1 X96.993 Y52.840 E3.82130
G1 X98.798 Y52.336 E4.04619
G1 X100.611 Y51.865 E4.27097
G1 X102.444 Y51.471 E4.49596
G1 X104.282 Y51.110 E4.72073
G1 X106.133 Y50.827 E4.94543
G1 X107.990 Y50.576 E5.17030
G1 X109.855 Y50.407 E5.39501
G1 X111.722 Y50.267 E5.61968
G1 X113.596 Y50.210 E5.84467
G1 X115.468 Y50.182 E6.06933
G1 X117.342 Y50.238 E6.29431
G1 X119.212 Y50.324 E6.51895
G1 X121.078 Y50.492 E6.74378
G1 X122.940 Y50.688 E6.96845
G1 X124.793 Y50.970 E7.19337
G1 X126.640 Y51.278 E7.41807
G1 X128.472 Y51.670 E7.64289
G1 X130.298 Y52.087 E7.86765
G1 X132.104 Y52.590 E8.09262
G1 X133.901 Y53.116 E8.31731
G1 X135.672 Y53.726 E8.54208
G1 X137.435 Y54.359 E8.76686
G1 X139.166 Y55.075 E8.99165
G1 X140.888 Y55.811 E9.21637
G1 X142.573 Y56.631 E9.44125
G1 X144.248 Y57.470 E9.66605
G1 X145.880 Y58.390 E9.89087
G1 X147.503 Y59.327 E10.11575
G1 X149.076 Y60.344 E10.34053
G1 X150.639 Y61.376 E10.56528
G1 X152.148 Y62.486 E10.79008
G1 X153.647 Y63.610 E11.01491
G1 X155.085 Y64.809 E11.23958
G1 X156.515 Y66.020 E11.46445
G1 X157.879 Y67.305 E11.68932
G1 X159.232 Y68.599 E11.91398
G1 X160.517 Y69.963 E12.13886
G1 X161.790 Y71.336 E12.36354
G1 X162.991 Y72.775 E12.58846
G1 X164.181 Y74.223 E12.81337
G1 X165.290 Y75.732 E13.03809
G1 X166.391 Y77.246 E13.26273
G1 X167.409 Y78.819 E13.48757
G1 X168.417 Y80.398 E13.71237
G1 X169.337 Y82.030 E13.93719
G1 X170.249 Y83.666 E14.16195
G1 X171.070 Y85.350 E14.38677
G1 X171.882 Y87.038 E14.61154
G1 X172.599 Y88.768 E14.83627
G1 X173.310 Y90.502 E15.06116
G1 X173.922 Y92.273 E15.28601
G1 X174.527 Y94.046 E15.51082
G1 X175.030 Y95.851 E15.73567
G1 X175.528 Y97.656 E15.96036
G1 X175.921 Y99.489 E16.18532
G1 X176.311 Y101.321 E16.41009
G1 X176.592 Y103.172 E16.63475
G1 X176.871 Y105.023 E16.85938
G1 X177.042 Y106.891 E17.08448
G1 X177.209 Y108.757 E17.30929
G1 X177.266 Y110.629 E17.53404
G1 X177.321 Y112.500 E17.75866
G1 X177.210 Y116.244 E18.20813
G1 X176.872 Y119.975 E18.65769
G1 X176.593 Y121.828 E18.88255
G1 X176.310 Y123.680 E19.10737
G1 X175.921 Y125.511 E19.33200
G1 X175.528 Y127.343 E19.55684
G1 X175.031 Y129.148 E19.78150
G1 X174.527 Y130.954 E20.00650
G1 X173.922 Y132.726 E20.23119
G1 X173.310 Y134.498 E20.45616
G1 X172.600 Y136.230 E20.68078
G1 X171.883 Y137.961 E20.90562
G1 X171.070 Y139.649 E21.13045
G1 X170.250 Y141.334 E21.35532
G1 X169.338 Y142.970 E21.58008
G1 X168.417 Y144.602 E21.80496
G1 X167.409 Y146.180 E22.02965
G1 X166.392 Y147.753 E22.25443
G1 X165.291 Y149.269 E22.47926
G1 X164.180 Y150.778 E22.70413
G1 X162.991 Y152.224 E22.92877
G1 X161.792 Y153.664 E23.15363
G1 X160.518 Y155.037 E23.37840
G1 X159.233 Y156.402 E23.60336
G1 X157.879 Y157.696 E23.82811
G1 X156.515 Y158.980 E24.05290
G1 X155.087 Y160.190 E24.27750
G1 X153.647 Y161.391 E24.50252
G1 X152.148 Y162.514 E24.72728
G1 X150.639 Y163.625 E24.95214
G1 X149.076 Y164.656 E25.17683
G1 X147.503 Y165.674 E25.40167
G1 X145.881 Y166.610 E25.62639
G1 X144.248 Y167.531 E25.85137
G1 X142.573 Y168.368 E26.07607
G1 X140.890 Y169.188 E26.30073
G1 X139.168 Y169.924 E26.52545
G1 X137.435 Y170.642 E26.75055
G1 X135.673 Y171.273 E26.97514
G1 X133.902 Y171.885 E27.19999
G1 X132.104 Y172.410 E27.42476
G1 X130.298 Y172.914 E27.64976
G1 X128.473 Y173.329 E27.87435
G1 X126.640 Y173.724 E28.09936
G1 X124.793 Y174.029 E28.32400
G1 X122.941 Y174.312 E28.54882
G1 X121.078 Y174.507 E28.77361
G1 X119.212 Y174.678 E28.99846
G1 X117.341 Y174.761 E29.22320
G1 X115.468 Y174.818 E29.44807
G1 X113.597 Y174.789 E29.67262
G1 X111.724 Y174.733 E29.89748
G1 X109.856 Y174.593 E30.12226
G1 X107.990 Y174.423 E30.34711
G1 X106.134 Y174.172 E30.57186
G1 X104.283 Y173.890 E30.79654
G1 X102.444 Y173.528 E31.02146
G1 X100.612 Y173.135 E31.24630
G1 X98.800 Y172.664 E31.47096
G1 X96.995 Y172.161 E31.69582
G1 X95.213 Y171.582 E31.92066
G1 X93.442 Y170.971 E32.14547
G1 X91.699 Y170.287 E32.37016
G1 X89.968 Y169.570 E32.59500
G1 X88.267 Y168.782 E32.81996
G1 X86.584 Y167.962 E33.04461
G1 X84.935 Y167.075 E33.26930
G1 X83.302 Y166.154 E33.49428
G1 X81.709 Y165.170 E33.71897
G1 X80.135 Y164.152 E33.94391
G1 X78.604 Y163.074 E34.16860
G1 X77.096 Y161.964 E34.39330
G1 X75.631 Y160.796 E34.61814
G1 X74.191 Y159.596 E34.84307
G1 X72.799 Y158.343 E35.06782
G1 X71.436 Y157.059 E35.29252
G1 X70.121 Y155.725 E35.51730
G1 X68.837 Y154.361 E35.74210
G1 X67.604 Y152.951 E35.96686
G1 X66.404 Y151.510 E36.19189
G1 X65.259 Y150.029 E36.41653
G1 X64.149 Y148.520 E36.64132
G1 X63.093 Y146.972 E36.86619
G1 X62.076 Y145.399 E37.09097
G1 X61.115 Y143.790 E37.31586
G1 X60.196 Y142.159 E37.54051
G1 X59.332 Y140.497 E37.76529
G1 X58.512 Y138.813 E37.99006
G1 X57.750 Y137.101 E38.21493
G1 X57.033 Y135.369 E38.43987
G1 X56.375 Y133.616 E38.66456
G1 X55.764 Y131.846 E38.88926
G1 X55.211 Y130.056 E39.11408
G1 X54.707 Y128.250 E39.33908
G1 X54.265 Y126.431 E39.56371
G1 X53.870 Y124.598 E39.78872
G1 X53.537 Y122.756 E40.01335
G1 X53.255 Y120.904 E40.23815
G1 X53.031 Y119.045 E40.46284
G1 X52.862 Y117.178 E40.68780
G1 X52.750 Y115.309 E40.91248
G1 X52.693 Y113.437 E41.13722
G1 X52.693 Y111.564 E41.36198
G1 X52.749 Y109.691 E41.58684
G1 X52.862 Y107.822 E41.81153
G1 X53.031 Y105.956 E42.03637
G1 X53.255 Y104.097 E42.26106
G1 X53.536 Y102.244 E42.48597
G1 X53.872 Y100.402 E42.71065
G1 X54.264 Y98.570 E42.93547
G1 X54.709 Y96.750 E43.16030
G1 X55.211 Y94.945 E43.38512
G1 X55.763 Y93.156 E43.60979
G1 X56.374 Y91.384 E43.83472
G1 X57.032 Y89.631 E44.05941
G1 X57.750 Y87.900 E44.28429
G1 X58.511 Y86.189 E44.50900
G1 X59.332 Y84.503 E44.73403
G1 X60.195 Y82.841 E44.95876
G1 X61.115 Y81.210 E45.18347
G1 X62.075 Y79.601 E45.40830
G1 X63.094 Y78.027 E45.63331
G1 X64.149 Y76.481 E45.85791
G1 X65.258 Y74.972 E46.08263
G1 X66.403 Y73.490 E46.30737
G1 X67.604 Y72.050 E46.53238
G1 X68.837 Y70.639 E46.75724
G1 X70.121 Y69.276 E46.98194
G10
G0 F9000 X72.863 Y71.907
;TYPE:WALL-INNER
G11
G1 F1200 X74.083 Y70.668 E47.19060
G1 X75.369 Y69.458 E47.40249
G1 X76.688 Y68.269 E47.61559
G1 X78.026 Y67.154 E47.82459
G1 X79.415 Y66.046 E48.03781
G1 X80.819 Y65.014 E48.24690
G1 X82.251 Y64.005 E48.45712
G1 X83.744 Y63.040 E48.67044
G1 X85.224 Y62.125 E48.87924
G1 X86.773 Y61.252 E49.09261
G1 X88.305 Y60.426 E49.30147
G1 X89.904 Y59.649 E49.51480
G1 X91.482 Y58.916 E49.72360
G1 X93.114 Y58.240 E49.93557
G1 X94.768 Y57.592 E50.14874
G1 X96.414 Y57.024 E50.35769
G1 X98.096 Y56.477 E50.56994
G1 X99.782 Y56.007 E50.77997
G1 X101.487 Y55.564 E50.99136
G1 X103.215 Y55.193 E51.20345
G1 X104.948 Y54.852 E51.41540
G1 X106.669 Y54.590 E51.62430
G1 X108.415 Y54.354 E51.83572
G1 X110.174 Y54.194 E52.04767
G1 X111.909 Y54.063 E52.25647
G1 X113.686 Y54.009 E52.46980
G1 X115.435 Y53.983 E52.67971
G1 X117.203 Y54.036 E52.89196
G1 X118.941 Y54.115 E53.10074
G1 X120.712 Y54.275 E53.31412
G1 X122.467 Y54.460 E53.52589
G1 X124.191 Y54.722 E53.73515
G1 X125.927 Y55.011 E53.94633
G1 X127.654 Y55.381 E54.15828
G1 X129.368 Y55.773 E54.36927
G1 X131.056 Y56.243 E54.57953
G1 X132.755 Y56.740 E54.79196
G1 X134.407 Y57.310 E55.00166
G1 X136.079 Y57.910 E55.21483
G1 X137.689 Y58.576 E55.42391
G1 X139.303 Y59.267 E55.63459
G1 X140.888 Y60.038 E55.84610
G1 X142.466 Y60.828 E56.05787
G1 X143.994 Y61.689 E56.26833
G1 X145.521 Y62.571 E56.47994
G1 X146.995 Y63.524 E56.69057
G1 X148.477 Y64.503 E56.90371
G1 X149.880 Y65.535 E57.11271
G1 X151.289 Y66.592 E57.32408
G1 X152.639 Y67.717 E57.53496
G1 X153.987 Y68.859 E57.74696
G1 X155.261 Y70.060 E57.95706
G1 X156.545 Y71.288 E58.17027
G1 X157.739 Y72.556 E58.37927
G1 X158.937 Y73.847 E58.59062
G1 X160.065 Y75.200 E58.80200
G1 X161.183 Y76.559 E59.01317
G1 X162.222 Y77.973 E59.22373
G1 X163.252 Y79.391 E59.43405
G1 X164.211 Y80.873 E59.64587
G1 X165.157 Y82.353 E59.85665
G1 X166.023 Y83.890 E60.06836
G1 X166.880 Y85.427 E60.27953
G1 X167.649 Y87.005 E60.49018
G1 X168.415 Y88.597 E60.70218
G1 X169.086 Y90.216 E60.91249
G1 X169.754 Y91.845 E61.12376
G1 X170.327 Y93.506 E61.33461
G1 X170.897 Y95.174 E61.54614
G1 X171.368 Y96.866 E61.75690
G1 X171.832 Y98.544 E61.96581
G1 X172.205 Y100.282 E62.17912
G1 X172.572 Y102.008 E62.39087
G1 X173.095 Y105.463 E62.81019
G1 X173.257 Y107.232 E63.02336
G1 X173.414 Y108.985 E63.23456
G1 X173.519 Y112.500 E63.65655
G1 X173.415 Y116.013 E64.07830
G1 X173.097 Y119.530 E64.50206
G1 X172.572 Y122.992 E64.92225
G1 X172.205 Y124.717 E65.13388
G1 X171.832 Y126.453 E65.34696
G1 X171.370 Y128.132 E65.55592
G1 X170.897 Y129.825 E65.76686
G1 X170.328 Y131.491 E65.97812
G1 X169.754 Y133.155 E66.18935
G1 X169.086 Y134.783 E66.40052
G1 X168.420 Y136.394 E66.60970
G1 X167.650 Y137.991 E66.82246
G1 X166.873 Y139.588 E67.03558
G1 X166.025 Y141.109 E67.24455
G1 X165.157 Y142.646 E67.45637
G1 X164.213 Y144.124 E67.66681
G1 X163.253 Y145.609 E67.87901
G1 X162.225 Y147.024 E68.08889
G1 X161.176 Y148.450 E68.30132
G1 X160.065 Y149.800 E68.51113
G1 X158.938 Y151.153 E68.72243
G1 X157.743 Y152.441 E68.93327
G1 X156.546 Y153.713 E69.14287
G1 X155.262 Y154.940 E69.35599
G1 X153.987 Y156.141 E69.56618
G1 X152.644 Y157.280 E69.77749
G1 X151.290 Y158.409 E69.98905
G1 X149.884 Y159.462 E70.19984
G1 X148.463 Y160.508 E70.41158
G1 X147.000 Y161.473 E70.62189
G1 X145.521 Y162.430 E70.83328
G1 X144.000 Y163.307 E71.04397
G1 X142.459 Y164.177 E71.25632
G1 X140.889 Y164.961 E71.46691
G1 X139.323 Y165.725 E71.67600
G1 X137.690 Y166.423 E71.88911
G1 X136.070 Y167.095 E72.09957
G1 X134.415 Y167.687 E72.31049
G1 X132.749 Y168.263 E72.52203
G1 X131.064 Y168.755 E72.73267
G1 X129.363 Y169.230 E72.94460
G1 X127.655 Y169.618 E73.15478
G1 X125.923 Y169.990 E73.36736
G1 X124.192 Y170.277 E73.57792
G1 X122.465 Y170.541 E73.78756
G1 X120.711 Y170.724 E73.99919
G1 X118.940 Y170.886 E74.21259
G1 X117.203 Y170.964 E74.42124
G1 X115.435 Y171.017 E74.63350
G1 X113.687 Y170.990 E74.84328
G1 X111.910 Y170.937 E75.05662
G1 X110.175 Y170.807 E75.26540
G1 X108.419 Y170.646 E75.47700
G1 X106.671 Y170.409 E75.68868
G1 X104.947 Y170.148 E75.89792
G1 X103.213 Y169.807 E76.10999
G1 X101.488 Y169.436 E76.32172
G1 X99.783 Y168.993 E76.53311
G1 X98.097 Y168.524 E76.74312
G1 X96.415 Y167.977 E76.95536
G1 X94.745 Y167.401 E77.16735
G1 X93.115 Y166.761 E77.37748
G1 X91.495 Y166.091 E77.58785
G1 X89.904 Y165.353 E77.79831
G1 X88.312 Y164.577 E78.01084
G1 X86.774 Y163.750 E78.22039
G1 X85.232 Y162.879 E78.43291
G1 X83.734 Y161.954 E78.64418
G1 X82.259 Y160.999 E78.85504
G1 X80.819 Y159.986 E79.06631
G1 X79.398 Y158.940 E79.27805
G1 X78.027 Y157.847 E79.48845
G1 X76.671 Y156.716 E79.70034
G1 X75.368 Y155.543 E79.91073
G1 X74.084 Y154.333 E80.12244
G1 X72.863 Y153.094 E80.33119
G1 X71.658 Y151.814 E80.54214
G1 X70.490 Y150.478 E80.75509
G1 X69.373 Y149.137 E80.96452
G1 X68.289 Y147.735 E81.17719
G1 X67.253 Y146.327 E81.38696
G1 X66.255 Y144.864 E81.59947
G1 X65.298 Y143.383 E81.81107
G1 X64.406 Y141.889 E82.01987
G1 X63.533 Y140.340 E82.23324
G1 X62.723 Y138.782 E82.44396
G1 X61.958 Y137.211 E82.65364
G1 X61.238 Y135.594 E82.86605
G1 X60.572 Y133.984 E83.07513
G1 X59.948 Y132.321 E83.28827
G1 X59.373 Y130.656 E83.49965
G1 X58.860 Y128.993 E83.70849
G1 X58.382 Y127.280 E83.92190
G1 X57.971 Y125.590 E84.13061
G1 X57.597 Y123.851 E84.34406
G1 X57.284 Y122.123 E84.55480
G1 X57.022 Y120.400 E84.76394
G1 X56.810 Y118.637 E84.97702
G1 X56.651 Y116.884 E85.18824
G1 X56.546 Y115.129 E85.39922
G1 X56.493 Y113.370 E85.61040
G1 X56.493 Y111.630 E85.81920
G1 X56.545 Y109.871 E86.03037
G1 X56.651 Y108.117 E86.24123
G1 X56.810 Y106.364 E86.45246
G1 X57.022 Y104.600 E86.66566
G1 X57.283 Y102.878 E86.87466
G1 X57.598 Y101.149 E87.08555
G1 X57.966 Y99.428 E87.29674
G1 X58.388 Y97.702 E87.50996
G1 X58.860 Y96.007 E87.72110
G1 X59.372 Y94.345 E87.92979
G1 X59.947 Y92.679 E88.14128
G1 X60.571 Y91.017 E88.35432
G1 X61.238 Y89.407 E88.56344
G1 X61.960 Y87.784 E88.77660
G1 X62.724 Y86.217 E88.98580
G1 X63.532 Y84.660 E89.19630
G1 X64.406 Y83.111 E89.40973
G1 X65.297 Y81.617 E89.61847
G1 X66.255 Y80.136 E89.83013
G1 X67.256 Y78.669 E90.04325
G1 X68.287 Y77.266 E90.25218
G1 X69.374 Y75.861 E90.46535
G1 X70.490 Y74.523 E90.67443
G1 X71.659 Y73.185 E90.88764
G1 X72.863 Y71.907 E91.09833
G0 F9000 X73.497 Y71.626
G1 F1200 X71.083 Y74.232 E91.52461
G1 X68.832 Y76.981 E91.95097
G1 X66.752 Y79.861 E92.37728
G1 X64.852 Y82.864 E92.80371
G1 X63.139 Y85.976 E93.22999
G1 X61.618 Y89.187 E93.65635
G1 X60.296 Y92.485 E94.08272
G1 X59.178 Y95.857 E94.50902
G1 X58.266 Y99.291 E94.93539
G1 X57.567 Y102.775 E95.36180
G1 X57.081 Y106.293 E95.78797
G1 X56.958 Y107.928 E95.98472
G1 X56.810 Y109.836 E96.21437
G1 X56.756 Y113.388 E96.64066
G1 X56.918 Y116.938 E97.06710
G1 X57.296 Y120.470 E97.49336
G1 X57.891 Y123.973 E97.91974
G1 X58.696 Y127.433 E98.34603
G1 X59.711 Y130.838 E98.77240
G1 X60.932 Y134.174 E99.19869
G1 X62.354 Y137.430 E99.62505
G1 X63.972 Y140.594 E100.05149
G1 X65.779 Y143.653 E100.47783
G1 X67.770 Y146.595 E100.90412
G1 X69.937 Y149.412 E101.33061
G1 X72.271 Y152.090 E101.75689
G1 X74.764 Y154.620 E102.18312
G1 X77.407 Y156.996 E102.60960
G1 X80.189 Y159.204 E103.03580
G1 X83.102 Y161.240 E103.46228
G1 X86.132 Y163.093 E103.88849
G1 X89.270 Y164.760 E104.31488
G1 X92.504 Y166.232 E104.74127
G1 X95.822 Y167.503 E105.16764
G1 X99.210 Y168.570 E105.59389
G1 X100.801 Y168.964 E105.79058
G1 X102.658 Y169.428 E106.02027
G1 X104.269 Y169.725 E106.21685
G1 X106.151 Y170.075 E106.44656
G1 X109.678 Y170.507 E106.87296
G1 X113.224 Y170.724 E107.29928
G1 X116.777 Y170.724 E107.72564
G1 X120.323 Y170.507 E108.15195
G1 X123.849 Y170.075 E108.57824
G1 X127.342 Y169.428 E109.00453
G1 X130.791 Y168.570 E109.43102
G1 X134.179 Y167.503 E109.85727
G1 X137.497 Y166.232 E110.28364
G1 X140.730 Y164.759 E110.70997
G1 X143.869 Y163.093 E111.13641
G1 X146.899 Y161.240 E111.56262
G1 X149.811 Y159.204 E111.98900
G1 X152.594 Y156.995 E112.41537
G1 X155.237 Y154.620 E112.84177
G1 X157.730 Y152.090 E113.26800
G1 X160.064 Y149.411 E113.69437
G1 X162.230 Y146.594 E114.12079
G1 X164.221 Y143.653 E114.54698
G1 X165.053 Y142.241 E114.74364
G1 X166.028 Y140.594 E114.97332
G1 X167.647 Y137.430 E115.39982
G1 X169.068 Y134.174 E115.82613
G1 X170.289 Y130.838 E116.25242
G1 X171.304 Y127.432 E116.67890
G1 X171.675 Y125.835 E116.87564
G1 X172.110 Y123.973 E117.10510
G1 X172.704 Y120.470 E117.53146
G1 X173.082 Y116.937 E117.95784
G1 X173.244 Y113.388 E118.38416
G1 X173.190 Y109.836 E118.81045
G1 X172.919 Y106.293 E119.23685
G1 X172.433 Y102.775 E119.66302
G1 X171.734 Y99.291 E120.08943
G1 X170.822 Y95.856 E120.51592
G1 X169.704 Y92.485 E120.94210
G1 X168.382 Y89.187 E121.36847
G1 X166.860 Y85.975 E121.79500
G1 X165.148 Y82.864 E122.22111
G1 X163.248 Y79.860 E122.64764
G1 X161.168 Y76.981 E123.07385
G1 X158.917 Y74.232 E123.50022
G1 X156.503 Y71.626 E123.92649
G1 X153.933 Y69.172 E124.35290
G1 X151.219 Y66.879 E124.77926
G1 X148.371 Y64.755 E125.20560
G1 X145.398 Y62.810 E125.63192
G1 X142.312 Y61.050 E126.05824
G1 X140.842 Y60.327 E126.25482
G1 X139.125 Y59.480 E126.48456
G1 X135.846 Y58.107 E126.91115
G1 X132.493 Y56.938 E127.33726
G1 X129.073 Y55.974 E127.76365
G1 X127.470 Y55.628 E127.96044
G1 X125.600 Y55.222 E128.19007
G1 X122.090 Y54.682 E128.61622
G1 X118.551 Y54.358 E129.04268
G1 X115.000 Y54.250 E129.46900
G1 X111.449 Y54.358 E129.89531
G1 X107.910 Y54.682 E130.32177
G1 X104.399 Y55.222 E130.74804
G1 X100.927 Y55.975 E131.17437
G1 X97.507 Y56.938 E131.60073
G1 X94.153 Y58.108 E132.02700
G1 X90.875 Y59.480 E132.45342
G1 X87.688 Y61.050 E132.87975
G1 X84.602 Y62.810 E133.30606
G1 X81.629 Y64.755 E133.73239
G1 X78.780 Y66.879 E134.15882
G1 X76.067 Y69.173 E134.58516
