;FLAVOR:UltiGCode
;TIME:3256
;MATERIAL:3707
;MATERIAL2:0
;NOZZLE_DIAMETER:0.400000
;NOZZLE_DIAMETER2:0.400000

;Layer count: 78
;LAYER:0
M107
G0 F9000 X79.800 Y40.599 Z0.300
;TYPE:SKIRT
G1 F1200 X89.300 Y40.599 E1.14000
G1 X89.300 Y36.599 E1.62000
G1 X98.700 Y36.599 E2.74800
G1 X98.700 Y40.599 E3.22800
G1 X113.048 Y40.599 E4.94976
G1 X115.004 Y40.657 E5.18458
G1 X116.922 Y40.831 E5.41569
G1 X118.901 Y41.128 E5.65583
G1 X120.863 Y41.544 E5.89650
G1 X122.797 Y42.077 E6.13723
G1 X124.695 Y42.727 E6.37798
G1 X126.548 Y43.490 E6.61845
G1 X128.285 Y44.329 E6.84993
G1 X128.443 Y44.408 E6.87113
G1 X130.107 Y45.345 E7.10029
G1 X131.703 Y46.373 E7.32810
G1 X131.854 Y46.470 E7.34964
G1 X133.411 Y47.615 E7.58156
G1 X134.952 Y48.892 E7.82173
G1 X136.416 Y50.264 E8.06249
G1 X137.795 Y51.722 E8.30332
G1 X139.081 Y53.258 E8.54371
G1 X140.274 Y54.870 E8.78436
G1 X141.320 Y56.478 E9.01455
G1 X141.417 Y56.629 E9.03609
G1 X142.358 Y58.301 E9.26632
G1 X143.196 Y60.010 E9.49473
G1 X143.269 Y60.156 E9.51432
G1 X144.013 Y61.951 E9.74749
G1 X144.670 Y63.841 E9.98760
G1 X145.213 Y65.772 E10.22831
G1 X145.640 Y67.732 E10.46903
G1 X145.946 Y69.713 E10.70956
G1 X146.133 Y71.710 E10.95025
G1 X146.197 Y73.671 E11.18570
G1 X146.199 Y88.099 E12.91706
G1 X150.200 Y88.099 E13.39718
G1 X150.200 Y97.499 E14.52518
G1 X146.200 Y97.499 E15.00518
G1 X146.200 Y106.999 E16.14518
G1 X136.800 Y106.999 E17.27318
G1 X136.800 Y73.835 E21.25286
G1 X136.753 Y72.322 E21.43451
G1 X136.617 Y70.883 E21.60796
G1 X136.378 Y69.347 E21.79449
G1 X136.065 Y67.944 E21.96699
G1 X135.650 Y66.503 E22.14694
G1 X135.146 Y65.093 E22.32662
G1 X134.560 Y63.725 E22.50521
G1 X133.883 Y62.389 E22.68494
G1 X133.092 Y61.046 E22.87198
G1 X132.296 Y59.873 E23.04209
G1 X131.371 Y58.674 E23.22381
G1 X130.384 Y57.549 E23.40340
G1 X129.337 Y56.496 E23.58159
G1 X128.215 Y55.503 E23.76139
G1 X127.044 Y54.589 E23.93964
G1 X125.804 Y53.741 E24.11991
G1 X124.513 Y52.973 E24.30017
G1 X123.126 Y52.262 E24.48721
G1 X121.746 Y51.666 E24.66759
G1 X120.426 Y51.190 E24.83597
G1 X118.974 Y50.765 E25.01753
G1 X117.519 Y50.436 E25.19653
G1 X115.963 Y50.186 E25.38565
G1 X114.559 Y50.054 E25.55487
G1 X113.020 Y50.002 E25.73966
G1 X111.298 Y49.999 E25.94630
G1 X79.800 Y49.999 E29.72606
G1 X79.800 Y40.599 E30.85406
G10
G0 F9000 X83.600 Y44.399
;TYPE:WALL-INNER
G11
G1 F1200 X93.100 Y44.399 E31.99406
G1 X93.100 Y40.399 E32.47406
G1 X94.900 Y40.399 E32.69006
G1 X94.900 Y44.399 E33.17006
G1 X112.982 Y44.399 E35.33990
G1 X114.772 Y44.452 E35.55479
G1 X116.482 Y44.608 E35.76084
G1 X118.220 Y44.868 E35.97172
G1 X119.966 Y45.238 E36.18590
G1 X121.667 Y45.707 E36.39763
G1 X123.358 Y46.286 E36.61212
G1 X125.001 Y46.963 E36.82536
G1 X126.605 Y47.738 E37.03913
G1 X128.148 Y48.603 E37.25140
G1 X129.653 Y49.573 E37.46626
G1 X131.069 Y50.610 E37.67688
G1 X132.440 Y51.746 E37.89053
G1 X133.736 Y52.959 E38.10355
G1 X134.955 Y54.249 E38.31653
G1 X136.095 Y55.611 E38.52966
G1 X137.150 Y57.036 E38.74243
G1 X138.127 Y58.538 E38.95744
G1 X138.992 Y60.067 E39.16825
G1 X139.784 Y61.684 E39.38431
G1 X140.458 Y63.297 E39.59409
G1 X141.041 Y64.976 E39.80737
G1 X141.529 Y66.709 E40.02342
G1 X141.901 Y68.419 E40.23342
G1 X142.174 Y70.189 E40.44833
G1 X142.338 Y71.931 E40.65830
G1 X142.397 Y73.743 E40.87585
G1 X142.400 Y91.899 E43.05457
G1 X146.400 Y91.899 E43.53457
G1 X146.400 Y93.699 E43.75057
G1 X142.400 Y93.699 E44.23057
G1 X142.400 Y103.199 E45.37057
G1 X140.600 Y103.199 E45.58657
G1 X140.600 Y73.790 E49.11565
G1 X140.549 Y72.152 E49.31231
G1 X140.545 Y72.062 E49.32312
G1 X140.390 Y70.412 E49.52199
G1 X140.125 Y68.712 E49.72845
G1 X139.749 Y67.005 E49.93820
G1 X139.269 Y65.339 E50.14626
G1 X138.686 Y63.707 E50.35422
G1 X138.003 Y62.113 E50.56232
G1 X137.220 Y60.566 E50.77038
G1 X136.303 Y59.010 E50.98711
G1 X135.369 Y57.635 E51.18658
G1 X134.311 Y56.263 E51.39449
G1 X133.168 Y54.959 E51.60257
G1 X131.944 Y53.729 E51.81080
G1 X130.647 Y52.580 E52.01873
G1 X129.280 Y51.514 E52.22675
G1 X127.849 Y50.536 E52.43474
G1 X126.359 Y49.649 E52.64283
G1 X124.833 Y48.867 E52.84859
G1 X124.754 Y48.826 E52.85927
G1 X123.242 Y48.173 E53.05691
G1 X121.596 Y47.573 E53.26714
G1 X119.933 Y47.086 E53.47508
G1 X118.242 Y46.704 E53.68312
G1 X116.548 Y46.431 E53.88902
G1 X114.804 Y46.260 E54.09930
G1 X113.082 Y46.202 E54.30606
G1 X111.304 Y46.199 E54.51942
G1 X83.600 Y46.199 E57.84390
G1 X83.600 Y44.399 E58.05990
G0 F9000 X83.200 Y43.999
;TYPE:WALL-OUTER
G1 F1200 X92.700 Y43.999 E59.19990
G1 X92.700 Y39.999 E59.67990
G1 X95.300 Y39.999 E59.99190
G1 X95.300 Y43.999 E60.47190
G1 X112.994 Y43.999 E62.59518
G1 X114.804 Y44.053 E62.81248
G1 X116.510 Y44.208 E63.01804
G1 X118.297 Y44.475 E63.23486
G1 X120.059 Y44.849 E63.45101
G1 X121.799 Y45.329 E63.66761
G1 X123.493 Y45.909 E63.88248
G1 X125.162 Y46.596 E64.09906
G1 X126.784 Y47.380 E64.31524
G1 X126.852 Y47.414 E64.32437
G1 X128.351 Y48.258 E64.53080
G1 X129.922 Y49.270 E64.75505
G1 X131.316 Y50.295 E64.96268
G1 X132.707 Y51.448 E65.17949
G1 X134.021 Y52.679 E65.39556
G1 X135.258 Y53.987 E65.61159
G1 X136.405 Y55.358 E65.82609
G1 X137.476 Y56.805 E66.04212
G1 X138.464 Y58.323 E66.25947
G1 X139.345 Y59.879 E66.47404
G1 X140.143 Y61.507 E66.69161
G1 X140.836 Y63.167 E66.90747
G1 X141.423 Y64.855 E67.12192
G1 X141.914 Y66.600 E67.33946
G1 X142.295 Y68.348 E67.55414
G1 X142.571 Y70.138 E67.77148
G1 X142.738 Y71.918 E67.98602
G1 X142.797 Y73.723 E68.20273
G1 X142.800 Y91.499 E70.33585
G1 X146.800 Y91.499 E70.81585
G1 X146.800 Y94.099 E71.12785
G1 X142.800 Y94.099 E71.60785
G1 X142.800 Y103.599 E72.74785
G1 X140.200 Y103.599 E73.05985
G1 X140.200 Y73.796 E76.63621
G1 X140.149 Y72.167 E76.83179
G1 X140.146 Y72.089 E76.84116
G1 X139.993 Y70.461 E77.03738
G1 X139.730 Y68.777 E77.24191
G1 X139.717 Y68.700 E77.25128
G1 X139.361 Y67.104 E77.44750
G1 X138.888 Y65.462 E77.65256
G1 X138.313 Y63.853 E77.85760
G1 X137.640 Y62.282 E78.06269
G1 X136.869 Y60.758 E78.26764
G1 X135.965 Y59.224 E78.48130
G1 X135.045 Y57.870 E78.67774
G1 X134.002 Y56.517 E78.88274
G1 X132.875 Y55.232 E79.08785
G1 X131.669 Y54.020 E79.29302
G1 X130.391 Y52.888 E79.49789
G1 X129.044 Y51.837 E79.70291
G1 X127.634 Y50.873 E79.90788
G1 X126.165 Y49.999 E80.11300
G1 X124.650 Y49.223 E80.31726
G1 X123.083 Y48.540 E80.52238
G1 X121.472 Y47.954 E80.72810
G1 X119.832 Y47.473 E80.93319
G1 X118.166 Y47.097 E81.13814
G1 X116.487 Y46.826 E81.34222
G1 X116.409 Y46.813 E81.35171
G1 X114.779 Y46.659 E81.54818
G1 X113.075 Y46.602 E81.75278
G1 X83.200 Y46.599 E85.33778
G1 X83.200 Y43.999 E85.64978
G0 F9000 X83.854 Y44.539
;TYPE:SKIN
G1 F1200 X85.373 Y46.058 E85.90756
G0 F9000 X84.808 Y46.058
G1 F1200 X83.739 Y44.989 E86.08898
G0 F9000 X83.739 Y45.555
G1 F1200 X84.242 Y46.058 E86.17434
G0 F9000 X84.420 Y44.539
G1 F1200 X85.939 Y46.058 E86.43212
G0 F9000 X86.505 Y46.058
G1 F1200 X84.985 Y44.539 E86.68999
G0 F9000 X85.551 Y44.539
G1 F1200 X87.071 Y46.058 E86.94786
G0 F9000 X87.636 Y46.058
G1 F1200 X86.117 Y44.539 E87.20564
G0 F9000 X86.682 Y44.539
G1 F1200 X88.202 Y46.058 E87.46351
G0 F9000 X88.768 Y46.058
G1 F1200 X87.248 Y44.539 E87.72137
G0 F9000 X87.814 Y44.539
G1 F1200 X89.333 Y46.058 E87.97916
G0 F9000 X89.900 Y46.059
G1 F1200 X88.379 Y44.539 E88.23719
G0 F9000 X88.945 Y44.539
G1 F1200 X90.465 Y46.059 E88.49515
G0 F9000 X91.031 Y46.059
G1 F1200 X89.511 Y44.539 E88.75310
G0 F9000 X90.076 Y44.539
G1 F1200 X91.597 Y46.059 E89.01114
G0 F9000 X92.162 Y46.059
G1 F1200 X90.642 Y44.539 E89.26909
G0 F9000 X91.208 Y44.539
G1 F1200 X92.728 Y46.059 E89.52704
G0 F9000 X93.294 Y46.059
G1 F1200 X91.773 Y44.539 E89.78508
G0 F9000 X92.339 Y44.539
G1 F1200 X93.859 Y46.059 E90.04303
G0 F9000 X94.425 Y46.059
G1 F1200 X92.905 Y44.539 E90.30098
G0 F9000 X93.239 Y44.307
G1 F1200 X94.991 Y46.059 E90.59831
G0 F9000 X95.557 Y46.060
G1 F1200 X93.239 Y43.741 E90.99177
G0 F9000 X93.239 Y43.175
G1 F1200 X96.123 Y46.060 E91.48129
G0 F9000 X96.689 Y46.060
G1 F1200 X95.168 Y44.539 E91.73941
G0 F9000 X95.733 Y44.539
G1 F1200 X97.254 Y46.060 E91.99753
G0 F9000 X97.820 Y46.060
G1 F1200 X96.299 Y44.539 E92.25565
G0 F9000 X96.865 Y44.539
G1 F1200 X98.386 Y46.060 E92.51378
G0 F9000 X98.951 Y46.060
G1 F1200 X97.430 Y44.539 E92.77190
G0 F9000 X97.996 Y44.539
G1 F1200 X99.517 Y46.060 E93.03002
G0 F9000 X100.083 Y46.060
G1 F1200 X98.562 Y44.539 E93.28814
G0 F9000 X99.127 Y44.539
G1 F1200 X100.648 Y46.060 E93.54626
G0 F9000 X101.214 Y46.060
G1 F1200 X99.693 Y44.539 E93.80439
G0 F9000 X94.959 Y44.340
G0 X94.759 Y44.130
G1 F1200 X93.239 Y42.610 E94.06234
G0 F9000 X93.239 Y42.044
G1 F1200 X94.759 Y43.564 E94.32029
G0 F9000 X94.759 Y42.999
G1 F1200 X93.239 Y41.478 E94.57833
G0 F9000 X93.239 Y40.913
G1 F1200 X94.759 Y42.433 E94.83628
G0 F9000 X94.759 Y41.867
G1 F1200 X93.430 Y40.539 E95.06174
G0 F9000 X93.996 Y40.539
G1 F1200 X94.759 Y41.302 E95.19122
G0 F9000 X94.759 Y40.736
G1 F1200 X94.562 Y40.539 E95.22465
G0 F9000 X94.959 Y44.340
G0 X100.259 Y44.539
G1 F1200 X101.780 Y46.060 E95.48278
G0 F9000 X102.346 Y46.060
G1 F1200 X100.824 Y44.539 E95.74098
G0 F9000 X101.390 Y44.539
G1 F1200 X102.912 Y46.060 E95.99919
G0 F9000 X103.478 Y46.060
G1 F1200 X101.956 Y44.539 E96.25740
G0 F9000 X102.521 Y44.539
G1 F1200 X104.043 Y46.060 E96.51560
G0 F9000 X104.609 Y46.060
G1 F1200 X103.087 Y44.539 E96.77381
G0 F9000 X103.653 Y44.539
G1 F1200 X105.175 Y46.060 E97.03202
G0 F9000 X105.740 Y46.060
G1 F1200 X104.219 Y44.539 E97.29014
G0 F9000 X104.784 Y44.539
G1 F1200 X106.306 Y46.060 E97.54835
G0 F9000 X106.872 Y46.060
G1 F1200 X105.350 Y44.539 E97.80656
G0 F9000 X105.916 Y44.539
G1 F1200 X107.438 Y46.061 E98.06485
G0 F9000 X108.004 Y46.061
G1 F1200 X106.481 Y44.539 E98.32322
G0 F9000 X107.047 Y44.539
G1 F1200 X108.569 Y46.061 E98.58152
G0 F9000 X109.135 Y46.061
G1 F1200 X107.613 Y44.539 E98.83981
G0 F9000 X108.178 Y44.539
G1 F1200 X109.701 Y46.061 E99.09818
G0 F9000 X110.266 Y46.061
G1 F1200 X108.744 Y44.539 E99.35648
G0 F9000 X109.310 Y44.539
G1 F1200 X110.832 Y46.061 E99.61477
G0 F9000 X111.398 Y46.061
G1 F1200 X109.875 Y44.539 E99.87315
G0 F9000 X110.441 Y44.539
G1 F1200 X111.963 Y46.061 E100.13144
G0 F9000 X112.529 Y46.061
G1 F1200 X111.007 Y44.539 E100.38973
G0 F9000 X111.572 Y44.539
G1 F1200 X113.096 Y46.062 E100.64828
G0 F9000 X113.681 Y46.082
G1 F1200 X112.138 Y44.539 E100.91013
G0 F9000 X112.704 Y44.539
G1 F1200 X114.267 Y46.101 E101.17530
G0 F9000 X114.855 Y46.124
G1 F1200 X113.279 Y44.548 E101.44275
G0 F9000 X113.862 Y44.566
G1 F1200 X115.482 Y46.186 E101.71768
G0 F9000 X116.110 Y46.248
G1 F1200 X114.445 Y44.583 E102.00024
G0 F9000 X115.045 Y44.617
G1 F1200 X116.750 Y46.322 E102.28958
G0 F9000 X117.424 Y46.431
G1 F1200 X115.668 Y44.675 E102.58759
G0 F9000 X116.290 Y44.731
G1 F1200 X118.098 Y46.539 E102.89441
G0 F9000 X118.815 Y46.690
G1 F1200 X116.944 Y44.819 E103.21193
G0 F9000 X117.609 Y44.918
G1 F1200 X119.545 Y46.855 E103.54057
G0 F9000 X120.305 Y47.049
G1 F1200 X118.280 Y45.024 E103.88422
G0 F9000 X118.999 Y45.177
G1 F1200 X121.106 Y47.284 E104.24179
G0 F9000 X121.936 Y47.548
G1 F1200 X119.716 Y45.329 E104.61845
G0 F9000 X120.478 Y45.525
G1 F1200 X122.825 Y47.872 E105.01675
G0 F9000 X123.765 Y48.246
G1 F1200 X121.260 Y45.741 E105.44187
G0 F9000 X122.082 Y45.998
G1 F1200 X124.760 Y48.675 E105.89625
G0 F9000 X125.913 Y49.262
G1 F1200 X122.942 Y46.292 E106.40036
G0 F9000 X123.861 Y46.645
G1 F1200 X127.207 Y49.991 E106.96820
G0 F9000 X128.430 Y48.951
G1 F1200 X137.851 Y58.373 E108.56708
G0 F9000 X138.636 Y59.722
G1 F1200 X127.076 Y48.163 E110.52879
G0 F9000 X125.901 Y47.554
G1 F1200 X131.466 Y53.119 E111.47320
G0 F9000 X133.687 Y55.340
G1 F1200 X139.240 Y60.893 E112.41558
G0 F9000 X139.751 Y61.969
G1 F1200 X135.791 Y58.009 E113.08761
G0 F9000 X136.672 Y56.627
G1 F1200 X130.169 Y50.125 E114.19112
G0 F9000 X128.794 Y51.012
G1 F1200 X124.822 Y47.040 E114.86520
G0 F9000 X134.310 Y56.263
G0 X136.806 Y59.590
G1 F1200 X140.156 Y62.940 E115.43371
G0 F9000 X140.501 Y63.851
G1 F1200 X137.539 Y60.888 E115.93646
G0 F9000 X138.119 Y62.034
G1 F1200 X140.802 Y64.717 E116.39178
G0 F9000 X141.050 Y65.531
G1 F1200 X138.544 Y63.025 E116.81706
G0 F9000 X138.928 Y63.975
G1 F1200 X141.272 Y66.319 E117.21485
G0 F9000 X141.465 Y67.077
G1 F1200 X139.242 Y64.855 E117.59203
G0 F9000 X139.514 Y65.692
G1 F1200 X141.622 Y67.800 E117.94976
G0 F9000 X141.773 Y68.517
G1 F1200 X139.744 Y66.487 E118.29418
G0 F9000 X139.946 Y67.255
G1 F1200 X141.877 Y69.186 E118.62188
G0 F9000 X141.980 Y69.855
G1 F1200 X140.106 Y67.981 E118.93991
G0 F9000 X140.265 Y68.706
G1 F1200 X142.063 Y70.504 E119.24504
G0 F9000 X142.122 Y71.128
G1 F1200 X140.370 Y69.377 E119.54228
G0 F9000 X140.475 Y70.047
G1 F1200 X142.180 Y71.752 E119.83163
G0 F9000 X142.211 Y72.349
G1 F1200 X140.556 Y70.694 E120.11249
G0 F9000 X140.615 Y71.318
G1 F1200 X142.230 Y72.933 E120.38657
G0 F9000 X142.249 Y73.518
G1 F1200 X140.673 Y71.943 E120.65394
G0 F9000 X140.699 Y72.534
G1 F1200 X142.257 Y74.092 E120.91834
G0 F9000 X142.257 Y74.657
G1 F1200 X140.717 Y73.118 E121.17960
G0 F9000 X140.736 Y73.702
G1 F1200 X142.257 Y75.223 E121.43772
G0 F9000 X142.257 Y75.789
G1 F1200 X140.738 Y74.270 E121.69551
G0 F9000 X140.738 Y74.836
G1 F1200 X142.257 Y76.354 E121.95321
G0 F9000 X142.257 Y76.920
G1 F1200 X140.738 Y75.402 E122.21090
G0 F9000 X140.738 Y75.968
G1 F1200 X142.257 Y77.486 E122.46860
G0 F9000 X142.257 Y78.051
G1 F1200 X140.738 Y76.533 E122.72630
G0 F9000 X140.738 Y77.099
G1 F1200 X142.257 Y78.618 E122.98408
G0 F9000 X142.257 Y79.183
G1 F1200 X140.738 Y77.665 E123.24178
G0 F9000 X140.738 Y78.230
G1 F1200 X142.257 Y79.749 E123.49956
G0 F9000 X142.257 Y80.315
G1 F1200 X140.738 Y78.796 E123.75735
G0 F9000 X140.738 Y79.362
G1 F1200 X142.257 Y80.880 E124.01504
G0 F9000 X142.257 Y81.446
G1 F1200 X140.738 Y79.927 E124.27283
G0 F9000 X140.738 Y80.493
G1 F1200 X142.257 Y82.012 E124.53061
G0 F9000 X142.257 Y82.578
G1 F1200 X140.738 Y81.059 E124.78839
G0 F9000 X140.738 Y81.624
G1 F1200 X142.258 Y83.144 E125.04635
G0 F9000 X142.258 Y83.710
G1 F1200 X140.738 Y82.190 E125.30430
G0 F9000 X140.738 Y82.756
G1 F1200 X142.258 Y84.275 E125.56217
G0 F9000 X142.258 Y84.841
G1 F1200 X140.738 Y83.321 E125.82012
G0 F9000 X140.738 Y83.887
G1 F1200 X142.258 Y85.407 E126.07807
G0 F9000 X142.258 Y85.972
G1 F1200 X140.738 Y84.453 E126.33594
G0 F9000 X140.738 Y85.018
G1 F1200 X142.258 Y86.538 E126.59389
G0 F9000 X142.258 Y87.104
G1 F1200 X140.738 Y85.584 E126.85184
G0 F9000 X140.738 Y86.150
G1 F1200 X142.259 Y87.670 E127.10988
G0 F9000 X142.259 Y88.236
G1 F1200 X140.738 Y86.716 E127.36792
G0 F9000 X140.738 Y87.281
G1 F1200 X142.259 Y88.802 E127.62604
G0 F9000 X142.259 Y89.367
G1 F1200 X140.738 Y87.847 E127.88408
G0 F9000 X140.738 Y88.413
G1 F1200 X142.259 Y89.933 E128.14212
G0 F9000 X142.259 Y90.499
G1 F1200 X140.738 Y88.978 E128.40024
G0 F9000 X140.738 Y89.544
G1 F1200 X142.259 Y91.064 E128.65827
G0 F9000 X142.259 Y91.630
G1 F1200 X140.738 Y90.110 E128.91631
G0 F9000 X140.738 Y90.675
G1 F1200 X143.621 Y93.558 E129.40557
G0 F9000 X143.056 Y93.558
G1 F1200 X140.738 Y91.241 E129.79887
G0 F9000 X140.738 Y91.807
G1 F1200 X142.490 Y93.558 E130.09611
G0 F9000 X142.259 Y93.893
G1 F1200 X140.738 Y92.372 E130.35423
G0 F9000 X140.738 Y92.938
G1 F1200 X142.259 Y94.458 E130.61227
G0 F9000 X142.259 Y95.024
G1 F1200 X140.738 Y93.504 E130.87030
G0 F9000 X140.738 Y94.069
G1 F1200 X142.259 Y95.590 E131.12843
G0 F9000 X142.259 Y96.155
G1 F1200 X140.738 Y94.635 E131.38646
G0 F9000 X140.738 Y95.201
G1 F1200 X142.259 Y96.721 E131.64450
G0 F9000 X142.259 Y97.287
G1 F1200 X140.738 Y95.767 E131.90254
G0 F9000 X140.738 Y96.332
G1 F1200 X142.259 Y97.852 E132.16057
G0 F9000 X142.259 Y98.418
G1 F1200 X140.738 Y96.898 E132.41861
G0 F9000 X140.738 Y97.464
G1 F1200 X142.259 Y98.984 E132.67665
G0 F9000 X142.259 Y99.550
G1 F1200 X140.738 Y98.029 E132.93477
G0 F9000 X140.738 Y98.595
G1 F1200 X142.259 Y100.115 E133.19281
G0 F9000 X142.259 Y100.681
G1 F1200 X140.738 Y99.161 E133.45085
G0 F9000 X140.738 Y99.726
G1 F1200 X142.259 Y101.247 E133.70897
G0 F9000 X142.259 Y101.812
G1 F1200 X140.738 Y100.292 E133.96701
G0 F9000 X140.738 Y100.858
G1 F1200 X142.259 Y102.378 E134.22504
G0 F9000 X142.259 Y102.944
G1 F1200 X140.738 Y101.423 E134.48317
