;FLAVOR:UltiGCode
;TIME:3913
;MATERIAL:4466
;MATERIAL2:0
;NOZZLE_DIAMETER:0.400000
;NOZZLE_DIAMETER2:0.400000

;Layer count: 78
;LAYER:0
M107
G0 F9000 X71.800 Y94.599 Z0.300
;TYPE:SKIRT
G1 F1200 X124.953 Y94.599 E6.37836
G1 X126.617 Y94.543 E6.57815
G1 X128.171 Y94.383 E6.76562
G1 X129.769 Y94.113 E6.96010
G1 X131.354 Y93.731 E7.15574
G1 X132.904 Y93.245 E7.35067
G1 X134.414 Y92.654 E7.54526
G1 X135.888 Y91.958 E7.74086
G1 X137.368 Y91.132 E7.94425
G1 X138.655 Y90.288 E8.12894
G1 X139.958 Y89.305 E8.32480
G1 X141.193 Y88.234 E8.52097
G1 X142.353 Y87.080 E8.71732
G1 X143.411 Y85.875 E8.90974
G1 X144.401 Y84.577 E9.10564
G1 X145.293 Y83.224 E9.30011
G1 X146.129 Y81.748 E9.50367
G1 X146.795 Y80.347 E9.68981
G1 X147.396 Y78.837 E9.88484
G1 X147.894 Y77.283 E10.08066
G1 X148.284 Y75.703 E10.27595
G1 X148.563 Y74.107 E10.47038
G1 X148.735 Y72.493 E10.66515
G1 X148.797 Y70.810 E10.86725
G1 X148.800 Y68.942 E11.09141
G1 X148.800 Y37.599 E14.85257
G1 X158.200 Y37.599 E15.98057
G1 X158.200 Y70.852 E19.97093
G1 X158.130 Y72.972 E20.22547
G1 X157.917 Y75.133 E20.48604
G1 X157.563 Y77.277 E20.74681
G1 X157.070 Y79.393 E21.00753
G1 X156.439 Y81.472 E21.26825
G1 X155.674 Y83.505 E21.52891
G1 X154.777 Y85.484 E21.78964
G1 X153.753 Y87.400 E22.05034
G1 X152.606 Y89.246 E22.31114
G1 X151.340 Y91.011 E22.57179
G1 X149.963 Y92.691 E22.83245
G1 X148.477 Y94.277 E23.09326
G1 X146.891 Y95.763 E23.35407
G1 X145.211 Y97.140 E23.61473
G1 X143.446 Y98.406 E23.87538
G1 X141.601 Y99.553 E24.13608
G1 X139.684 Y100.578 E24.39694
G1 X137.705 Y101.474 E24.65763
G1 X135.672 Y102.239 E24.91829
G1 X133.593 Y102.870 E25.17900
G1 X131.477 Y103.363 E25.43972
G1 X129.333 Y103.717 E25.70049
G1 X127.171 Y103.930 E25.96118
G1 X125.052 Y103.999 E26.21560
G1 X114.625 Y103.999 E27.46684
G1 X114.625 Y106.993 E27.82612
G1 X110.834 Y106.999 E28.28104
G1 X87.544 Y106.998 E31.07584
G1 X83.326 Y107.002 E31.58200
G1 X83.326 Y103.999 E31.94236
G1 X71.800 Y103.999 E33.32548
G1 X71.800 Y94.599 E34.45348
G10
G0 F9000 X75.600 Y98.399
;TYPE:WALL-INNER
G11
G1 F1200 X125.010 Y98.399 E40.38268
G1 X126.787 Y98.340 E40.59604
G1 X126.884 Y98.336 E40.60769
G1 X128.680 Y98.151 E40.82435
G1 X130.537 Y97.837 E41.05035
G1 X132.369 Y97.396 E41.27647
G1 X134.166 Y96.831 E41.50252
G1 X135.922 Y96.144 E41.72879
G1 X137.626 Y95.340 E41.95489
G1 X139.255 Y94.430 E42.17880
G1 X140.850 Y93.392 E42.40716
G1 X142.355 Y92.258 E42.63329
G1 X143.779 Y91.023 E42.85948
G1 X145.115 Y89.694 E43.08562
G1 X146.358 Y88.277 E43.31181
G1 X147.501 Y86.780 E43.53783
G1 X148.538 Y85.206 E43.76401
G1 X149.505 Y83.498 E43.99954
G1 X150.280 Y81.866 E44.21634
G1 X150.977 Y80.116 E44.44239
G1 X151.552 Y78.322 E44.66845
G1 X152.003 Y76.492 E44.89462
G1 X152.328 Y74.636 E45.12073
G1 X152.528 Y72.762 E45.34689
G1 X152.597 Y70.888 E45.57192
G1 X152.600 Y41.399 E49.11060
G1 X154.400 Y41.399 E49.32660
G1 X154.400 Y70.779 E52.85220
G1 X154.335 Y72.729 E53.08633
G1 X154.148 Y74.634 E53.31603
G1 X153.833 Y76.541 E53.54797
G1 X153.398 Y78.406 E53.77778
G1 X152.841 Y80.243 E54.00813
G1 X152.163 Y82.046 E54.23928
G1 X151.363 Y83.811 E54.47182
G1 X150.464 Y85.491 E54.70047
G1 X149.445 Y87.133 E54.93237
G1 X148.316 Y88.706 E55.16472
G1 X147.106 Y90.182 E55.39375
G1 X145.789 Y91.589 E55.62501
G1 X144.382 Y92.906 E55.85628
G1 X142.906 Y94.116 E56.08531
G1 X141.333 Y95.245 E56.31765
G1 X139.692 Y96.264 E56.54945
G1 X138.011 Y97.163 E56.77821
G1 X136.246 Y97.963 E57.01075
G1 X134.443 Y98.641 E57.24190
G1 X132.606 Y99.198 E57.47225
G1 X130.741 Y99.633 E57.70206
G1 X128.834 Y99.948 E57.93400
G1 X126.929 Y100.135 E58.16370
G1 X124.980 Y100.199 E58.39770
G1 X110.825 Y100.199 E60.09630
G1 X110.825 Y103.199 E60.45630
G1 X87.126 Y103.199 E63.30018
G1 X87.126 Y100.199 E63.66018
G1 X75.600 Y100.199 E65.04330
G1 X75.600 Y98.399 E65.25930
G0 F9000 X75.200 Y97.999
;TYPE:WALL-OUTER
G1 F1200 X125.003 Y97.999 E71.23566
G1 X126.772 Y97.940 E71.44806
G1 X126.856 Y97.937 E71.45815
G1 X128.626 Y97.754 E71.67168
G1 X130.457 Y97.445 E71.89451
G1 X132.262 Y97.010 E72.11731
G1 X134.033 Y96.454 E72.34005
G1 X135.763 Y95.777 E72.56298
G1 X137.443 Y94.984 E72.78591
G1 X139.059 Y94.081 E73.00806
G1 X140.620 Y93.065 E73.23156
G1 X142.103 Y91.947 E73.45442
G1 X143.506 Y90.730 E73.67730
G1 X144.823 Y89.420 E73.90021
G1 X146.048 Y88.024 E74.12308
G1 X147.174 Y86.548 E74.34585
G1 X148.197 Y84.997 E74.56881
G1 X149.150 Y83.313 E74.80101
G1 X149.913 Y81.706 E75.01448
G1 X150.600 Y79.981 E75.23729
G1 X151.167 Y78.213 E75.46010
G1 X151.612 Y76.409 E75.68306
G1 X151.932 Y74.580 E75.90588
G1 X152.129 Y72.733 E76.12878
G1 X152.197 Y70.880 E76.35129
G1 X152.200 Y40.999 E79.93701
G1 X154.800 Y40.999 E80.24901
G1 X154.800 Y70.792 E83.82417
G1 X154.735 Y72.751 E84.05938
G1 X154.544 Y74.693 E84.29354
G1 X154.228 Y76.607 E84.52633
G1 X153.782 Y78.519 E84.76193
G1 X153.220 Y80.373 E84.99441
G1 X152.534 Y82.197 E85.22825
G1 X151.724 Y83.985 E85.46380
G1 X150.810 Y85.693 E85.69626
G1 X149.781 Y87.350 E85.93033
G1 X148.638 Y88.943 E86.16560
G1 X147.403 Y90.450 E86.39941
G1 X146.071 Y91.871 E86.63313
G1 X144.653 Y93.200 E86.86635
G1 X143.145 Y94.437 E87.10040
G1 X141.552 Y95.580 E87.33568
G1 X139.894 Y96.610 E87.56990
G1 X138.185 Y97.524 E87.80247
G1 X136.398 Y98.333 E88.03786
G1 X134.578 Y99.018 E88.27122
G1 X132.719 Y99.582 E88.50434
G1 X130.807 Y100.028 E88.73994
G1 X128.893 Y100.344 E88.97273
G1 X126.951 Y100.535 E89.20689
G1 X124.993 Y100.599 E89.44198
G1 X111.225 Y100.599 E91.09414
G1 X111.225 Y103.598 E91.45402
G1 X86.726 Y103.599 E94.39390
G1 X86.726 Y100.599 E94.75390
G1 X75.200 Y100.599 E96.13702
G1 X75.200 Y97.999 E96.44902
G0 F9000 X75.739 Y98.649
;TYPE:SKIN
G1 F1200 X77.148 Y100.058 E96.68813
G0 F9000 X77.713 Y100.058
G1 F1200 X76.194 Y98.538 E96.94600
G0 F9000 X76.759 Y98.538
G1 F1200 X78.279 Y100.058 E97.20395
G0 F9000 X78.845 Y100.058
G1 F1200 X77.325 Y98.538 E97.46190
G0 F9000 X77.891 Y98.538
G1 F1200 X79.410 Y100.058 E97.71977
G0 F9000 X79.976 Y100.058
G1 F1200 X78.457 Y98.538 E97.97764
G0 F9000 X79.022 Y98.538
G1 F1200 X80.542 Y100.058 E98.23559
G0 F9000 X81.107 Y100.058
G1 F1200 X79.588 Y98.538 E98.49346
G0 F9000 X76.582 Y100.058
G1 F1200 X75.739 Y99.215 E98.63652
G0 F9000 X75.739 Y99.781
G1 F1200 X76.016 Y100.058 E98.68353
G0 F9000 X80.154 Y98.538
G1 F1200 X81.673 Y100.058 E98.94140
G0 F9000 X82.239 Y100.058
G1 F1200 X80.719 Y98.538 E99.19935
G0 F9000 X81.285 Y98.538
G1 F1200 X82.805 Y100.058 E99.45730
G0 F9000 X83.370 Y100.058
G1 F1200 X81.851 Y98.538 E99.71517
G0 F9000 X82.416 Y98.538
G1 F1200 X83.936 Y100.058 E99.97312
G0 F9000 X84.502 Y100.058
G1 F1200 X82.982 Y98.538 E100.23108
G0 F9000 X83.548 Y98.538
G1 F1200 X85.067 Y100.058 E100.48894
G0 F9000 X85.633 Y100.058
G1 F1200 X84.113 Y98.538 E100.74690
G0 F9000 X84.679 Y98.538
G1 F1200 X86.199 Y100.058 E101.00485
G0 F9000 X86.764 Y100.058
G1 F1200 X85.245 Y98.538 E101.26272
G0 F9000 X85.810 Y98.538
G1 F1200 X90.330 Y103.058 E102.02979
G0 F9000 X89.765 Y103.058
G1 F1200 X87.265 Y100.559 E102.45397
G0 F9000 X87.265 Y101.124
G1 F1200 X89.199 Y103.058 E102.78218
G0 F9000 X88.633 Y103.058
G1 F1200 X87.265 Y101.690 E103.01433
G0 F9000 X87.265 Y102.256
G1 F1200 X88.068 Y103.058 E103.15052
G0 F9000 X87.502 Y103.058
G1 F1200 X87.265 Y102.821 E103.19074
G0 F9000 X90.896 Y103.058
G1 F1200 X86.376 Y98.538 E103.95781
G0 F9000 X86.942 Y98.538
G1 F1200 X91.462 Y103.058 E104.72488
G0 F9000 X92.027 Y103.058
G1 F1200 X87.507 Y98.538 E105.49195
G0 F9000 X88.073 Y98.538
G1 F1200 X92.593 Y103.058 E106.25902
G0 F9000 X93.159 Y103.058
G1 F1200 X88.639 Y98.538 E107.02609
G0 F9000 X89.205 Y98.538
G1 F1200 X93.724 Y103.058 E107.79307
G0 F9000 X94.290 Y103.058
G1 F1200 X89.770 Y98.538 E108.56014
G0 F9000 X90.336 Y98.538
G1 F1200 X94.856 Y103.058 E109.32721
G0 F9000 X95.421 Y103.058
G1 F1200 X90.902 Y98.538 E110.09420
G0 F9000 X91.467 Y98.538
G1 F1200 X95.987 Y103.058 E110.86127
G0 F9000 X96.553 Y103.058
G1 F1200 X92.033 Y98.538 E111.62834
G0 F9000 X92.599 Y98.538
G1 F1200 X97.118 Y103.058 E112.39532
G0 F9000 X97.684 Y103.058
G1 F1200 X93.164 Y98.538 E113.16239
G0 F9000 X93.730 Y98.538
G1 F1200 X98.250 Y103.058 E113.92946
G0 F9000 X98.816 Y103.058
G1 F1200 X94.296 Y98.538 E114.69653
G0 F9000 X94.861 Y98.538
G1 F1200 X99.381 Y103.058 E115.46360
G0 F9000 X99.947 Y103.058
G1 F1200 X95.427 Y98.538 E116.23067
G0 F9000 X95.993 Y98.538
G1 F1200 X100.513 Y103.058 E116.99774
G0 F9000 X101.078 Y103.058
G1 F1200 X96.558 Y98.538 E117.76481
G0 F9000 X97.124 Y98.538
G1 F1200 X101.644 Y103.058 E118.53188
G0 F9000 X102.210 Y103.058
G1 F1200 X97.690 Y98.538 E119.29895
G0 F9000 X98.256 Y98.538
G1 F1200 X102.775 Y103.058 E120.06593
G0 F9000 X103.341 Y103.058
G1 F1200 X98.821 Y98.538 E120.83300
G0 F9000 X99.387 Y98.538
G1 F1200 X103.907 Y103.058 E121.60007
G0 F9000 X104.472 Y103.058
G1 F1200 X99.953 Y98.538 E122.36705
G0 F9000 X100.518 Y98.538
G1 F1200 X105.038 Y103.058 E123.13412
G0 F9000 X105.604 Y103.058
G1 F1200 X101.084 Y98.538 E123.90119
G0 F9000 X101.650 Y98.538
G1 F1200 X106.169 Y103.058 E124.66818
G0 F9000 X106.735 Y103.058
G1 F1200 X102.215 Y98.538 E125.43525
G0 F9000 X102.781 Y98.538
G1 F1200 X107.301 Y103.058 E126.20232
G0 F9000 X107.867 Y103.058
G1 F1200 X103.347 Y98.538 E126.96939
G0 F9000 X103.912 Y98.538
G1 F1200 X108.432 Y103.058 E127.73646
G0 F9000 X108.998 Y103.058
G1 F1200 X104.478 Y98.538 E128.50352
G0 F9000 X105.044 Y98.538
G1 F1200 X109.564 Y103.058 E129.27059
G0 F9000 X110.129 Y103.058
G1 F1200 X105.609 Y98.538 E130.03766
G0 F9000 X106.175 Y98.538
G1 F1200 X110.684 Y103.047 E130.80287
G0 F9000 X110.684 Y102.481
G1 F1200 X106.741 Y98.538 E131.47202
G0 F9000 X107.306 Y98.538
G1 F1200 X110.684 Y101.916 E132.04528
G0 F9000 X110.684 Y101.350
G1 F1200 X107.872 Y98.538 E132.52249
G0 F9000 X108.438 Y98.538
G1 F1200 X110.684 Y100.784 E132.90365
G0 F9000 X110.684 Y100.218
G1 F1200 X109.004 Y98.538 E133.18876
G0 F9000 X109.569 Y98.538
G1 F1200 X111.090 Y100.059 E133.44688
G0 F9000 X111.655 Y100.059
G1 F1200 X110.135 Y98.538 E133.70492
G0 F9000 X110.701 Y98.538
G1 F1200 X112.221 Y100.059 E133.96295
G0 F9000 X112.787 Y100.059
G1 F1200 X111.266 Y98.538 E134.22108
G0 F9000 X111.832 Y98.538
G1 F1200 X113.352 Y100.059 E134.47911
G0 F9000 X113.918 Y100.059
G1 F1200 X112.398 Y98.538 E134.73715
G0 F9000 X112.963 Y98.538
G1 F1200 X114.484 Y100.059 E134.99527
G0 F9000 X115.049 Y100.059
G1 F1200 X113.529 Y98.538 E135.25331
G0 F9000 X114.095 Y98.538
G1 F1200 X115.615 Y100.059 E135.51135
G0 F9000 X116.181 Y100.059
G1 F1200 X114.660 Y98.538 E135.76947
G0 F9000 X115.226 Y98.538
G1 F1200 X116.746 Y100.059 E136.02751
G0 F9000 X117.312 Y100.059
G1 F1200 X115.792 Y98.538 E136.28555
G0 F9000 X116.357 Y98.538
G1 F1200 X117.878 Y100.059 E136.54367
G0 F9000 X118.443 Y100.059
G1 F1200 X116.923 Y98.538 E136.80171
G0 F9000 X117.489 Y98.538
G1 F1200 X119.009 Y100.059 E137.05974
G0 F9000 X119.575 Y100.059
G1 F1200 X118.055 Y98.538 E137.31778
G0 F9000 X118.620 Y98.538
G1 F1200 X120.140 Y100.059 E137.57582
G0 F9000 X120.706 Y100.059
G1 F1200 X119.186 Y98.538 E137.83386
G0 F9000 X119.752 Y98.538
G1 F1200 X121.272 Y100.059 E138.09189
G0 F9000 X121.838 Y100.059
G1 F1200 X120.317 Y98.538 E138.35002
G0 F9000 X120.883 Y98.538
G1 F1200 X122.403 Y100.059 E138.60805
G0 F9000 X122.969 Y100.059
G1 F1200 X121.449 Y98.538 E138.86609
G0 F9000 X122.014 Y98.538
G1 F1200 X123.535 Y100.059 E139.12421
G0 F9000 X124.100 Y100.059
G1 F1200 X122.580 Y98.538 E139.38225
G0 F9000 X123.146 Y98.538
G1 F1200 X124.666 Y100.059 E139.64029
G0 F9000 X125.223 Y100.050
G1 F1200 X123.711 Y98.538 E139.89688
G0 F9000 X124.277 Y98.538
G1 F1200 X125.770 Y100.032 E140.15034
G0 F9000 X126.318 Y100.014
G1 F1200 X124.843 Y98.538 E140.40074
G0 F9000 X125.396 Y98.526
G1 F1200 X126.866 Y99.996 E140.65021
G0 F9000 X127.384 Y99.948
G1 F1200 X125.943 Y98.507 E140.89475
G0 F9000 X126.490 Y98.489
G1 F1200 X127.900 Y99.898 E141.13395
G0 F9000 X128.415 Y99.848
G1 F1200 X127.028 Y98.461 E141.36933
G0 F9000 X127.542 Y98.409
G1 F1200 X128.924 Y99.791 E141.60387
G0 F9000 X129.409 Y99.711
G1 F1200 X128.054 Y98.356 E141.83382
G0 F9000 X128.567 Y98.303
G1 F1200 X129.895 Y99.631 E142.05919
G0 F9000 X130.380 Y99.550
G1 F1200 X129.059 Y98.229 E142.28337
G0 F9000 X129.542 Y98.147
G1 F1200 X130.857 Y99.461 E142.50645
G0 F9000 X131.316 Y99.354
G1 F1200 X130.026 Y98.065 E142.72528
G0 F9000 X130.510 Y97.983
G1 F1200 X131.774 Y99.247 E142.93979
G0 F9000 X132.233 Y99.140
G1 F1200 X130.969 Y97.877 E143.15421
G0 F9000 X131.426 Y97.768
G1 F1200 X132.685 Y99.027 E143.36787
G0 F9000 X133.119 Y98.895
G1 F1200 X131.882 Y97.658 E143.57780
G0 F9000 X132.338 Y97.548
G1 F1200 X133.553 Y98.763 E143.78399
G0 F9000 X133.987 Y98.632
G1 F1200 X132.772 Y97.417 E143.99018
G0 F9000 X133.202 Y97.281
G1 F1200 X134.420 Y98.499 E144.19688
G0 F9000 X134.831 Y98.345
G1 F1200 X133.633 Y97.146 E144.40028
G0 F9000 X134.063 Y97.010
G1 F1200 X135.242 Y98.190 E144.60044
G0 F9000 X135.653 Y98.035
G1 F1200 X134.478 Y96.860 E144.79985
G0 F9000 X134.884 Y96.700
G1 F1200 X136.064 Y97.880 E145.00010
G0 F9000 X136.460 Y97.710
G1 F1200 X135.290 Y96.541 E145.19857
G0 F9000 X135.697 Y96.382
G1 F1200 X136.849 Y97.534 E145.39407
G0 F9000 X137.239 Y97.358
G1 F1200 X136.097 Y96.216 E145.58788
G0 F9000 X136.481 Y96.035
G1 F1200 X137.629 Y97.182 E145.78261
G0 F9000 X138.014 Y97.002
G1 F1200 X136.866 Y95.853 E145.97752
G0 F9000 X137.250 Y95.672
G1 F1200 X138.382 Y96.805 E146.16971
G0 F9000 X138.751 Y96.607
G1 F1200 X137.634 Y95.491 E146.35919
G0 F9000 X138.001 Y95.291
G1 F1200 X139.119 Y96.410 E146.54900
G0 F9000 X139.488 Y96.213
G1 F1200 X138.363 Y95.088 E146.73992
G0 F9000 X138.726 Y94.885
G1 F1200 X139.843 Y96.003 E146.92957
G0 F9000 X140.193 Y95.786
G1 F1200 X139.089 Y94.683 E147.11684
G0 F9000 X139.444 Y94.473
G1 F1200 X140.541 Y95.569 E147.30292
G0 F9000 X140.891 Y95.353
G1 F1200 X139.787 Y94.250 E147.49019
G0 F9000 X140.130 Y94.027
G1 F1200 X141.239 Y95.136 E147.67839
G0 F9000 X141.570 Y94.901
G1 F1200 X140.473 Y93.804 E147.86456
G0 F9000 X140.816 Y93.581
G1 F1200 X141.900 Y94.665 E148.04852
G0 F9000 X142.228 Y94.428
G1 F1200 X141.145 Y93.345 E148.23231
G0 F9000 X141.468 Y93.101
G1 F1200 X142.558 Y94.192 E148.41738
G0 F9000 X142.883 Y93.951
G1 F1200 X141.790 Y92.858 E148.60287
G0 F9000 X142.113 Y92.616
G1 F1200 X143.194 Y93.697 E148.78632
G0 F9000 X143.505 Y93.442
G1 F1200 X142.436 Y92.372 E148.96782
G0 F9000 X142.739 Y92.110
G1 F1200 X143.816 Y93.187 E149.15059
G0 F9000 X144.126 Y92.932
G1 F1200 X143.042 Y91.848 E149.33455
G0 F9000 X143.345 Y91.585
G1 F1200 X144.429 Y92.669 E149.51851
G0 F9000 X144.720 Y92.394
G1 F1200 X143.648 Y91.322 E149.70044
G0 F9000 X143.946 Y91.054
G1 F1200 X145.012 Y92.121 E149.88143
G0 F9000 X145.304 Y91.847
G1 F1200 X144.229 Y90.772 E150.06386
G0 F9000 X144.513 Y90.490
G1 F1200 X145.596 Y91.573 E150.24765
G0 F9000 X145.877 Y91.288
G1 F1200 X144.797 Y90.208 E150.43093
G0 F9000 X145.080 Y89.926
G1 F1200 X146.151 Y90.996 E150.61260
G0 F9000 X146.424 Y90.704
G1 F1200 X145.353 Y89.633 E150.79436
G0 F9000 X145.618 Y89.332
G1 F1200 X146.698 Y90.412 E150.97764
G0 F9000 X146.972 Y90.120
G1 F1200 X145.882 Y89.031 E151.16254
G0 F9000 X146.146 Y88.729
G1 F1200 X147.228 Y89.811 E151.34616
G0 F9000 X147.483 Y89.500
G1 F1200 X146.410 Y88.427 E151.52825
G0 F9000 X146.659 Y88.111
G1 F1200 X147.738 Y89.190 E151.71136
G0 F9000 X147.993 Y88.879
G1 F1200 X146.904 Y87.790 E151.89617
G0 F9000 X147.149 Y87.469
G1 F1200 X148.244 Y88.565 E152.08209
G0 F9000 X148.481 Y88.235
G1 F1200 X147.394 Y87.148 E152.26656
G0 F9000 X147.636 Y86.825
G1 F1200 X148.717 Y87.906 E152.45001
G0 F9000 X148.954 Y87.577
G1 F1200 X147.861 Y86.484 E152.63550
G0 F9000 X148.086 Y86.143
G1 F1200 X149.190 Y87.247 E152.82285
G0 F9000 X149.418 Y86.910
G1 F1200 X148.310 Y85.802 E153.01088
G0 F9000 X148.535 Y85.461
G1 F1200 X149.635 Y86.561 E153.19756
G0 F9000 X149.851 Y86.211
G1 F1200 X148.751 Y85.111 E153.38424
G0 F9000 X148.955 Y84.750
G1 F1200 X150.067 Y85.862 E153.57295
G0 F9000 X150.284 Y85.513
G1 F1200 X149.159 Y84.388 E153.76387
G0 F9000 X149.364 Y84.027
G1 F1200 X150.487 Y85.150 E153.95445
G0 F9000 X150.685 Y84.782
G1 F1200 X149.568 Y83.666 E154.14392
G0 F9000 X149.757 Y83.289
