;FLAVOR:UltiGCode
;TIME:2867
;MATERIAL:3511
;MATERIAL2:0
;NOZZLE_DIAMETER:0.400000
;NOZZLE_DIAMETER2:0.400000

;Layer count: 53
;LAYER:0
M107
G0 F9000 X92.735 Y105.842 Z0.300
;TYPE:SKIRT
G1 F1200 X93.456 Y105.238 E0.11287
G1 X94.234 Y104.712 E0.22556
G1 X95.060 Y104.271 E0.33793
G1 X95.752 Y103.986 E0.42773
G1 X95.954 Y103.902 E0.45398
G1 X96.841 Y103.650 E0.56464
G1 X97.694 Y103.492 E0.66874
G1 X108.288 Y102.163 E1.94998
G1 X109.005 Y101.698 E2.05253
G1 X109.781 Y101.282 E2.15819
G1 X109.948 Y101.193 E2.18090
G1 X110.673 Y100.881 E2.27561
G1 X110.857 Y100.798 E2.29983
G1 X111.813 Y100.475 E2.42092
G1 X112.798 Y100.225 E2.54287
G1 X113.806 Y100.056 E2.66552
G1 X114.822 Y99.970 E2.78788
G1 X115.702 Y99.966 E2.89348
G1 X115.887 Y99.966 E2.91568
G1 X116.865 Y100.045 E3.03342
G1 X117.870 Y100.206 E3.15556
G1 X118.861 Y100.450 E3.27803
G1 X119.826 Y100.772 E3.40011
G1 X120.664 Y101.129 E3.50941
G1 X120.837 Y101.207 E3.53218
G1 X121.554 Y101.589 E3.62967
G1 X121.715 Y101.674 E3.65152
G1 X122.474 Y102.162 E3.75980
G1 X132.443 Y103.413 E4.96546
G1 X133.055 Y103.491 E5.03950
G1 X133.848 Y103.633 E5.13617
G1 X134.746 Y103.884 E5.24806
G1 X135.476 Y104.176 E5.34241
G1 X135.675 Y104.259 E5.36828
G1 X136.457 Y104.671 E5.47435
G1 X137.233 Y105.186 E5.58611
G1 X137.958 Y105.781 E5.69866
G1 X138.618 Y106.449 E5.81135
G1 X139.205 Y107.181 E5.92394
G1 X139.619 Y107.824 E6.01571
G1 X139.737 Y108.010 E6.04214
G1 X140.142 Y108.817 E6.15050
G1 X140.473 Y109.683 E6.26175
G1 X140.717 Y110.589 E6.37434
G1 X140.867 Y111.519 E6.48738
G1 X140.908 Y112.263 E6.57680
G1 X140.923 Y112.448 E6.59907
G1 X140.875 Y113.396 E6.71298
G1 X140.736 Y114.318 E6.82487
G1 X140.501 Y115.224 E6.93719
G1 X140.215 Y115.994 E7.03575
G1 X140.130 Y116.199 E7.06238
G1 X139.751 Y116.955 E7.16387
G1 X139.350 Y117.590 E7.25399
G1 X139.231 Y117.776 E7.28049
G1 X138.668 Y118.484 E7.38903
G1 X138.023 Y119.150 E7.50029
G1 X137.302 Y119.754 E7.61316
G1 X136.526 Y120.279 E7.72559
G1 X135.698 Y120.723 E7.83833
G1 X135.000 Y121.008 E7.92880
G1 X134.804 Y121.090 E7.95430
G1 X133.917 Y121.342 E8.06495
G1 X133.065 Y121.500 E8.16893
G1 X122.470 Y122.830 E9.45031
G1 X121.751 Y123.295 E9.55306
G1 X120.977 Y123.710 E9.65845
G1 X120.810 Y123.799 E9.68116
G1 X120.094 Y124.107 E9.77469
G1 X119.901 Y124.194 E9.80010
G1 X118.944 Y124.517 E9.92130
G1 X117.959 Y124.767 E10.04325
G1 X116.952 Y124.936 E10.16578
G1 X115.936 Y125.022 E10.28813
G1 X115.056 Y125.026 E10.39374
G1 X114.871 Y125.026 E10.41594
G1 X113.893 Y124.947 E10.53368
G1 X112.889 Y124.786 E10.65570
G1 X111.896 Y124.542 E10.77840
G1 X110.932 Y124.220 E10.90036
G1 X110.094 Y123.863 E11.00967
G1 X109.921 Y123.785 E11.03244
G1 X109.204 Y123.403 E11.12993
G1 X109.043 Y123.318 E11.15178
G1 X108.283 Y122.829 E11.26023
G1 X97.705 Y121.501 E12.53955
G1 X96.910 Y121.359 E12.63646
G1 X96.012 Y121.108 E12.74835
G1 X95.282 Y120.816 E12.84270
G1 X95.080 Y120.732 E12.86895
G1 X94.301 Y120.320 E12.97470
G1 X93.527 Y119.808 E13.08606
G1 X92.800 Y119.211 E13.19895
G1 X92.140 Y118.543 E13.31163
G1 X91.553 Y117.811 E13.42423
G1 X91.139 Y117.168 E13.51600
G1 X91.021 Y116.982 E13.54243
G1 X90.616 Y116.174 E13.65089
G1 X90.373 Y115.536 E13.73282
G1 X90.285 Y115.326 E13.76014
G1 X90.039 Y114.393 E13.87592
G1 X89.891 Y113.473 E13.98774
G1 X89.849 Y112.719 E14.07836
G1 X89.835 Y112.544 E14.09943
G1 X89.883 Y111.596 E14.21334
G1 X90.022 Y110.674 E14.32523
G1 X90.257 Y109.767 E14.43766
G1 X90.584 Y108.887 E14.55032
G1 X91.003 Y108.043 E14.66339
G1 X91.408 Y107.402 E14.75438
G1 X91.527 Y107.216 E14.78087
G1 X92.090 Y106.508 E14.88942
G1 X92.735 Y105.842 E15.00068
G0 F9000 X93.008 Y106.135
G1 F1200 X93.697 Y105.558 E15.10852
G1 X94.441 Y105.055 E15.21629
G1 X95.230 Y104.633 E15.32366
G1 X95.888 Y104.363 E15.40901
G1 X96.086 Y104.281 E15.43473
G1 X96.932 Y104.040 E15.54029
G1 X97.755 Y103.888 E15.64072
G1 X108.428 Y102.548 E16.93153
G1 X109.208 Y102.043 E17.04304
G1 X109.969 Y101.634 E17.14671
G1 X110.121 Y101.553 E17.16738
G1 X110.882 Y101.226 E17.26677
G1 X111.003 Y101.171 E17.28272
G1 X111.927 Y100.859 E17.39975
G1 X112.880 Y100.617 E17.51774
G1 X113.856 Y100.454 E17.63648
G1 X114.840 Y100.370 E17.75499
G1 X115.702 Y100.366 E17.85844
G1 X115.871 Y100.366 E17.87872
G1 X116.817 Y100.442 E17.99260
G1 X117.790 Y100.598 E18.11085
G1 X118.749 Y100.835 E18.22939
G1 X119.684 Y101.146 E18.34764
G1 X120.504 Y101.495 E18.45458
G1 X120.660 Y101.566 E18.47515
G1 X121.366 Y101.942 E18.57113
G1 X121.512 Y102.019 E18.59094
G1 X122.307 Y102.530 E18.70435
G1 X122.330 Y102.548 E18.70785
G1 X132.393 Y103.810 E19.92487
G1 X132.995 Y103.887 E19.99770
G1 X133.759 Y104.023 E20.09082
G1 X134.618 Y104.264 E20.19788
G1 X135.325 Y104.546 E20.28922
G1 X135.504 Y104.621 E20.31251
G1 X136.253 Y105.015 E20.41407
G1 X136.995 Y105.508 E20.52097
G1 X137.688 Y106.077 E20.62857
G1 X138.318 Y106.716 E20.73625
G1 X138.880 Y107.415 E20.84388
G1 X139.282 Y108.040 E20.93305
G1 X139.389 Y108.207 E20.95685
G1 X139.775 Y108.978 E21.06032
G1 X140.092 Y109.807 E21.16683
G1 X140.326 Y110.673 E21.27447
G1 X140.469 Y111.562 E21.38253
G1 X140.505 Y112.225 E21.46220
G1 X140.522 Y112.453 E21.48964
G1 X140.477 Y113.356 E21.59813
G1 X140.343 Y114.237 E21.70507
G1 X140.119 Y115.104 E21.81253
G1 X139.843 Y115.847 E21.90764
G1 X139.766 Y116.033 E21.93179
G1 X139.403 Y116.758 E22.02909
G1 X139.012 Y117.375 E22.11675
G1 X138.905 Y117.544 E22.14075
G1 X138.367 Y118.219 E22.24433
G1 X137.750 Y118.857 E22.35083
G1 X137.061 Y119.434 E22.45868
G1 X136.319 Y119.936 E22.56618
G1 X135.528 Y120.360 E22.67388
G1 X134.870 Y120.629 E22.75918
G1 X134.672 Y120.711 E22.78490
G1 X133.826 Y120.952 E22.89046
G1 X133.003 Y121.104 E22.99089
G1 X122.331 Y122.444 E24.28158
G1 X121.548 Y122.950 E24.39346
G1 X120.789 Y123.358 E24.49686
G1 X120.637 Y123.439 E24.51753
G1 X119.876 Y123.766 E24.61692
G1 X119.755 Y123.821 E24.63287
G1 X118.831 Y124.133 E24.74990
G1 X117.876 Y124.375 E24.86813
G1 X116.902 Y124.538 E24.98663
G1 X115.918 Y124.622 E25.10514
G1 X115.056 Y124.626 E25.20858
G1 X114.887 Y124.626 E25.22886
G1 X113.941 Y124.550 E25.34275
G1 X112.969 Y124.394 E25.46088
G1 X112.008 Y124.157 E25.57965
G1 X111.073 Y123.846 E25.69790
G1 X110.254 Y123.497 E25.80473
G1 X110.098 Y123.426 E25.82530
G1 X109.392 Y123.050 E25.92128
G1 X109.246 Y122.973 E25.94109
G1 X108.449 Y122.461 E26.05477
G1 X108.427 Y122.444 E26.05810
G1 X97.765 Y121.106 E27.34758
G1 X96.999 Y120.969 E27.44096
G1 X96.140 Y120.728 E27.54802
G1 X95.433 Y120.446 E27.63936
G1 X95.251 Y120.370 E27.66302
G1 X94.505 Y119.975 E27.76432
G1 X93.765 Y119.486 E27.87075
G1 X93.070 Y118.915 E27.97869
G1 X92.440 Y118.276 E28.08637
G1 X91.878 Y117.577 E28.19400
G1 X91.476 Y116.952 E28.28318
G1 X91.369 Y116.785 E28.30698
G1 X90.982 Y116.013 E28.41061
G1 X90.745 Y115.390 E28.49059
G1 X90.665 Y115.197 E28.51566
G1 X90.431 Y114.310 E28.62574
G1 X90.289 Y113.430 E28.73271
G1 X90.253 Y112.767 E28.81239
G1 X90.236 Y112.539 E28.83982
G1 X90.281 Y111.636 E28.94832
G1 X90.415 Y110.755 E29.05525
G1 X90.639 Y109.887 E29.16283
G1 X90.952 Y109.046 E29.27051
G1 X91.352 Y108.239 E29.37859
G1 X91.746 Y107.617 E29.46695
G1 X91.853 Y107.448 E29.49095
G1 X92.391 Y106.773 E29.59453
G1 X93.008 Y106.135 E29.70104
G10
G0 F9000 X95.596 Y108.925
;TYPE:WALL-INNER
G11
G1 F1200 X95.992 Y108.593 E29.76305
G1 X96.405 Y108.314 E29.82286
G1 X96.850 Y108.076 E29.88341
G1 X97.338 Y107.875 E29.94675
G1 X97.799 Y107.744 E30.00426
G1 X98.343 Y107.643 E30.07065
G1 X109.910 Y106.191 E31.46959
G1 X110.572 Y105.687 E31.56943
G1 X111.133 Y105.323 E31.64968
G1 X111.763 Y104.985 E31.73547
G1 X112.388 Y104.715 E31.81717
G1 X112.992 Y104.509 E31.89375
G1 X113.666 Y104.338 E31.97719
G1 X114.333 Y104.227 E32.05833
G1 X115.012 Y104.169 E32.14011
G1 X115.711 Y104.166 E32.22399
G1 X116.368 Y104.218 E32.30308
G1 X117.022 Y104.323 E32.38256
G1 X117.700 Y104.490 E32.46635
G1 X118.336 Y104.702 E32.54680
G1 X118.971 Y104.973 E32.62965
G1 X119.592 Y105.302 E32.71398
G1 X120.128 Y105.647 E32.79048
G1 X120.694 Y106.074 E32.87556
G1 X120.845 Y106.191 E32.89848
G1 X132.411 Y107.643 E34.29729
G1 X132.910 Y107.732 E34.35812
G1 X133.403 Y107.870 E34.41955
G1 X133.879 Y108.060 E34.48105
G1 X134.312 Y108.288 E34.53978
G1 X134.731 Y108.566 E34.60012
G1 X135.123 Y108.888 E34.66099
G1 X135.477 Y109.247 E34.72149
G1 X135.791 Y109.638 E34.78167
G1 X136.082 Y110.090 E34.84618
G1 X136.294 Y110.514 E34.90307
G1 X136.474 Y110.982 E34.96324
G1 X136.606 Y111.473 E35.02425
G1 X136.686 Y111.966 E35.08418
G1 X136.715 Y112.508 E35.14932
G1 X136.692 Y112.974 E35.20530
G1 X136.616 Y113.472 E35.26576
G1 X136.490 Y113.959 E35.32612
G1 X136.307 Y114.453 E35.38934
G1 X136.092 Y114.883 E35.44703
G1 X135.806 Y115.336 E35.51131
G1 X135.508 Y115.710 E35.56870
G1 X135.162 Y116.067 E35.62836
G1 X134.766 Y116.399 E35.69037
G1 X134.353 Y116.679 E35.75025
G1 X133.905 Y116.919 E35.81123
G1 X133.413 Y117.119 E35.87497
G1 X132.959 Y117.248 E35.93160
G1 X132.415 Y117.349 E35.99800
G1 X120.848 Y118.801 E37.39693
G1 X120.188 Y119.304 E37.49651
G1 X119.616 Y119.674 E37.57826
G1 X118.995 Y120.007 E37.66282
G1 X118.370 Y120.277 E37.74452
G1 X117.763 Y120.484 E37.82147
G1 X117.094 Y120.653 E37.90428
G1 X116.425 Y120.765 E37.98567
G1 X115.746 Y120.823 E38.06745
G1 X115.047 Y120.826 E38.15133
G1 X114.390 Y120.774 E38.23042
G1 X113.733 Y120.668 E38.31028
G1 X113.060 Y120.503 E38.39343
G1 X112.423 Y120.290 E38.47403
G1 X111.787 Y120.019 E38.55699
G1 X111.166 Y119.690 E38.64132
G1 X110.622 Y119.340 E38.71894
G1 X110.062 Y118.916 E38.80323
G1 X109.906 Y118.800 E38.82656
G1 X98.347 Y117.349 E40.22453
G1 X97.848 Y117.260 E40.28535
G1 X97.355 Y117.122 E40.34679
G1 X96.876 Y116.931 E40.40867
G1 X96.452 Y116.706 E40.46627
G1 X96.024 Y116.424 E40.52777
G1 X95.635 Y116.104 E40.58822
G1 X95.278 Y115.742 E40.64923
G1 X94.967 Y115.354 E40.70890
G1 X94.676 Y114.902 E40.77341
G1 X94.468 Y114.486 E40.82922
G1 X94.274 Y113.980 E40.89425
G1 X94.152 Y113.519 E40.95148
G1 X94.072 Y113.026 E41.01141
G1 X94.043 Y112.483 E41.07666
G1 X94.066 Y112.018 E41.13253
G1 X94.142 Y111.520 E41.19298
G1 X94.270 Y111.024 E41.25445
G1 X94.441 Y110.565 E41.31323
G1 X94.672 Y110.100 E41.37554
G1 X94.952 Y109.656 E41.43853
G1 X95.250 Y109.282 E41.49591
G1 X95.596 Y108.925 E41.55557
G0 F9000 X110.464 Y111.331
G1 F1200 X110.363 Y111.911 E41.62622
G1 X110.329 Y112.499 E41.69689
G1 X110.372 Y113.137 E41.77363
G1 X110.479 Y113.713 E41.84393
G1 X110.634 Y114.223 E41.90790
G1 X110.866 Y114.763 E41.97842
G1 X111.160 Y115.271 E42.04886
G1 X111.511 Y115.742 E42.11934
G1 X111.913 Y116.169 E42.18972
G1 X112.363 Y116.547 E42.26024
G1 X112.854 Y116.869 E42.33070
G1 X113.378 Y117.134 E42.40117
G1 X113.931 Y117.335 E42.47177
G1 X114.503 Y117.470 E42.54230
G1 X115.086 Y117.538 E42.61273
G1 X115.672 Y117.538 E42.68305
G1 X116.255 Y117.470 E42.75349
G1 X116.827 Y117.335 E42.82401
G1 X117.380 Y117.134 E42.89462
G1 X117.904 Y116.869 E42.96508
G1 X118.395 Y116.547 E43.03554
G1 X118.845 Y116.169 E43.10607
G1 X119.247 Y115.742 E43.17644
G1 X119.598 Y115.271 E43.24693
G1 X119.892 Y114.763 E43.31736
G1 X120.125 Y114.223 E43.38794
G1 X120.294 Y113.661 E43.45836
G1 X120.395 Y113.081 E43.52901
G1 X120.429 Y112.496 E43.59933
G1 X120.395 Y111.911 E43.66965
G1 X120.294 Y111.331 E43.74029
G1 X120.125 Y110.769 E43.81072
G1 X119.892 Y110.229 E43.88129
G1 X119.598 Y109.721 E43.95172
G1 X119.247 Y109.250 E44.02221
G1 X118.845 Y108.823 E44.09259
G1 X118.395 Y108.445 E44.16311
G1 X117.904 Y108.123 E44.23357
G1 X117.380 Y107.858 E44.30404
G1 X116.827 Y107.657 E44.37464
G1 X116.255 Y107.522 E44.44517
G1 X115.672 Y107.454 E44.51560
G1 X115.086 Y107.454 E44.58592
G1 X114.503 Y107.522 E44.65636
G1 X113.931 Y107.657 E44.72688
G1 X113.378 Y107.858 E44.79749
G1 X112.854 Y108.123 E44.86795
G1 X112.363 Y108.445 E44.93841
G1 X111.913 Y108.823 E45.00894
G1 X111.511 Y109.250 E45.07931
G1 X111.160 Y109.721 E45.14980
G1 X110.866 Y110.229 E45.22023
G1 X110.633 Y110.769 E45.29081
G1 X110.464 Y111.331 E45.36123
G0 F9000 X110.854 Y111.424
;TYPE:WALL-OUTER
G1 F1200 X110.761 Y111.957 E45.42616
G1 X110.730 Y112.497 E45.49106
G1 X110.769 Y113.087 E45.56202
G1 X110.868 Y113.618 E45.62684
G1 X111.010 Y114.086 E45.68553
G1 X111.224 Y114.583 E45.75046
G1 X111.495 Y115.051 E45.81536
G1 X111.818 Y115.485 E45.88028
G1 X112.188 Y115.878 E45.94505
G1 X112.602 Y116.226 E46.00995
G1 X113.055 Y116.522 E46.07488
G1 X113.537 Y116.766 E46.13971
G1 X114.046 Y116.951 E46.20470
G1 X114.572 Y117.075 E46.26955
G1 X115.109 Y117.138 E46.33443
G1 X115.649 Y117.138 E46.39923
G1 X116.186 Y117.075 E46.46412
G1 X116.712 Y116.951 E46.52897
G1 X117.221 Y116.766 E46.59396
G1 X117.703 Y116.522 E46.65878
G1 X118.156 Y116.226 E46.72372
G1 X118.570 Y115.878 E46.78862
G1 X118.940 Y115.485 E46.85339
G1 X119.263 Y115.051 E46.91831
G1 X119.534 Y114.583 E46.98321
G1 X119.748 Y114.086 E47.04814
G1 X119.904 Y113.568 E47.11306
G1 X119.997 Y113.035 E47.17799
G1 X120.028 Y112.496 E47.24277
G1 X119.997 Y111.957 E47.30756
G1 X119.904 Y111.424 E47.37249
G1 X119.748 Y110.906 E47.43740
G1 X119.534 Y110.409 E47.50234
G1 X119.263 Y109.941 E47.56723
G1 X118.940 Y109.507 E47.63215
G1 X118.570 Y109.114 E47.69693
G1 X118.156 Y108.766 E47.76183
G1 X117.703 Y108.470 E47.82676
G1 X117.221 Y108.226 E47.89159
G1 X116.712 Y108.041 E47.95658
G1 X116.186 Y107.917 E48.02143
G1 X115.649 Y107.854 E48.08631
G1 X115.109 Y107.854 E48.15111
G1 X114.572 Y107.917 E48.21599
G1 X114.046 Y108.041 E48.28085
G1 X113.537 Y108.226 E48.34583
G1 X113.055 Y108.470 E48.41066
G1 X112.602 Y108.766 E48.47560
G1 X112.188 Y109.114 E48.54050
G1 X111.818 Y109.507 E48.60527
G1 X111.495 Y109.941 E48.67019
G1 X111.224 Y110.409 E48.73509
G1 X111.010 Y110.906 E48.80002
G1 X110.854 Y111.424 E48.86494
G0 F9000 X110.560 Y111.371
G0 X109.790 Y106.105
G0 X109.753 Y105.808
G1 F1200 X110.336 Y105.364 E48.95288
G1 X110.943 Y104.971 E49.03965
G1 X111.594 Y104.622 E49.12829
G1 X112.227 Y104.349 E49.21101
G1 X112.883 Y104.124 E49.29423
G1 X113.584 Y103.946 E49.38102
G1 X114.282 Y103.829 E49.46595
G1 X114.988 Y103.769 E49.55098
G1 X115.739 Y103.766 E49.64110
G1 X116.412 Y103.820 E49.72212
G1 X117.110 Y103.932 E49.80695
G1 X117.799 Y104.102 E49.89211
G1 X118.482 Y104.330 E49.97852
G1 X119.140 Y104.610 E50.06433
G1 X119.798 Y104.959 E50.15371
G1 X120.355 Y105.317 E50.23316
G1 X120.935 Y105.755 E50.32038
G1 X121.004 Y105.808 E50.33082
G1 X132.477 Y107.248 E51.71838
G1 X132.996 Y107.341 E51.78165
G1 X133.528 Y107.490 E51.84795
G1 X134.039 Y107.694 E51.91397
G1 X134.511 Y107.940 E51.97785
G1 X134.972 Y108.246 E52.04424
G1 X135.395 Y108.594 E52.10997
G1 X135.778 Y108.982 E52.17540
G1 X136.119 Y109.406 E52.24069
G1 X136.418 Y109.872 E52.30713
G1 X136.425 Y109.883 E52.30870
G1 X136.661 Y110.354 E52.37191
G1 X136.855 Y110.861 E52.43706
G1 X136.998 Y111.391 E52.50293
G1 X137.083 Y111.916 E52.56675
G1 X137.114 Y112.483 E52.63489
G1 X137.115 Y112.496 E52.63646
G1 X137.090 Y113.015 E52.69881
G1 X137.008 Y113.554 E52.76423
G1 X136.871 Y114.081 E52.82957
G1 X136.680 Y114.598 E52.89571
G1 X136.437 Y115.086 E52.96113
G1 X136.132 Y115.568 E53.02958
G1 X135.811 Y115.971 E53.09141
G1 X135.429 Y116.365 E53.15726
G1 X135.012 Y116.715 E53.22259
G1 X134.554 Y117.025 E53.28895
G1 X134.082 Y117.278 E53.35322
G1 X133.563 Y117.490 E53.42049
G1 X133.055 Y117.637 E53.48396
G1 X132.476 Y117.744 E53.55461
G1 X121.005 Y119.184 E54.94194
G1 X120.422 Y119.629 E55.02995
G1 X119.815 Y120.021 E55.11666
G1 X119.164 Y120.370 E55.20529
G1 X118.531 Y120.643 E55.28802
G1 X117.875 Y120.868 E55.37124
G1 X117.173 Y121.046 E55.45814
G1 X116.476 Y121.163 E55.54295
G1 X115.770 Y121.223 E55.62798
G1 X115.019 Y121.226 E55.71810
G1 X114.346 Y121.172 E55.79912
G1 X113.648 Y121.060 E55.88395
G1 X112.957 Y120.890 E55.96934
G1 X112.276 Y120.662 E56.05552
G1 X111.618 Y120.382 E56.14133
G1 X110.960 Y120.033 E56.23071
G1 X110.397 Y119.672 E56.31097
G1 X109.822 Y119.236 E56.39756
G1 X109.752 Y119.184 E56.40803
G1 X98.281 Y117.744 E57.79535
G1 X97.762 Y117.651 E57.85862
G1 X97.230 Y117.502 E57.92492
G1 X96.719 Y117.298 E57.99094
G1 X96.238 Y117.045 E58.05616
G1 X95.790 Y116.749 E58.12060
G1 X95.363 Y116.398 E58.18693
