;FLAVOR:UltiGCode
;TIME:4626
;MATERIAL:6001
;MATERIAL2:0
;NOZZLE_DIAMETER:0.400000
;NOZZLE_DIAMETER2:0.400000

;Layer count: 88
;LAYER:0
M107
G0 F9000 X51.862 Y97.393 Z0.300
G0 X51.526 Y97.601
;TYPE:SKIRT
G1 F1200 X51.862 Y97.393 E0.04742
G1 X52.749 Y97.084 E0.16013
G1 X53.129 Y96.941 E0.20886
G1 X54.335 Y96.804 E0.35451
G1 X60.772 Y96.800 E1.12695
G1 X64.301 Y96.800 E1.55043
G1 X64.301 Y116.800 E3.95043
G1 X98.700 Y116.800 E8.07831
G1 X98.700 Y96.800 E10.47831
G1 X107.632 Y96.800 E11.55015
G1 X108.836 Y96.937 E11.69556
G1 X110.147 Y97.396 E11.86224
G1 X111.327 Y98.137 E12.02945
G1 X112.313 Y99.123 E12.19678
G1 X113.054 Y100.303 E12.36398
G1 X113.513 Y101.614 E12.53067
G1 X113.647 Y102.791 E12.67282
G1 X113.652 Y103.087 E12.70834
G1 X113.665 Y103.257 E12.72880
G1 X113.718 Y103.469 E12.75503
G1 X113.724 Y103.491 E12.75776
G1 X113.868 Y103.798 E12.79845
G1 X113.967 Y103.954 E12.82062
G1 X114.135 Y104.132 E12.85000
G1 X122.430 Y104.124 E13.84540
G1 X124.025 Y104.126 E14.03680
G1 X137.626 Y104.127 E15.66892
G1 X139.544 Y104.126 E15.89908
G1 X151.233 Y104.127 E17.30176
G1 X153.151 Y104.126 E17.53192
G1 X164.836 Y104.127 E18.93412
G1 X166.887 Y104.123 E19.18024
G1 X181.650 Y104.137 E20.95180
G1 X181.650 Y115.864 E22.35904
G1 X166.833 Y115.877 E24.13708
G1 X164.771 Y115.875 E24.38452
G1 X151.101 Y115.874 E26.02492
G1 X149.173 Y115.875 E26.25628
G1 X137.425 Y115.874 E27.66604
G1 X135.498 Y115.875 E27.89728
G1 X123.756 Y115.874 E29.30632
G1 X122.201 Y115.878 E29.49292
G1 X114.137 Y115.868 E30.46060
G1 X114.038 Y115.973 E30.47792
G1 X113.874 Y116.221 E30.51360
G1 X113.822 Y116.294 E30.52435
G1 X113.726 Y116.503 E30.55195
G1 X113.716 Y116.539 E30.55643
G1 X113.666 Y116.739 E30.58117
G1 X113.650 Y116.945 E30.60597
G1 X113.650 Y122.181 E31.23429
G1 X113.557 Y123.001 E31.33332
G1 X113.511 Y123.390 E31.38032
G1 X113.173 Y124.358 E31.50336
G1 X113.034 Y124.728 E31.55079
G1 X112.531 Y125.529 E31.66429
G1 X112.532 Y125.529 E31.66441
G1 X112.319 Y125.871 E31.71276
G1 X111.327 Y126.863 E31.88111
G1 X110.474 Y127.399 E32.00200
G1 X110.138 Y127.607 E32.04942
G1 X109.251 Y127.916 E32.16213
G1 X108.871 Y128.059 E32.21085
G1 X107.668 Y128.196 E32.35615
G1 X104.808 Y128.200 E32.69935
G1 X54.370 Y128.200 E38.75191
G1 X53.550 Y128.107 E38.85094
G1 X53.160 Y128.061 E38.89806
G1 X52.192 Y127.723 E39.02110
G1 X51.822 Y127.584 E39.06853
G1 X51.021 Y127.081 E39.18203
G1 X51.021 Y127.082 E39.18215
G1 X50.679 Y126.869 E39.23050
G1 X49.687 Y125.877 E39.39885
G1 X49.151 Y125.024 E39.51974
G1 X48.943 Y124.688 E39.56716
G1 X48.634 Y123.801 E39.67987
G1 X48.490 Y123.419 E39.72886
G1 X48.375 Y122.391 E39.85299
G1 X48.351 Y122.188 E39.87752
G1 X48.351 Y102.821 E42.20156
G1 X48.443 Y102.002 E42.30046
G1 X48.489 Y101.610 E42.34782
G1 X48.827 Y100.642 E42.47086
G1 X48.966 Y100.272 E42.51829
G1 X49.469 Y99.471 E42.63179
G1 X49.468 Y99.471 E42.63191
G1 X49.681 Y99.129 E42.68026
G1 X50.673 Y98.137 E42.84861
G1 X51.526 Y97.601 E42.96950
G10
G0 F9000 X53.507 Y100.844
;TYPE:WALL-INNER
G11
G1 F1200 X54.020 Y100.664 E43.03474
G1 X54.550 Y100.604 E43.09874
G1 X60.501 Y100.600 E43.81286
G1 X60.501 Y120.600 E46.21286
G1 X102.500 Y120.600 E51.25274
G1 X102.500 Y100.600 E53.65274
G1 X107.417 Y100.600 E54.24278
G1 X107.983 Y100.665 E54.31115
G1 X108.488 Y100.841 E54.37533
G1 X108.945 Y101.128 E54.44008
G1 X109.322 Y101.505 E54.50406
G1 X109.609 Y101.962 E54.56882
G1 X109.785 Y102.467 E54.63299
G1 X109.850 Y103.037 E54.70184
G1 X109.854 Y103.260 E54.72860
G1 X109.901 Y103.868 E54.80178
G1 X110.045 Y104.444 E54.87303
G1 X110.139 Y104.796 E54.91675
G1 X110.467 Y105.497 E55.00962
G1 X110.563 Y105.685 E55.03495
G1 X110.990 Y106.351 E55.12989
G1 X111.693 Y107.084 E55.25176
G1 X112.492 Y107.659 E55.36989
G1 X113.092 Y107.832 E55.44482
G1 X113.326 Y107.933 E55.47541
G1 X122.431 Y107.924 E56.56801
G1 X137.628 Y107.927 E58.39165
G1 X173.448 Y107.933 E62.69005
G1 X173.389 Y107.956 E62.69765
G1 X172.887 Y108.310 E62.77136
G1 X172.548 Y108.699 E62.83328
G1 X172.299 Y109.175 E62.89774
G1 X172.167 Y109.695 E62.96212
G1 X172.158 Y110.197 E63.02237
G1 X172.173 Y110.332 E63.03867
G1 X172.298 Y110.825 E63.09970
G1 X172.549 Y111.302 E63.16438
G1 X172.886 Y111.690 E63.22605
G1 X173.388 Y112.043 E63.29969
G1 X173.461 Y112.071 E63.30908
G1 X166.832 Y112.077 E64.10456
G1 X123.748 Y112.074 E69.27464
G1 X122.198 Y112.078 E69.46064
G1 X113.322 Y112.067 E70.52576
G1 X113.090 Y112.171 E70.55627
G1 X112.495 Y112.341 E70.63052
G1 X112.081 Y112.634 E70.69139
G1 X111.692 Y112.920 E70.74933
G1 X111.047 Y113.607 E70.86241
G1 X110.739 Y114.073 E70.92944
G1 X110.519 Y114.386 E70.97535
G1 X110.140 Y115.204 E71.08353
G1 X109.901 Y116.131 E71.19841
G1 X109.850 Y116.797 E71.27856
G1 X109.850 Y121.966 E71.89884
G1 X109.786 Y122.529 E71.96684
G1 X109.608 Y123.039 E72.03166
G1 X109.321 Y123.496 E72.09641
G1 X108.945 Y123.872 E72.16022
G1 X108.493 Y124.156 E72.22428
G1 X107.980 Y124.336 E72.28952
G1 X107.451 Y124.396 E72.35341
G1 X54.584 Y124.400 E78.69745
G1 X54.021 Y124.336 E78.76544
G1 X53.511 Y124.158 E78.83026
G1 X53.054 Y123.871 E78.89502
G1 X52.678 Y123.495 E78.95883
G1 X52.394 Y123.043 E79.02289
G1 X52.214 Y122.530 E79.08813
G1 X52.151 Y121.966 E79.15623
G1 X52.151 Y103.031 E81.42843
G1 X52.214 Y102.471 E81.49605
G1 X52.392 Y101.961 E81.56087
G1 X52.679 Y101.504 E81.62563
G1 X53.055 Y101.128 E81.68944
G1 X53.507 Y100.844 E81.75350
G0 F9000 X55.233 Y102.501
G1 F1200 X53.951 Y102.501 E81.90734
G1 X53.951 Y106.100 E82.33922
G1 X55.229 Y106.100 E82.49258
G1 X55.466 Y106.378 E82.53642
G1 X55.962 Y106.723 E82.60892
G1 X56.051 Y106.787 E82.62207
G1 X56.626 Y106.998 E82.69557
G1 X56.726 Y107.035 E82.70837
G1 X57.329 Y107.092 E82.78105
G1 X57.437 Y107.104 E82.79409
G1 X58.048 Y107.007 E82.86833
G1 X58.152 Y106.988 E82.88101
G1 X58.712 Y106.741 E82.95446
G1 X58.808 Y106.696 E82.96718
G1 X59.286 Y106.316 E83.04046
G1 X59.368 Y106.249 E83.05317
G1 X59.732 Y105.761 E83.12622
G1 X59.794 Y105.676 E83.13885
G1 X60.064 Y105.013 E83.22475
G1 X60.141 Y104.414 E83.29722
G1 X60.156 Y104.305 E83.31043
G1 X60.078 Y103.689 E83.38494
G1 X60.063 Y103.584 E83.39767
G1 X59.794 Y102.924 E83.48319
G1 X59.431 Y102.436 E83.55618
G1 X59.367 Y102.350 E83.56904
G1 X58.887 Y101.968 E83.64265
G1 X58.808 Y101.903 E83.65493
G1 X58.244 Y101.654 E83.72891
G1 X58.152 Y101.612 E83.74105
G1 X57.543 Y101.514 E83.81507
G1 X57.446 Y101.497 E83.82689
G1 X56.828 Y101.556 E83.90138
G1 X56.724 Y101.567 E83.91393
G1 X56.152 Y101.777 E83.98705
G1 X56.053 Y101.814 E83.99974
G1 X55.491 Y102.205 E84.08189
G1 X55.233 Y102.501 E84.12901
G0 F9000 X54.010 Y102.560
G0 X54.010 Y106.041
G0 X56.828 Y112.956
G1 F1200 X56.724 Y112.967 E84.14156
G1 X56.152 Y113.177 E84.21468
G1 X56.053 Y113.214 E84.22736
G1 X55.491 Y113.605 E84.30952
G1 X55.234 Y113.900 E84.35647
G1 X53.951 Y113.900 E84.51043
G1 X53.951 Y117.501 E84.94255
G1 X55.229 Y117.501 E85.09591
G1 X55.466 Y117.778 E85.13966
G1 X55.962 Y118.123 E85.21216
G1 X56.051 Y118.187 E85.22531
G1 X56.626 Y118.398 E85.29881
G1 X56.726 Y118.435 E85.31161
G1 X57.329 Y118.492 E85.38429
G1 X57.437 Y118.504 E85.39733
G1 X58.048 Y118.407 E85.47157
G1 X58.152 Y118.388 E85.48425
G1 X58.712 Y118.141 E85.55770
G1 X58.808 Y118.096 E85.57042
G1 X59.286 Y117.716 E85.64370
G1 X59.368 Y117.649 E85.65641
G1 X59.732 Y117.161 E85.72946
G1 X59.794 Y117.076 E85.74209
G1 X60.064 Y116.413 E85.82799
G1 X60.141 Y115.813 E85.90058
G1 X60.156 Y115.704 E85.91379
G1 X60.078 Y115.089 E85.98818
G1 X60.063 Y114.984 E86.00090
G1 X59.794 Y114.324 E86.08643
G1 X59.431 Y113.836 E86.15942
G1 X59.367 Y113.750 E86.17228
G1 X58.887 Y113.368 E86.24589
G1 X58.808 Y113.303 E86.25817
G1 X58.244 Y113.054 E86.33215
G1 X58.152 Y113.012 E86.34429
G1 X57.543 Y112.914 E86.41831
G1 X57.446 Y112.897 E86.43013
G1 X56.828 Y112.956 E86.50462
G0 F9000 X60.499 Y113.165
G0 X60.560 Y120.541
G0 X102.441 Y120.541
G0 X102.859 Y115.587
G1 F1200 X102.844 Y115.696 E86.51783
G1 X102.922 Y116.312 E86.59234
G1 X102.937 Y116.417 E86.60506
G1 X103.206 Y117.077 E86.69059
G1 X103.569 Y117.565 E86.76357
G1 X103.633 Y117.651 E86.77644
G1 X104.107 Y118.028 E86.84912
G1 X104.192 Y118.098 E86.86233
G1 X104.747 Y118.343 E86.93513
G1 X104.848 Y118.389 E86.94845
G1 X105.457 Y118.487 E87.02247
G1 X105.554 Y118.504 E87.03429
G1 X106.172 Y118.445 E87.10878
G1 X106.276 Y118.434 E87.12133
G1 X106.848 Y118.224 E87.19445
G1 X106.947 Y118.187 E87.20713
G1 X107.450 Y117.837 E87.28067
G1 X107.537 Y117.775 E87.29349
G1 X107.770 Y117.501 E87.33665
G1 X109.050 Y117.501 E87.49025
G1 X109.050 Y113.900 E87.92237
G1 X107.771 Y113.900 E88.07585
G1 X107.536 Y113.624 E88.11935
G1 X107.038 Y113.278 E88.19212
G1 X106.949 Y113.214 E88.20527
G1 X106.374 Y113.003 E88.27877
G1 X106.274 Y112.966 E88.29157
G1 X105.671 Y112.909 E88.36425
G1 X105.563 Y112.897 E88.37729
G1 X104.952 Y112.994 E88.45153
G1 X104.848 Y113.013 E88.46421
G1 X104.288 Y113.260 E88.53766
G1 X104.192 Y113.305 E88.55038
G1 X103.714 Y113.685 E88.62366
G1 X103.632 Y113.752 E88.63637
G1 X103.268 Y114.240 E88.70942
G1 X103.206 Y114.325 E88.72205
G1 X102.936 Y114.988 E88.80795
G1 X102.859 Y115.587 E88.88042
G0 F9000 X104.747 Y106.943
G1 F1200 X104.848 Y106.989 E88.89374
G1 X105.457 Y107.087 E88.96776
G1 X105.554 Y107.104 E88.97958
G1 X106.172 Y107.045 E89.05408
G1 X106.276 Y107.034 E89.06663
G1 X106.848 Y106.824 E89.13975
G1 X106.947 Y106.787 E89.15243
G1 X107.450 Y106.437 E89.22596
G1 X107.538 Y106.375 E89.23888
G1 X107.771 Y106.100 E89.28213
G1 X109.050 Y106.100 E89.43561
G1 X109.050 Y102.501 E89.86749
G1 X107.771 Y102.501 E90.02097
G1 X107.536 Y102.224 E90.06456
G1 X107.038 Y101.878 E90.13733
G1 X106.949 Y101.814 E90.15049
G1 X106.374 Y101.603 E90.22398
G1 X106.274 Y101.566 E90.23678
G1 X105.671 Y101.509 E90.30946
G1 X105.563 Y101.497 E90.32250
G1 X104.952 Y101.594 E90.39674
G1 X104.848 Y101.613 E90.40943
G1 X104.288 Y101.860 E90.48287
G1 X104.192 Y101.905 E90.49560
G1 X103.714 Y102.285 E90.56887
G1 X103.632 Y102.352 E90.58158
G1 X103.268 Y102.840 E90.65464
G1 X103.206 Y102.925 E90.66726
G1 X102.936 Y103.588 E90.75317
G1 X102.859 Y104.188 E90.82576
G1 X102.844 Y104.297 E90.83896
G1 X102.922 Y104.912 E90.91335
G1 X102.937 Y105.017 E90.92608
G1 X103.206 Y105.677 E91.01160
G1 X103.569 Y106.165 E91.08459
G1 X103.633 Y106.251 E91.09745
G1 X104.107 Y106.628 E91.17013
G1 X104.192 Y106.698 E91.18334
G1 X104.747 Y106.943 E91.25614
G10
G0 F9000 X175.511 Y107.957
G11
G1 F1200 X175.450 Y107.933 E91.26401
G1 X177.850 Y107.934 E91.55201
G1 X177.850 Y112.068 E92.04809
G1 X175.430 Y112.070 E92.33849
G1 X175.556 Y112.019 E92.35480
G1 X176.012 Y111.691 E92.42221
G1 X176.351 Y111.302 E92.48413
G1 X176.600 Y110.826 E92.54859
G1 X176.732 Y110.306 E92.61297
G1 X176.741 Y109.804 E92.67322
G1 X176.726 Y109.669 E92.68952
G1 X176.601 Y109.176 E92.75055
G1 X176.350 Y108.699 E92.81523
G1 X176.013 Y108.311 E92.87690
G1 X175.511 Y107.957 E92.95061
G0 F9000 X174.955 Y108.172
;TYPE:WALL-OUTER
G1 F1200 X174.890 Y108.152 E92.95877
G1 X174.450 Y108.100 E93.01194
G1 X174.010 Y108.151 E93.06509
G1 X173.945 Y108.171 E93.07326
G1 X173.576 Y108.313 E93.12070
G1 X173.167 Y108.598 E93.18052
G1 X172.881 Y108.926 E93.23274
G1 X172.675 Y109.319 E93.28599
G1 X172.566 Y109.748 E93.33910
G1 X172.559 Y110.179 E93.39083
G1 X172.568 Y110.261 E93.40073
G1 X172.674 Y110.681 E93.45271
G1 X172.881 Y111.075 E93.50612
G1 X173.166 Y111.402 E93.55817
G1 X173.575 Y111.686 E93.61792
G1 X173.944 Y111.829 E93.66541
G1 X174.009 Y111.849 E93.67357
G1 X174.450 Y111.901 E93.72686
G1 X174.889 Y111.850 E93.77989
G1 X175.365 Y111.665 E93.84118
G1 X175.732 Y111.403 E93.89529
G1 X176.018 Y111.075 E93.94751
G1 X176.224 Y110.682 E94.00075
G1 X176.333 Y110.253 E94.05387
G1 X176.340 Y109.822 E94.10560
G1 X176.331 Y109.740 E94.11550
G1 X176.225 Y109.320 E94.16748
G1 X176.018 Y108.926 E94.22088
G1 X175.733 Y108.599 E94.27294
G1 X175.324 Y108.314 E94.33276
G1 X174.955 Y108.172 E94.38020
G0 F9000 X175.066 Y107.894
G0 X178.040 Y107.833
G0 X178.250 Y107.534
G1 F1200 X178.250 Y112.467 E94.97216
G1 X113.407 Y112.467 E102.75332
G1 X113.226 Y112.549 E102.77717
G1 X112.670 Y112.707 E102.84653
G1 X111.959 Y113.221 E102.95181
G1 X111.362 Y113.856 E103.05640
G1 X111.066 Y114.303 E103.12073
G1 X110.867 Y114.587 E103.16235
G1 X110.517 Y115.341 E103.26210
G1 X110.297 Y116.196 E103.36804
G1 X110.250 Y116.812 E103.44218
G1 X110.250 Y121.986 E104.06306
G1 X110.177 Y122.623 E104.14000
G1 X109.975 Y123.203 E104.21370
G1 X109.643 Y123.735 E104.28895
G1 X109.635 Y123.748 E104.29078
G1 X109.195 Y124.188 E104.36545
G1 X108.675 Y124.514 E104.43910
G1 X108.081 Y124.724 E104.51470
G1 X107.470 Y124.796 E104.58853
G1 X54.565 Y124.800 E110.93713
G1 X53.927 Y124.727 E111.01419
G1 X53.347 Y124.525 E111.08789
G1 X52.815 Y124.193 E111.16314
G1 X52.362 Y123.745 E111.23959
G1 X52.035 Y123.224 E111.31341
G1 X51.826 Y122.631 E111.38886
G1 X51.754 Y122.011 E111.46376
G1 X51.751 Y103.013 E113.74352
G1 X51.821 Y102.390 E113.81875
G1 X51.822 Y102.378 E113.82019
G1 X52.025 Y101.797 E113.89405
G1 X52.357 Y101.265 E113.96930
G1 X52.365 Y101.252 E113.97113
G1 X52.805 Y100.812 E114.04580
G1 X53.325 Y100.486 E114.11945
G1 X53.919 Y100.276 E114.19505
G1 X54.531 Y100.204 E114.26900
G1 X60.901 Y100.200 E115.03340
G1 X60.901 Y120.200 E117.43340
G1 X102.100 Y120.200 E122.37728
G1 X102.100 Y100.200 E124.77728
G1 X107.436 Y100.200 E125.41760
G1 X108.073 Y100.273 E125.49454
G1 X108.667 Y100.481 E125.57006
G1 X109.195 Y100.812 E125.64484
G1 X109.638 Y101.255 E125.72002
G1 X109.969 Y101.783 E125.79480
G1 X110.177 Y102.377 E125.87033
G1 X110.250 Y103.016 E125.94751
G1 X110.254 Y103.241 E125.97451
G1 X110.297 Y103.804 E126.04227
G1 X110.432 Y104.344 E126.10906
G1 X110.516 Y104.659 E126.14818
G1 X110.826 Y105.321 E126.23590
G1 X110.910 Y105.486 E126.25812
G1 X111.299 Y106.092 E126.34453
G1 X111.958 Y106.782 E126.45903
G1 X112.669 Y107.294 E126.56417
G1 X113.222 Y107.452 E126.63319
G1 X113.409 Y107.533 E126.65764
G1 X178.250 Y107.534 E134.43856
G0 F9000 X178.040 Y107.833
G0 X113.089 Y107.829
G0 X111.100 Y106.452
G0 X108.650 Y106.000
G0 X108.650 Y105.700
G1 F1200 X108.650 Y102.901 E134.77444
G1 X107.586 Y102.901 E134.90212
G1 X107.265 Y102.523 E134.96163
G1 X106.807 Y102.204 E135.02861
G1 X106.761 Y102.171 E135.03540
G1 X106.184 Y101.959 E135.10917
G1 X105.628 Y101.906 E135.17619
G1 X105.574 Y101.900 E135.18271
G1 X105.019 Y101.989 E135.25016
G1 X104.965 Y101.998 E135.25673
G1 X104.453 Y102.225 E135.32394
G1 X104.403 Y102.248 E135.33054
G1 X103.965 Y102.596 E135.39767
G1 X103.923 Y102.631 E135.40423
G1 X103.557 Y103.122 E135.47772
G1 X103.326 Y103.691 E135.55141
G1 X103.255 Y104.245 E135.61844
G1 X103.247 Y104.300 E135.62510
G1 X103.319 Y104.858 E135.69262
G1 X103.326 Y104.912 E135.69915
G1 X103.557 Y105.479 E135.77262
G1 X103.924 Y105.971 E135.84628
G1 X104.360 Y106.319 E135.91322
G1 X104.403 Y106.354 E135.91988
G1 X104.914 Y106.580 E135.98693
G1 X104.965 Y106.603 E135.99364
G1 X105.520 Y106.692 E136.06109
G1 X105.571 Y106.701 E136.06730
G1 X106.131 Y106.647 E136.13482
G1 X106.185 Y106.641 E136.14134
G1 X106.760 Y106.430 E136.21484
G1 X107.220 Y106.110 E136.28208
G1 X107.265 Y106.078 E136.28870
G1 X107.585 Y105.700 E136.34814
G1 X108.650 Y105.700 E136.47594
G0 F9000 X108.650 Y106.000
G0 X106.287 Y113.077
G0 X106.184 Y113.359
G1 F1200 X105.628 Y113.306 E136.54296
G1 X105.574 Y113.300 E136.54948
G1 X105.019 Y113.389 E136.61693
G1 X104.965 Y113.398 E136.62350
G1 X104.453 Y113.625 E136.69071
G1 X104.403 Y113.648 E136.69731
G1 X103.965 Y113.996 E136.76444
G1 X103.923 Y114.031 E136.77100
G1 X103.557 Y114.522 E136.84449
G1 X103.326 Y115.091 E136.91818
G1 X103.255 Y115.644 E136.98509
G1 X103.247 Y115.699 E136.99176
G1 X103.319 Y116.258 E137.05939
G1 X103.326 Y116.312 E137.06592
G1 X103.557 Y116.879 E137.13939
G1 X103.924 Y117.371 E137.21305
G1 X104.360 Y117.719 E137.27999
G1 X104.403 Y117.754 E137.28665
G1 X104.914 Y117.980 E137.35370
G1 X104.965 Y118.003 E137.36041
G1 X105.520 Y118.092 E137.42786
G1 X105.571 Y118.101 E137.43407
G1 X106.131 Y118.047 E137.50159
G1 X106.185 Y118.041 E137.50811
G1 X106.760 Y117.830 E137.58161
G1 X107.220 Y117.510 E137.64885
G1 X107.265 Y117.478 E137.65547
