;FLAVOR:UltiGCode
;TIME:3470
;MATERIAL:4377
;MATERIAL2:0
;NOZZLE_DIAMETER:0.400000
;NOZZLE_DIAMETER2:0.400000

;Layer count: 88
;LAYER:0
M107
G0 F9000 X12.214 Y8.742 Z0.300
;TYPE:SKIRT
G1 F1200 X24.871 Y21.401 E2.14813
G1 X22.396 Y23.874 E2.56799
G1 X199.596 Y201.074 E32.63982
G1 X202.071 Y198.599 E33.05984
G1 X214.727 Y211.257 E35.20781
G1 X202.424 Y223.561 E37.29578
G1 X189.768 Y210.903 E39.44375
G1 X192.242 Y208.429 E39.86360
G1 X15.042 Y31.229 E69.93543
G1 X12.567 Y33.703 E70.35537
G1 X-0.090 Y21.046 E72.50334
G1 X12.214 Y8.742 E74.59139
G10
G0 F9000 X12.214 Y14.116
;TYPE:WALL-INNER
G11
G1 F1200 X19.497 Y21.400 E75.82744
G1 X17.021 Y23.874 E76.24747
G1 X199.596 Y206.449 E107.23147
G1 X202.071 Y203.973 E107.65158
G1 X209.354 Y211.257 E108.88763
G1 X202.424 Y218.187 E110.06369
G1 X195.141 Y210.903 E111.29974
G1 X197.615 Y208.428 E111.71968
G1 X15.042 Y25.854 E142.70343
G1 X12.567 Y28.330 E143.12353
G1 X5.283 Y21.046 E144.35967
G1 X12.214 Y14.116 E145.53581
G0 F9000 X13.805 Y16.485
G1 F1200 X7.652 Y22.637 E146.57993
G1 X10.976 Y25.961 E147.14403
G1 X17.127 Y19.809 E148.18797
G1 X13.805 Y16.485 E148.75190
G0 F9000 X19.108 Y21.786
G0 X17.104 Y23.874
G0 X199.596 Y206.366
G0 X203.662 Y206.343
G1 F1200 X197.509 Y212.494 E149.79593
G1 X200.833 Y215.818 E150.36003
G1 X206.986 Y209.666 E151.40415
G1 X203.662 Y206.343 E151.96817
G0 F9000 X203.662 Y206.908
;TYPE:WALL-OUTER
G1 F1200 X198.075 Y212.494 E152.91623
G1 X200.833 Y215.252 E153.38427
G1 X206.420 Y209.666 E154.33233
G1 X203.662 Y206.908 E154.80038
G0 F9000 X203.451 Y206.696
G0 X199.596 Y206.366
G0 X199.385 Y206.095
G0 X199.596 Y205.883
G1 F1200 X202.071 Y203.407 E155.22049
G1 X209.920 Y211.257 E156.55259
G1 X202.424 Y218.753 E157.82471
G1 X194.575 Y210.903 E159.15681
G1 X197.050 Y208.428 E159.57683
G1 X15.042 Y26.420 E190.46461
G1 X12.567 Y28.896 E190.88472
G1 X4.717 Y21.046 E192.21691
G1 X12.214 Y13.550 E193.48911
G1 X20.063 Y21.400 E194.82121
G1 X17.587 Y23.874 E195.24123
G1 X199.596 Y205.883 E226.12919
G0 F9000 X199.385 Y206.095
G0 X17.104 Y23.874
G0 X19.011 Y21.883
G0 X16.774 Y19.598
G0 X16.562 Y19.809
G1 F1200 X13.805 Y17.051 E226.59715
G1 X8.218 Y22.637 E227.54521
G1 X10.976 Y25.395 E228.01326
G1 X16.562 Y19.809 E228.96123
G0 F9000 X17.294 Y19.840
;TYPE:SKIN
G1 F1200 X19.076 Y21.621 E229.26356
G0 F9000 X18.793 Y21.904
G1 F1200 X17.011 Y20.122 E229.56598
G0 F9000 X16.728 Y20.405
G1 F1200 X18.510 Y22.187 E229.86839
G0 F9000 X18.227 Y22.469
G1 F1200 X16.445 Y20.688 E230.17072
G0 F9000 X16.163 Y20.971
G1 F1200 X17.944 Y22.752 E230.47297
G0 F9000 X17.661 Y23.035
G1 F1200 X15.880 Y21.254 E230.77522
G0 F9000 X15.597 Y21.537
G1 F1200 X17.377 Y23.317 E231.07729
G0 F9000 X17.095 Y23.600
G1 F1200 X15.314 Y21.819 E231.37954
G0 F9000 X15.031 Y22.102
G1 F1200 X201.366 Y208.437 E263.00164
G0 F9000 X201.083 Y208.720
G1 F1200 X14.748 Y22.385 E294.62373
G0 F9000 X14.465 Y22.668
G1 F1200 X200.800 Y209.003 E326.24583
G0 F9000 X200.517 Y209.285
G1 F1200 X14.183 Y22.951 E357.86776
G0 F9000 X13.900 Y23.234
G1 F1200 X200.234 Y209.568 E389.48969
G0 F9000 X201.649 Y208.154
G1 F1200 X199.867 Y206.373 E389.79202
G0 F9000 X197.605 Y208.636
G1 F1200 X199.386 Y210.417 E390.09427
G0 F9000 X199.103 Y210.700
G1 F1200 X197.322 Y208.918 E390.39660
G0 F9000 X197.039 Y209.201
G1 F1200 X198.820 Y210.982 E390.69884
G0 F9000 X198.537 Y211.265
G1 F1200 X196.756 Y209.484 E391.00109
G0 F9000 X196.473 Y209.767
G1 F1200 X198.255 Y211.548 E391.30342
G0 F9000 X197.972 Y211.831
G1 F1200 X196.191 Y210.050 E391.60566
G0 F9000 X195.908 Y210.333
G1 F1200 X197.689 Y212.114 E391.90791
G0 F9000 X197.406 Y212.397
G1 F1200 X195.625 Y210.615 E392.21024
G0 F9000 X195.342 Y210.898
G1 F1200 X202.428 Y217.984 E393.41277
G0 F9000 X202.711 Y217.701
G1 F1200 X200.930 Y215.920 E393.71502
G0 F9000 X201.212 Y215.637
G1 F1200 X202.994 Y217.419 E394.01744
G0 F9000 X203.276 Y217.136
G1 F1200 X201.495 Y215.355 E394.31968
G0 F9000 X201.778 Y215.072
G1 F1200 X203.559 Y216.853 E394.62193
G0 F9000 X203.842 Y216.570
G1 F1200 X202.061 Y214.789 E394.92417
G0 F9000 X202.344 Y214.506
G1 F1200 X204.125 Y216.287 E395.22642
G0 F9000 X204.408 Y216.004
G1 F1200 X202.627 Y214.223 E395.52866
G0 F9000 X202.909 Y213.940
G1 F1200 X204.691 Y215.722 E395.83108
G0 F9000 X204.973 Y215.439
G1 F1200 X203.192 Y213.657 E396.13341
G0 F9000 X203.475 Y213.375
G1 F1200 X205.256 Y215.156 E396.43566
G0 F9000 X205.539 Y214.873
G1 F1200 X203.758 Y213.092 E396.73790
G0 F9000 X204.041 Y212.809
G1 F1200 X205.822 Y214.590 E397.04015
G0 F9000 X206.105 Y214.307
G1 F1200 X204.324 Y212.526 E397.34239
G0 F9000 X204.607 Y212.243
G1 F1200 X206.388 Y214.024 E397.64464
G0 F9000 X206.671 Y213.742
G1 F1200 X204.889 Y211.960 E397.94705
G0 F9000 X205.172 Y211.678
G1 F1200 X206.953 Y213.459 E398.24930
G0 F9000 X207.236 Y213.176
G1 F1200 X205.455 Y211.395 E398.55155
G0 F9000 X205.738 Y211.112
G1 F1200 X207.519 Y212.893 E398.85379
G0 F9000 X207.802 Y212.610
G1 F1200 X206.021 Y210.829 E399.15604
G0 F9000 X206.304 Y210.546
G1 F1200 X208.085 Y212.327 E399.45828
G0 F9000 X208.368 Y212.045
G1 F1200 X206.586 Y210.263 E399.76070
G0 F9000 X206.869 Y209.981
G1 F1200 X208.650 Y211.762 E400.06294
G0 F9000 X208.933 Y211.479
G1 F1200 X207.152 Y209.698 E400.36519
G0 F9000 X203.629 Y206.174
G1 F1200 X201.847 Y204.392 E400.66760
G0 F9000 X201.564 Y204.675
G1 F1200 X203.346 Y206.457 E400.97002
G0 F9000 X203.063 Y206.740
G1 F1200 X201.281 Y204.958 E401.27244
G0 F9000 X200.998 Y205.241
G1 F1200 X202.780 Y207.023 E401.57485
G0 F9000 X202.497 Y207.306
G1 F1200 X200.716 Y205.524 E401.87718
G0 F9000 X200.433 Y205.807
G1 F1200 X202.214 Y207.588 E402.17943
G0 F9000 X201.932 Y207.871
G1 F1200 X200.150 Y206.090 E402.48176
G0 F9000 X199.952 Y209.851
G1 F1200 X13.617 Y23.516 E434.10386
G0 F9000 X13.334 Y23.799
G1 F1200 X199.669 Y210.134 E465.72595
G0 F9000 X14.833 Y25.864
G1 F1200 X13.051 Y24.082 E466.02837
G0 F9000 X12.768 Y24.365
G1 F1200 X14.550 Y26.147 E466.33078
G0 F9000 X14.268 Y26.430
G1 F1200 X12.486 Y24.648 E466.63320
G0 F9000 X12.203 Y24.931
G1 F1200 X13.985 Y26.713 E466.93562
G0 F9000 X13.703 Y26.996
G1 F1200 X11.920 Y25.214 E467.23812
G0 F9000 X11.637 Y25.496
G1 F1200 X13.420 Y27.279 E467.54070
G0 F9000 X13.137 Y27.562
G1 F1200 X11.354 Y25.779 E467.84329
G0 F9000 X11.071 Y26.062
G1 F1200 X12.854 Y27.845 E468.14587
G0 F9000 X12.571 Y28.128
G1 F1200 X5.485 Y21.041 E469.34849
G0 F9000 X5.767 Y20.758
G1 F1200 X7.549 Y22.539 E469.65082
G0 F9000 X7.831 Y22.256
G1 F1200 X6.050 Y20.475 E469.95307
G0 F9000 X6.333 Y20.192
G1 F1200 X8.114 Y21.974 E470.25540
G0 F9000 X8.397 Y21.691
G1 F1200 X6.616 Y19.910 E470.55764
G0 F9000 X6.899 Y19.627
G1 F1200 X8.680 Y21.408 E470.85989
G0 F9000 X8.963 Y21.125
G1 F1200 X7.182 Y19.344 E471.16213
G0 F9000 X7.464 Y19.061
G1 F1200 X9.246 Y20.842 E471.46447
G0 F9000 X9.528 Y20.559
G1 F1200 X7.747 Y18.778 E471.76671
G0 F9000 X8.030 Y18.495
G1 F1200 X9.811 Y20.276 E472.06896
G0 F9000 X10.094 Y19.994
G1 F1200 X8.313 Y18.212 E472.37129
G0 F9000 X8.596 Y17.930
G1 F1200 X10.377 Y19.711 E472.67353
G0 F9000 X10.660 Y19.428
G1 F1200 X8.879 Y17.647 E472.97578
G0 F9000 X9.161 Y17.364
G1 F1200 X10.943 Y19.145 E473.27811
G0 F9000 X11.226 Y18.862
G1 F1200 X9.444 Y17.081 E473.58044
G0 F9000 X9.727 Y16.798
G1 F1200 X11.508 Y18.579 E473.88269
G0 F9000 X11.791 Y18.297
G1 F1200 X10.010 Y16.515 E474.18502
G0 F9000 X10.293 Y16.233
G1 F1200 X12.074 Y18.014 E474.48726
G0 F9000 X12.357 Y17.731
G1 F1200 X10.576 Y15.950 E474.78951
G0 F9000 X10.859 Y15.667
G1 F1200 X12.640 Y17.448 E475.09175
G0 F9000 X12.923 Y17.165
G1 F1200 X11.141 Y15.384 E475.39408
G0 F9000 X11.424 Y15.101
G1 F1200 X13.205 Y16.882 E475.69633
G0 F9000 X13.488 Y16.600
G1 F1200 X11.707 Y14.818 E475.99866
G0 F9000 X11.990 Y14.535
G1 F1200 X13.771 Y16.317 E476.30099
;LAYER:1
M106 S5
G0 F9000 X13.805 Y16.485 Z0.400
;TYPE:WALL-INNER
G1 F1500 X7.652 Y22.637 E476.64903
G1 X10.976 Y25.961 E476.83706
G1 X17.127 Y19.809 E477.18504
G1 X13.805 Y16.485 E477.37302
G0 F9000 X12.214 Y14.116
G1 F1500 X19.497 Y21.400 E477.78504
G1 X17.021 Y23.874 E477.92505
G1 X199.596 Y206.449 E488.25305
G1 X202.071 Y203.973 E488.39308
G1 X209.354 Y211.257 E488.80510
G1 X202.424 Y218.187 E489.19712
G1 X195.141 Y210.903 E489.60914
G1 X197.615 Y208.428 E489.74912
G1 X15.042 Y25.854 E500.07703
G1 X12.567 Y28.330 E500.21707
G1 X5.283 Y21.046 E500.62911
G1 X12.214 Y14.116 E501.02116
G0 F9000 X19.481 Y21.413
G0 X17.104 Y23.874
G0 X199.596 Y206.366
G0 X203.662 Y206.343
G1 F1500 X197.509 Y212.494 E501.36917
G1 X200.833 Y215.818 E501.55720
G1 X206.986 Y209.666 E501.90524
G1 X203.662 Y206.343 E502.09325
G0 F9000 X203.662 Y206.908
;TYPE:WALL-OUTER
G1 F1500 X198.075 Y212.494 E502.40927
G1 X200.833 Y215.252 E502.56528
G1 X206.420 Y209.666 E502.88130
G1 X203.662 Y206.908 E503.03732
G0 F9000 X203.451 Y206.696
G0 X199.596 Y206.366
G0 X199.385 Y206.095
G0 X199.596 Y205.883
G1 F1500 X202.071 Y203.407 E503.17736
G1 X209.920 Y211.257 E503.62139
G1 X202.424 Y218.753 E504.04543
G1 X194.575 Y210.903 E504.48946
G1 X197.050 Y208.428 E504.62947
G1 X15.042 Y26.420 E514.92540
G1 X12.567 Y28.896 E515.06543
G1 X4.717 Y21.046 E515.50950
G1 X12.214 Y13.550 E515.93356
G1 X20.063 Y21.400 E516.37760
G1 X17.587 Y23.874 E516.51760
G1 X199.596 Y205.883 E526.81359
G0 F9000 X199.385 Y206.095
G0 X17.104 Y23.874
G0 X19.011 Y21.883
G0 X16.774 Y19.598
G0 X16.562 Y19.809
G1 F1500 X13.805 Y17.051 E526.96958
G1 X8.218 Y22.637 E527.28560
G1 X10.976 Y25.395 E527.44161
G1 X16.562 Y19.809 E527.75760
G0 F9000 X17.003 Y19.483
;TYPE:SKIN
G1 F1500 X17.335 Y19.433 E527.76841
G1 X17.285 Y19.766 E527.78188
G0 F9000 X17.759 Y19.858
G1 F1500 X11.026 Y26.591 E528.16276
G0 F9000 X11.309 Y26.874
G1 F1500 X18.042 Y20.141 E528.54364
G0 F9000 X18.325 Y20.424
G1 F1500 X11.592 Y27.157 E528.92451
G0 F9000 X11.875 Y27.439
G1 F1500 X18.608 Y20.706 E529.30539
G0 F9000 X18.891 Y20.989
G1 F1500 X12.157 Y27.722 E529.68629
G0 F9000 X12.440 Y28.005
G1 F1500 X19.173 Y21.272 E530.06717
G0 F9000 X16.980 Y24.031
G1 F1500 X15.199 Y25.812 E530.16792
G0 F9000 X15.482 Y26.095
G1 F1500 X17.263 Y24.314 E530.26867
G0 F9000 X17.546 Y24.597
G1 F1500 X15.765 Y26.377 E530.36939
G0 F9000 X16.048 Y26.660
G1 F1500 X17.828 Y24.880 E530.47008
G0 F9000 X18.111 Y25.163
G1 F1500 X16.331 Y26.943 E530.57077
G0 F9000 X16.614 Y27.226
G1 F1500 X18.394 Y25.445 E530.67149
G0 F9000 X18.677 Y25.728
G1 F1500 X16.897 Y27.509 E530.77221
G0 F9000 X17.179 Y27.792
G1 F1500 X18.960 Y26.011 E530.87296
G0 F9000 X19.243 Y26.294
G1 F1500 X17.462 Y28.074 E530.97368
G0 F9000 X17.745 Y28.357
G1 F1500 X19.526 Y26.577 E531.07440
G0 F9000 X19.808 Y26.860
G1 F1500 X18.028 Y28.640 E531.17509
G0 F9000 X18.311 Y28.923
G1 F1500 X20.091 Y27.143 E531.27578
G0 F9000 X20.374 Y27.425
G1 F1500 X18.594 Y29.206 E531.37650
G0 F9000 X18.876 Y29.489
G1 F1500 X20.657 Y27.708 E531.47725
G0 F9000 X20.940 Y27.991
G1 F1500 X19.159 Y29.772 E531.57800
G0 F9000 X19.442 Y30.054
G1 F1500 X21.223 Y28.274 E531.67872
G0 F9000 X21.505 Y28.557
G1 F1500 X19.725 Y30.337 E531.77941
G0 F9000 X15.042 Y25.937
G0 X10.934 Y26.117
G1 F1500 X10.601 Y26.166 E531.79022
G1 X10.510 Y25.693 E531.80101
G1 X10.036 Y25.601 E531.81177
G1 X9.944 Y25.127 E531.82259
G1 X9.470 Y25.035 E531.83341
G1 X9.378 Y24.561 E531.84422
G1 X8.904 Y24.469 E531.85504
G1 X8.812 Y23.995 E531.86585
G1 X8.339 Y23.904 E531.87659
G1 X8.247 Y23.430 E531.88741
G1 X7.773 Y23.338 E531.89823
G1 X7.681 Y22.864 E531.90904
G1 X7.349 Y22.914 E531.92247
G0 F9000 X7.066 Y22.631
G1 F1500 X13.799 Y15.898 E532.30335
G0 F9000 X13.517 Y15.615
G1 F1500 X6.783 Y22.348 E532.68425
G0 F9000 X6.501 Y22.065
G1 F1500 X13.234 Y15.332 E533.06513
G0 F9000 X12.951 Y15.050
G1 F1500 X6.218 Y21.783 E533.44600
G0 F9000 X5.935 Y21.500
G1 F1500 X12.668 Y14.767 E533.82688
G0 F9000 X12.385 Y14.484
G1 F1500 X5.652 Y21.217 E534.20776
G0 F9000 X13.891 Y16.372
G1 F1500 X14.223 Y16.322 E534.21857
G1 X14.315 Y16.796 E534.22938
G1 X14.789 Y16.888 E534.24020
G1 X14.881 Y17.361 E534.25099
G1 X15.355 Y17.453 E534.26181
G1 X15.447 Y17.927 E534.27258
G1 X15.920 Y18.019 E534.28337
G1 X16.012 Y18.493 E534.29418
G1 X16.486 Y18.585 E534.30500
G1 X16.578 Y19.058 E534.31575
G1 X16.911 Y19.009 E534.32921
G0 F9000 X17.104 Y23.874
G0 X21.788 Y28.840
G1 F1500 X20.008 Y30.620 E534.42990
G0 F9000 X20.291 Y30.903
G1 F1500 X22.071 Y29.122 E534.53062
G0 F9000 X22.354 Y29.405
G1 F1500 X20.573 Y31.186 E534.63137
G0 F9000 X20.856 Y31.469
G1 F1500 X22.637 Y29.688 E534.73212
G0 F9000 X22.920 Y29.971
G1 F1500 X21.139 Y31.751 E534.83284
G0 F9000 X21.422 Y32.034
G1 F1500 X23.203 Y30.254 E534.93356
G0 F9000 X23.485 Y30.537
G1 F1500 X21.705 Y32.317 E535.03425
G0 F9000 X21.988 Y32.600
G1 F1500 X23.768 Y30.819 E535.13497
G0 F9000 X24.051 Y31.102
G1 F1500 X22.271 Y32.883 E535.23569
G0 F9000 X22.553 Y33.166
G1 F1500 X24.334 Y31.385 E535.33644
G0 F9000 X24.617 Y31.668
G1 F1500 X22.836 Y33.448 E535.43716
G0 F9000 X23.119 Y33.731
G1 F1500 X24.900 Y31.951 E535.53788
G0 F9000 X25.182 Y32.234
G1 F1500 X23.402 Y34.014 E535.63857
G0 F9000 X23.685 Y34.297
G1 F1500 X25.465 Y32.517 E535.73927
G0 F9000 X25.748 Y32.799
G1 F1500 X23.968 Y34.580 E535.83999
G0 F9000 X24.250 Y34.863
G1 F1500 X26.031 Y33.082 E535.94073
G0 F9000 X26.314 Y33.365
G1 F1500 X24.533 Y35.146 E536.04148
G0 F9000 X24.816 Y35.428
G1 F1500 X26.597 Y33.648 E536.14220
G0 F9000 X26.879 Y33.931
G1 F1500 X25.099 Y35.711 E536.24290
G0 F9000 X25.382 Y35.994
G1 F1500 X27.162 Y34.214 E536.34359
G0 F9000 X27.445 Y34.496
G1 F1500 X25.665 Y36.277 E536.44431
G0 F9000 X25.947 Y36.560
G1 F1500 X27.728 Y34.779 E536.54506
G0 F9000 X28.011 Y35.062
G1 F1500 X26.230 Y36.843 E536.64580
G0 F9000 X26.513 Y37.125
G1 F1500 X28.294 Y35.345 E536.74652
G0 F9000 X28.577 Y35.628
G1 F1500 X26.796 Y37.408 E536.84725
G0 F9000 X27.079 Y37.691
G1 F1500 X28.859 Y35.911 E536.94794
G0 F9000 X29.142 Y36.193
G1 F1500 X27.362 Y37.974 E537.04866
G0 F9000 X27.645 Y38.257
G1 F1500 X29.425 Y36.476 E537.14938
G0 F9000 X29.708 Y36.759
G1 F1500 X27.927 Y38.540 E537.25013
G0 F9000 X28.210 Y38.822
G1 F1500 X29.991 Y37.042 E537.35085
G0 F9000 X30.274 Y37.325
G1 F1500 X28.493 Y39.105 E537.45157
G0 F9000 X28.776 Y39.388
G1 F1500 X30.556 Y37.608 E537.55226
G0 F9000 X30.839 Y37.891
G1 F1500 X29.059 Y39.671 E537.65295
G0 F9000 X29.342 Y39.954
G1 F1500 X31.122 Y38.173 E537.75367
G0 F9000 X31.405 Y38.456
G1 F1500 X29.624 Y40.237 E537.85442
G0 F9000 X29.907 Y40.520
G1 F1500 X31.688 Y38.739 E537.95517
G0 F9000 X31.971 Y39.022
G1 F1500 X30.190 Y40.802 E538.05589
G0 F9000 X30.473 Y41.085
G1 F1500 X32.253 Y39.305 E538.15658
G0 F9000 X32.536 Y39.588
G1 F1500 X30.756 Y41.368 E538.25727
G0 F9000 X31.039 Y41.651
G1 F1500 X32.819 Y39.870 E538.35799
G0 F9000 X33.102 Y40.153
G1 F1500 X31.322 Y41.934 E538.45871
G0 F9000 X31.604 Y42.217
G1 F1500 X33.385 Y40.436 E538.55946
G0 F9000 X33.668 Y40.719
G1 F1500 X31.887 Y42.499 E538.66018
G0 F9000 X32.170 Y42.782
G1 F1500 X33.951 Y41.002 E538.76090
G0 F9000 X34.233 Y41.285
G1 F1500 X32.453 Y43.065 E538.86159
G0 F9000 X32.736 Y43.348
G1 F1500 X34.516 Y41.567 E538.96231
G0 F9000 X34.799 Y41.850
G1 F1500 X33.019 Y43.631 E539.06303
G0 F9000 X33.301 Y43.914
G1 F1500 X35.082 Y42.133 E539.16378
G0 F9000 X35.365 Y42.416
G1 F1500 X33.584 Y44.197 E539.26453
G0 F9000 X33.867 Y44.479
G1 F1500 X35.648 Y42.699 E539.36525
G0 F9000 X35.930 Y42.982
G1 F1500 X34.150 Y44.762 E539.46594
G0 F9000 X34.433 Y45.045
G1 F1500 X36.213 Y43.265 E539.56664
G0 F9000 X36.496 Y43.547
G1 F1500 X34.716 Y45.328 E539.66736
G0 F9000 X34.998 Y45.611
G1 F1500 X36.779 Y43.830 E539.76811
G0 F9000 X37.062 Y44.113
G1 F1500 X35.281 Y45.894 E539.86885
G0 F9000 X35.564 Y46.176
G1 F1500 X37.345 Y44.396 E539.96957
G0 F9000 X37.627 Y44.679
G1 F1500 X35.847 Y46.459 E540.07027
G0 F9000 X36.130 Y46.742
G1 F1500 X37.910 Y44.962 E540.17096
G0 F9000 X38.193 Y45.244
G1 F1500 X36.413 Y47.025 E540.27168
G0 F9000 X36.696 Y47.308
G1 F1500 X38.476 Y45.527 E540.37240
G0 F9000 X38.759 Y45.810
G1 F1500 X36.978 Y47.591 E540.47315
G0 F9000 X37.261 Y47.873
G1 F1500 X39.042 Y46.093 E540.57387
G0 F9000 X39.325 Y46.376
G1 F1500 X37.544 Y48.156 E540.67459
G0 F9000 X37.827 Y48.439
G1 F1500 X39.607 Y46.659 E540.77528
G0 F9000 X39.890 Y46.941
