;FLAVOR:UltiGCode
;TIME:10542
;MATERIAL:12647
;MATERIAL2:0
;NOZZLE_DIAMETER:0.400000
;NOZZLE_DIAMETER2:0.400000

;Layer count: 278
;LAYER:0
M107
G0 F9000 X11.800 Y46.550 Z0.300
;TYPE:SKIRT
G1 F1200 X29.188 Y46.550 E2.08656
G1 X29.197 Y49.050 E2.38656
G1 X124.038 Y49.050 E13.76748
G1 X124.803 Y48.053 E13.91828
G1 X125.889 Y47.220 E14.08252
G1 X127.149 Y46.700 E14.24609
G1 X128.291 Y46.550 E14.38431
G1 X135.560 Y46.550 E15.25659
G1 X135.993 Y46.552 E15.30855
G1 X137.016 Y46.674 E15.43218
G1 X138.182 Y47.111 E15.58161
G1 X139.211 Y47.811 E15.73095
G1 X140.045 Y48.734 E15.88023
G1 X140.251 Y49.116 E15.93231
G1 X144.291 Y49.348 E16.41791
G1 X149.079 Y49.917 E16.99651
G1 X149.330 Y49.948 E17.02686
G1 X154.016 Y50.816 E17.59874
G1 X158.787 Y52.005 E18.18877
G1 X163.382 Y53.464 E18.76730
G1 X163.622 Y53.540 E18.79751
G1 X167.976 Y55.238 E19.35832
G1 X168.207 Y55.329 E19.38811
G1 X172.449 Y57.300 E19.94942
G1 X172.674 Y57.406 E19.97926
G1 X176.775 Y59.634 E20.53932
G1 X176.993 Y59.753 E20.56912
G1 X181.030 Y62.288 E21.14115
G1 X184.951 Y65.098 E21.72003
G1 X185.155 Y65.246 E21.75027
G1 X188.838 Y68.265 E22.32174
G1 X192.444 Y71.608 E22.91180
G1 X195.833 Y75.173 E23.50206
G1 X198.993 Y78.944 E24.09245
G1 X201.844 Y82.820 E24.66985
G1 X201.996 Y83.026 E24.70057
G1 X204.572 Y87.048 E25.27371
G1 X206.965 Y91.343 E25.86371
G1 X209.085 Y95.782 E26.45402
G1 X210.923 Y100.347 E27.04456
G1 X212.468 Y105.016 E27.63472
G1 X213.719 Y109.775 E28.22520
G1 X214.666 Y114.602 E28.81548
G1 X215.234 Y118.905 E29.33632
G1 X215.674 Y119.097 E29.39393
G1 X216.400 Y119.667 E29.50469
G1 X216.734 Y119.924 E29.55526
G1 X217.553 Y121.018 E29.71925
G1 X218.054 Y122.259 E29.87985
G1 X218.200 Y123.378 E30.01527
G1 X218.200 Y130.814 E30.90759
G1 X218.198 Y131.257 E30.96075
G1 X218.073 Y132.276 E31.08395
G1 X217.645 Y133.426 E31.23120
G1 X216.955 Y134.453 E31.37967
G1 X216.039 Y135.288 E31.52840
G1 X215.700 Y135.475 E31.57486
G1 X215.700 Y164.550 E35.06386
G1 X218.200 Y164.550 E35.36386
G1 X218.200 Y178.450 E37.03186
G1 X200.800 Y178.450 E39.11986
G1 X200.800 Y164.562 E40.78642
G1 X203.300 Y164.553 E41.08642
G1 X203.300 Y135.476 E44.57566
G1 X202.981 Y135.300 E44.61938
G1 X202.049 Y134.461 E44.76987
G1 X201.354 Y133.426 E44.91947
G1 X200.924 Y132.270 E45.06747
G1 X200.800 Y131.231 E45.19304
G1 X200.800 Y123.496 E46.12124
G1 X200.802 Y123.068 E46.17260
G1 X200.900 Y122.149 E46.28351
G1 X201.253 Y121.090 E46.41746
G1 X201.820 Y120.135 E46.55074
G1 X202.570 Y119.326 E46.68312
G1 X202.781 Y119.177 E46.71411
G1 X202.286 Y115.773 E47.12689
G1 X201.380 Y111.481 E47.65328
G1 X201.375 Y111.460 E47.65587
G1 X200.247 Y107.461 E48.15447
G1 X198.789 Y103.315 E48.68186
G1 X198.790 Y103.315 E48.68198
G1 X198.782 Y103.293 E48.68479
G1 X197.140 Y99.468 E49.18430
G1 X195.208 Y95.651 E49.69767
G1 X193.028 Y91.959 E50.21218
G1 X190.609 Y88.412 E50.72738
G1 X187.908 Y84.962 E51.25316
G1 X187.885 Y84.932 E51.25770
G1 X185.122 Y81.852 E51.75422
G1 X182.060 Y78.844 E52.26930
G1 X178.734 Y75.976 E52.79631
G1 X178.735 Y75.975 E52.79648
G1 X178.721 Y75.964 E52.79862
G1 X175.384 Y73.458 E53.29940
G1 X171.818 Y71.114 E53.81149
G1 X168.082 Y68.996 E54.32684
G1 X164.221 Y67.126 E54.84164
G1 X160.261 Y65.519 E55.35448
G1 X156.088 Y64.132 E55.88218
G1 X156.088 Y64.131 E55.88230
G1 X156.066 Y64.124 E55.88507
G1 X152.042 Y63.083 E56.38385
G1 X147.836 Y62.273 E56.89784
G1 X143.472 Y61.724 E57.42565
G1 X143.449 Y61.721 E57.42843
G1 X139.896 Y61.515 E57.85551
G1 X139.743 Y61.790 E57.89327
G1 X138.906 Y62.709 E58.04243
G1 X137.875 Y63.401 E58.19144
G1 X136.721 Y63.826 E58.33901
G1 X135.691 Y63.950 E58.46350
G1 X128.429 Y63.950 E59.33494
G1 X127.992 Y63.948 E59.38738
G1 X126.973 Y63.823 E59.51058
G1 X125.823 Y63.395 E59.65783
G1 X124.796 Y62.705 E59.80630
G1 X123.961 Y61.789 E59.95504
G1 X123.774 Y61.450 E60.00150
G1 X29.200 Y61.450 E71.35038
G1 X29.200 Y63.950 E71.65038
G1 X11.800 Y63.950 E73.73838
G1 X11.800 Y46.550 E75.82638
G10
G0 F9000 X15.600 Y50.350
;TYPE:WALL-INNER
G11
G1 F1200 X25.408 Y50.350 E77.00334
G1 X25.483 Y50.923 E77.07268
G1 X25.741 Y51.549 E77.15393
G1 X25.798 Y51.625 E77.16533
G1 X26.157 Y52.092 E77.23602
G1 X26.698 Y52.506 E77.31776
G1 X27.325 Y52.765 E77.39917
G1 X27.960 Y52.850 E77.47605
G1 X127.098 Y52.850 E89.37261
G1 X127.102 Y51.775 E89.50161
G1 X127.153 Y51.389 E89.54833
G1 X127.293 Y51.050 E89.59235
G1 X127.513 Y50.763 E89.63574
G1 X127.800 Y50.543 E89.67914
G1 X128.139 Y50.403 E89.72315
G1 X128.540 Y50.350 E89.77169
G1 X135.551 Y50.350 E90.61301
G1 X135.756 Y50.351 E90.63761
G1 X136.112 Y50.394 E90.68064
G1 X136.423 Y50.510 E90.72047
G1 X136.697 Y50.696 E90.76021
G1 X136.919 Y50.941 E90.79988
G1 X137.358 Y51.755 E90.91086
G1 X137.768 Y52.222 E90.98544
G1 X138.267 Y52.569 E91.05837
G1 X138.831 Y52.793 E91.13119
G1 X139.388 Y52.873 E91.19872
G1 X143.953 Y53.135 E91.74742
G1 X148.623 Y53.690 E92.31176
G1 X148.759 Y53.707 E92.32821
G1 X153.213 Y54.532 E92.87178
G1 X157.749 Y55.663 E93.43277
G1 X162.352 Y57.124 E94.01228
G1 X166.714 Y58.825 E94.57412
G1 X170.839 Y60.742 E95.11996
G1 X170.961 Y60.800 E95.13617
G1 X174.956 Y62.970 E95.68172
G1 X178.909 Y65.443 E96.24126
G1 X182.728 Y68.180 E96.80508
G1 X182.838 Y68.260 E96.82141
G1 X186.336 Y71.127 E97.36414
G1 X189.775 Y74.316 E97.92695
G1 X192.997 Y77.704 E98.48800
G1 X196.001 Y81.291 E99.04945
G1 X198.788 Y85.079 E99.61378
G1 X201.310 Y89.001 E100.17333
G1 X203.588 Y93.089 E100.73491
G1 X205.601 Y97.304 E101.29544
G1 X207.352 Y101.652 E101.85792
G1 X208.829 Y106.115 E102.42204
G1 X210.009 Y110.606 E102.97925
G1 X210.915 Y115.221 E103.54362
G1 X211.529 Y119.874 E104.10682
G1 X211.552 Y120.048 E104.12789
G1 X211.680 Y120.621 E104.19834
G1 X211.944 Y121.159 E104.27026
G1 X212.336 Y121.634 E104.34416
G1 X212.828 Y122.003 E104.41796
G1 X213.708 Y122.385 E104.53308
G1 X214.003 Y122.617 E104.57812
G1 X214.215 Y122.901 E104.62064
G1 X214.349 Y123.231 E104.66338
G1 X214.400 Y123.624 E104.71094
G1 X214.400 Y130.806 E105.57278
G1 X214.399 Y131.013 E105.59762
G1 X214.355 Y131.372 E105.64102
G1 X214.242 Y131.677 E105.68005
G1 X214.055 Y131.955 E105.72026
G1 X213.815 Y132.174 E105.75925
G1 X212.998 Y132.624 E105.87117
G1 X212.528 Y133.047 E105.94705
G1 X212.183 Y133.560 E106.02124
G1 X211.969 Y134.137 E106.09509
G1 X211.900 Y134.714 E106.16482
G1 X211.900 Y165.789 E109.89382
G1 X211.983 Y166.423 E109.97055
G1 X212.241 Y167.049 E110.05180
G1 X212.298 Y167.125 E110.06320
G1 X212.657 Y167.592 E110.13388
G1 X213.198 Y168.006 E110.21563
G1 X213.825 Y168.265 E110.29704
G1 X214.400 Y168.342 E110.36665
G1 X214.400 Y174.650 E111.12361
G1 X204.600 Y174.650 E112.29961
G1 X204.600 Y168.342 E113.05657
G1 X205.174 Y168.265 E113.12607
G1 X205.799 Y168.008 E113.20716
G1 X206.345 Y167.590 E113.28968
G1 X206.399 Y167.518 E113.30048
G1 X206.756 Y167.052 E113.37092
G1 X207.015 Y166.424 E113.45244
G1 X207.100 Y165.790 E113.52920
G1 X207.100 Y134.714 E117.25832
G1 X207.030 Y134.136 E117.32819
G1 X206.816 Y133.560 E117.40193
G1 X206.472 Y133.048 E117.47595
G1 X206.016 Y132.633 E117.54993
G1 X205.199 Y132.183 E117.66186
G1 X204.941 Y131.951 E117.70350
G1 X204.757 Y131.677 E117.74310
G1 X204.644 Y131.372 E117.78214
G1 X204.600 Y131.004 E117.82661
G1 X204.600 Y123.504 E118.72661
G1 X204.601 Y123.282 E118.75325
G1 X204.635 Y122.959 E118.79222
G1 X204.729 Y122.679 E118.82767
G1 X204.881 Y122.423 E118.86339
G1 X205.085 Y122.202 E118.89949
G1 X205.764 Y121.724 E118.99913
G1 X205.834 Y121.672 E119.00959
G1 X206.232 Y121.214 E119.08241
G1 X206.515 Y120.668 E119.15620
G1 X206.663 Y120.072 E119.22990
G1 X206.666 Y119.484 E119.30046
G1 X206.030 Y115.112 E119.83062
G1 X205.098 Y110.694 E120.37245
G1 X203.871 Y106.312 E120.91851
G1 X202.320 Y101.902 E121.47949
G1 X200.588 Y97.866 E122.00652
G1 X198.542 Y93.822 E122.55038
G1 X196.236 Y89.918 E123.09448
G1 X193.682 Y86.173 E123.63844
G1 X190.800 Y82.491 E124.19953
G1 X187.867 Y79.221 E124.72665
G1 X184.635 Y76.045 E125.27041
G1 X181.093 Y72.992 E125.83155
G1 X177.581 Y70.355 E126.35856
G1 X173.793 Y67.866 E126.90247
G1 X169.850 Y65.630 E127.44641
G1 X165.770 Y63.653 E127.99047
G1 X161.570 Y61.949 E128.53437
G1 X157.285 Y60.525 E129.07622
G1 X152.880 Y59.375 E129.62253
G1 X148.429 Y58.518 E130.16646
G1 X143.953 Y57.955 E130.70782
G1 X143.792 Y57.934 E130.72730
G1 X139.429 Y57.682 E131.25173
G1 X139.241 Y57.670 E131.27434
G1 X138.642 Y57.726 E131.34653
G1 X138.049 Y57.934 E131.42194
G1 X137.525 Y58.276 E131.49703
G1 X137.096 Y58.734 E131.57233
G1 X136.639 Y59.555 E131.68509
G1 X136.404 Y59.812 E131.72688
G1 X136.136 Y59.992 E131.76562
G1 X135.826 Y60.106 E131.80525
G1 X135.462 Y60.150 E131.84925
G1 X128.438 Y60.150 E132.69213
G1 X128.236 Y60.149 E132.71637
G1 X127.877 Y60.105 E132.75977
G1 X127.572 Y59.992 E132.79881
G1 X127.294 Y59.805 E132.83901
G1 X127.075 Y59.565 E132.87800
G1 X126.625 Y58.748 E132.98993
G1 X126.202 Y58.278 E133.06581
G1 X125.689 Y57.933 E133.13999
G1 X125.112 Y57.719 E133.21384
G1 X124.536 Y57.650 E133.28345
G1 X27.961 Y57.650 E144.87245
G1 X27.326 Y57.733 E144.94930
G1 X26.698 Y57.993 E145.03087
G1 X26.157 Y58.407 E145.11261
G1 X25.743 Y58.948 E145.19436
G1 X25.483 Y59.576 E145.27593
G1 X25.408 Y60.150 E145.34539
G1 X15.600 Y60.150 E146.52235
G1 X15.600 Y50.350 E147.69835
G0 F9000 X18.551 Y53.301
G1 F1200 X18.114 Y53.873 E147.78473
G1 X17.839 Y54.536 E147.87086
G1 X17.744 Y55.250 E147.95730
G1 X17.839 Y55.963 E148.04361
G1 X18.114 Y56.626 E148.12975
G1 X18.551 Y57.198 E148.21613
G1 X19.123 Y57.635 E148.30250
G1 X19.786 Y57.910 E148.38864
G1 X20.500 Y58.005 E148.47507
G1 X21.213 Y57.910 E148.56139
G1 X21.876 Y57.635 E148.64752
G1 X22.448 Y57.198 E148.73390
G1 X22.885 Y56.626 E148.82028
G1 X23.160 Y55.963 E148.90641
G1 X23.255 Y55.250 E148.99273
G1 X23.160 Y54.536 E149.07916
G1 X22.885 Y53.873 E149.16530
G1 X22.448 Y53.301 E149.25168
G1 X21.876 Y52.864 E149.33805
G1 X21.213 Y52.589 E149.42419
G1 X20.500 Y52.494 E149.51050
G1 X19.786 Y52.589 E149.59694
G1 X19.123 Y52.864 E149.68307
G1 X18.551 Y53.301 E149.76945
G0 F9000 X20.500 Y52.495
G0 X21.876 Y52.866
G0 X129.244 Y55.250
G1 F1200 X129.339 Y55.963 E149.85577
G1 X129.614 Y56.626 E149.94190
G1 X130.051 Y57.198 E150.02828
G1 X130.623 Y57.635 E150.11466
G1 X131.286 Y57.910 E150.20079
G1 X132.000 Y58.005 E150.28723
G1 X132.713 Y57.910 E150.37354
G1 X133.376 Y57.635 E150.45967
G1 X133.948 Y57.198 E150.54605
G1 X134.385 Y56.626 E150.63243
G1 X134.660 Y55.963 E150.71856
G1 X134.755 Y55.250 E150.80488
G1 X134.660 Y54.536 E150.89132
G1 X134.385 Y53.873 E150.97745
G1 X133.948 Y53.301 E151.06383
G1 X133.376 Y52.864 E151.15021
G1 X132.713 Y52.589 E151.23634
G1 X132.000 Y52.494 E151.32266
G1 X131.286 Y52.589 E151.40909
G1 X130.623 Y52.864 E151.49522
G1 X130.051 Y53.301 E151.58160
G1 X129.614 Y53.873 E151.66798
G1 X129.339 Y54.536 E151.75411
G1 X129.244 Y55.250 E151.84055
G0 F9000 X130.053 Y57.196
G0 X132.000 Y58.004
G0 X139.427 Y57.683
G0 X148.429 Y58.519
G0 X157.284 Y60.525
G0 X165.770 Y63.654
G0 X173.793 Y67.866
G0 X181.093 Y72.993
G0 X187.866 Y79.222
G0 X193.681 Y86.173
G0 X198.541 Y93.823
G0 X202.320 Y101.903
G0 X205.097 Y110.695
G0 X206.661 Y120.071
G0 X205.764 Y121.724
G0 X207.551 Y125.301
G1 F1200 X207.114 Y125.873 E151.92693
G1 X206.838 Y126.536 E152.01311
G1 X206.745 Y127.250 E152.09951
G1 X206.838 Y127.963 E152.18580
G1 X207.114 Y128.626 E152.27197
G1 X207.551 Y129.198 E152.35835
G1 X208.123 Y129.635 E152.44473
G1 X208.786 Y129.910 E152.53087
G1 X209.500 Y130.005 E152.61730
G1 X210.213 Y129.910 E152.70362
G1 X210.876 Y129.635 E152.78975
G1 X211.448 Y129.198 E152.87613
G1 X211.885 Y128.626 E152.96251
G1 X212.161 Y127.963 E153.04869
G1 X212.254 Y127.250 E153.13497
G1 X212.161 Y126.536 E153.22138
G1 X211.885 Y125.873 E153.30755
G1 X211.448 Y125.301 E153.39393
G1 X210.876 Y124.864 E153.48031
G1 X210.213 Y124.589 E153.56644
G1 X209.500 Y124.494 E153.65276
G1 X208.786 Y124.589 E153.73920
G1 X208.123 Y124.864 E153.82533
G1 X207.551 Y125.301 E153.91171
G0 F9000 X207.836 Y125.586
;TYPE:WALL-OUTER
G1 F1200 X207.463 Y126.074 E153.98541
G1 X207.228 Y126.641 E154.05907
G1 X207.148 Y127.250 E154.13278
G1 X207.228 Y127.858 E154.20636
G1 X207.463 Y128.425 E154.28002
G1 X207.836 Y128.913 E154.35372
G1 X208.324 Y129.286 E154.42743
G1 X208.891 Y129.521 E154.50108
G1 X209.500 Y129.602 E154.57481
G1 X210.108 Y129.521 E154.64841
G1 X210.675 Y129.286 E154.72206
G1 X211.163 Y128.913 E154.79577
G1 X211.536 Y128.425 E154.86948
G1 X211.771 Y127.858 E154.94313
G1 X211.851 Y127.250 E155.01672
G1 X211.771 Y126.641 E155.09043
G1 X211.536 Y126.074 E155.16408
G1 X211.163 Y125.586 E155.23779
G1 X210.675 Y125.213 E155.31149
G1 X210.108 Y124.978 E155.38515
G1 X209.500 Y124.897 E155.45875
G1 X208.891 Y124.978 E155.53247
G1 X208.324 Y125.213 E155.60613
G1 X207.836 Y125.586 E155.67983
G0 F9000 X207.600 Y125.404
G0 X204.500 Y123.279
G0 X204.201 Y123.257
G1 F1200 X204.242 Y122.876 E155.72582
G1 X204.363 Y122.511 E155.77196
G1 X204.558 Y122.183 E155.81775
G1 X204.820 Y121.900 E155.86403
G1 X205.529 Y121.401 E155.96807
G1 X205.560 Y121.377 E155.97278
G1 X205.899 Y120.987 E156.03478
G1 X206.138 Y120.526 E156.09710
G1 X206.263 Y120.022 E156.15941
G1 X206.266 Y119.512 E156.22061
G1 X205.636 Y115.182 E156.74568
G1 X204.707 Y110.778 E157.28579
G1 X203.490 Y106.433 E157.82726
G1 X201.947 Y102.047 E158.38520
G1 X200.225 Y98.035 E158.90911
G1 X198.191 Y94.014 E159.44985
G1 X195.898 Y90.133 E159.99078
G1 X193.359 Y86.409 E160.53165
G1 X190.493 Y82.748 E161.08957
G1 X187.578 Y79.498 E161.61346
G1 X184.364 Y76.340 E162.15417
G1 X180.842 Y73.304 E162.71216
G1 X177.351 Y70.682 E163.23608
G1 X173.584 Y68.207 E163.77695
G1 X169.664 Y65.985 E164.31767
G1 X165.607 Y64.019 E164.85866
G1 X161.431 Y62.324 E165.39949
G1 X157.020 Y60.859 E165.95724
G1 X152.792 Y59.766 E166.48128
G1 X148.366 Y58.913 E167.02217
G1 X143.754 Y58.333 E167.57997
G1 X139.404 Y58.081 E168.10284
G1 X139.247 Y58.071 E168.12172
G1 X138.728 Y58.120 E168.18428
G1 X138.227 Y58.295 E168.24796
G1 X137.784 Y58.585 E168.31150
G1 X137.421 Y58.971 E168.37508
G1 X136.965 Y59.791 E168.48768
G1 X136.667 Y60.117 E168.54068
G1 X136.320 Y60.351 E168.59090
G1 X135.921 Y60.498 E168.64193
G1 X135.484 Y60.550 E168.69474
G1 X128.210 Y60.549 E169.56762
G1 X127.782 Y60.497 E169.61935
G1 X127.388 Y60.350 E169.66982
G1 X127.033 Y60.111 E169.72117
G1 X126.744 Y59.794 E169.77265
G1 X126.297 Y58.981 E169.88398
G1 X125.938 Y58.583 E169.94830
G1 X125.505 Y58.292 E170.01090
G1 X125.017 Y58.110 E170.07340
G1 X124.512 Y58.050 E170.13443
G1 X27.987 Y58.050 E181.71743
G1 X27.430 Y58.123 E181.78484
G1 X26.899 Y58.342 E181.85377
G1 X26.442 Y58.692 E181.92284
G1 X26.092 Y59.149 E181.99192
G1 X25.873 Y59.680 E182.06085
G1 X25.800 Y60.237 E182.12826
G1 X25.800 Y60.550 E182.16582
G1 X15.200 Y60.550 E183.43782
G1 X15.200 Y49.950 E184.70982
G1 X25.801 Y49.950 E185.98194
G1 X25.802 Y50.280 E186.02154
G1 X25.873 Y50.819 E186.08678
G1 X26.092 Y51.350 E186.15570
G1 X26.442 Y51.807 E186.22478
G1 X26.899 Y52.157 E186.29385
G1 X27.430 Y52.376 E186.36278
G1 X27.987 Y52.450 E186.43021
G1 X126.699 Y52.450 E198.27565
G1 X126.702 Y51.745 E198.36025
G1 X126.762 Y51.285 E198.41592
G1 X126.941 Y50.852 E198.47214
G1 X127.228 Y50.478 E198.52871
G1 X127.602 Y50.191 E198.58528
G1 X128.035 Y50.012 E198.64151
G1 X128.511 Y49.950 E198.69911
G1 X135.779 Y49.951 E199.57127
G1 X136.209 Y50.003 E199.62325
G1 X136.609 Y50.152 E199.67447
G1 X136.961 Y50.392 E199.72559
G1 X137.248 Y50.709 E199.77691
G1 X137.689 Y51.525 E199.88821
G1 X138.037 Y51.921 E199.95147
G1 X138.458 Y52.214 E200.01303
G1 X138.934 Y52.404 E200.07453
G1 X139.428 Y52.474 E200.13440
G1 X143.990 Y52.736 E200.68274
G1 X148.816 Y53.311 E201.26596
G1 X153.301 Y54.142 E201.81332
G1 X157.855 Y55.277 E202.37652
G1 X162.493 Y56.749 E202.96043
G1 X166.876 Y58.459 E203.52501
G1 X171.133 Y60.438 E204.08835
G1 X175.279 Y62.691 E204.65458
G1 X179.129 Y65.109 E205.20014
G1 X182.963 Y67.856 E205.76612
G1 X183.073 Y67.936 E205.78245
G1 X186.607 Y70.833 E206.33081
G1 X190.058 Y74.033 E206.89556
G1 X193.300 Y77.443 E207.46018
G1 X196.314 Y81.041 E208.02341
G1 X199.198 Y84.961 E208.60741
G1 X201.649 Y88.788 E209.15276
